;FLAVOR:Marlin
;TIME:5747
;Filament used: 4.23529m
;Layer height: 0.2
;MINX:100.25
;MINY:39
;MINZ:0.2
;MAXX:149.75
;MAXY:211
;MAXZ:8.2
;Generated with Cura_SteamEngine 4.12.1
M140 S50
M105
M190 S50
M104 S200
M105
M109 S200
M82 ;absolute extrusion mode
; Ender 3 Custom Start G-code
G92 E0 ; Reset Extruder
G28 ; Home all axes
G1 Z2.0 F3000 ; Move Z Axis up little to prevent scratching of Heat Bed
G1 X0.1 Y20 Z0.3 F5000.0 ; Move to start position
G1 X0.1 Y200.0 Z0.3 F1500.0 E15 ; Draw the first line
G1 X0.4 Y200.0 Z0.3 F5000.0 ; Move to side a little
G1 X0.4 Y20 Z0.3 F1500.0 E30 ; Draw the second line
G92 E0 ; Reset Extruder
G1 Z2.0 F3000 ; Move Z Axis up little to prevent scratching of Heat Bed
G1 X5 Y20 Z0.3 F5000.0 ; Move over to prevent blob squish
G92 E0
G92 E0
G1 F2700 E-5
;LAYER_COUNT:41
;LAYER:0
M107
G0 F6000 X101.306 Y46.074 Z0.2
;TYPE:SKIRT
G1 F2700 E0
G1 F1200 X101.742 Y45.243 E0.03121
G1 X102.246 Y44.453 E0.06238
G1 X102.816 Y43.708 E0.09358
G1 X103.447 Y43.014 E0.12478
G1 X104.136 Y42.377 E0.15599
G1 X104.875 Y41.801 E0.18715
G1 X105.662 Y41.29 E0.21836
G1 X106.489 Y40.847 E0.24956
G1 X107.35 Y40.477 E0.28073
G1 X108.24 Y40.181 E0.31193
G1 X109.152 Y39.963 E0.34312
G1 X110.315 Y39.8 E0.38218
G1 X110.892 Y39.751 E0.40144
G1 X112.685 Y39.623 E0.46122
G1 X115.168 Y39.374 E0.54422
G1 X116.858 Y39.156 E0.6009
G1 X117.508 Y39.081 E0.62266
G1 X118.451 Y39.013 E0.65411
G1 X118.77 Y39.004 E0.66472
G1 X119.08 Y39 E0.67503
G1 X125.285 Y39 E0.88141
G1 X127.483 Y39.03 E0.95452
G1 X130.209 Y39.029 E1.04519
G1 X132.254 Y39 E1.11321
G1 X138.201 Y39.001 E1.31101
G1 X138.899 Y39.011 E1.33423
G1 X139.835 Y39.065 E1.36541
G1 X140.763 Y39.197 E1.39659
G1 X141.677 Y39.409 E1.4278
G1 X142.569 Y39.698 E1.45898
G1 X143.434 Y40.061 E1.49018
G1 X144.264 Y40.497 E1.52137
G1 X145.055 Y41.002 E1.55258
G1 X145.799 Y41.573 E1.58377
G1 X146.492 Y42.205 E1.61497
G1 X147.129 Y42.893 E1.64615
G1 X147.704 Y43.634 E1.67735
G1 X148.215 Y44.42 E1.70853
G1 X148.657 Y45.248 E1.73975
G1 X149.026 Y46.11 E1.77093
G1 X149.321 Y47 E1.80212
G1 X149.539 Y47.912 E1.83331
G1 X149.679 Y48.84 E1.86452
G1 X149.736 Y49.693 E1.89296
G1 X149.745 Y50.005 E1.90334
G1 X149.75 Y50.322 E1.91388
G1 X149.749 Y111.451 E3.94704
G1 X149.739 Y112.148 E3.97023
G1 X149.659 Y113.326 E4.0095
G1 X149.624 Y113.612 E4.01908
G1 X149.332 Y116.177 E4.10494
G1 X149.118 Y118.684 E4.18863
G1 X148.977 Y121.169 E4.27141
G1 X148.905 Y123.727 E4.35653
G1 X148.905 Y126.215 E4.43928
G1 X148.977 Y128.747 E4.52353
G1 X149.12 Y131.287 E4.60814
G1 X149.329 Y133.741 E4.69006
G1 X149.671 Y136.77 E4.79144
G1 X149.735 Y137.667 E4.82135
G1 X149.745 Y137.997 E4.83233
G1 X149.75 Y138.33 E4.84341
G1 X149.749 Y199.4 E6.87461
G1 X149.74 Y200.127 E6.89879
G1 X149.689 Y201.064 E6.93
G1 X149.557 Y201.992 E6.96118
G1 X149.348 Y202.906 E6.99236
G1 X149.061 Y203.799 E7.02356
G1 X148.699 Y204.665 E7.05478
G1 X148.265 Y205.496 E7.08596
G1 X147.761 Y206.287 E7.11715
G1 X147.192 Y207.032 E7.14833
G1 X146.561 Y207.727 E7.17955
G1 X145.874 Y208.365 E7.21074
G1 X145.135 Y208.942 E7.24192
G1 X144.349 Y209.454 E7.27312
G1 X143.523 Y209.897 E7.3043
G1 X142.661 Y210.269 E7.33552
G1 X141.772 Y210.565 E7.36669
G1 X140.86 Y210.785 E7.39789
G1 X139.933 Y210.926 E7.42908
G1 X139.049 Y210.987 E7.45855
G1 X138.728 Y210.996 E7.46923
G1 X138.42 Y211 E7.47947
G1 X132.059 Y210.999 E7.69104
G1 X130.017 Y210.97 E7.75896
G1 X127.291 Y210.971 E7.84963
G1 X125.246 Y211 E7.91766
G1 X119.299 Y210.999 E8.11545
G1 X118.602 Y210.989 E8.13864
G1 X117.974 Y210.962 E8.15955
G1 X117.338 Y210.899 E8.1808
G1 X116.435 Y210.784 E8.21108
G1 X113.803 Y210.485 E8.29918
G1 X111.273 Y210.269 E8.38364
G1 X110.473 Y210.212 E8.41031
G1 X109.542 Y210.105 E8.44148
G1 X108.622 Y209.919 E8.4727
G1 X107.722 Y209.656 E8.50389
G1 X106.848 Y209.317 E8.53507
G1 X106.006 Y208.904 E8.56626
G1 X105.201 Y208.422 E8.59746
G1 X104.441 Y207.872 E8.62867
G1 X103.731 Y207.26 E8.65984
G1 X103.075 Y206.59 E8.69103
G1 X102.479 Y205.866 E8.72222
G1 X101.946 Y205.094 E8.75342
G1 X101.481 Y204.279 E8.78463
G1 X101.087 Y203.428 E8.81582
G1 X100.768 Y202.546 E8.84702
G1 X100.524 Y201.641 E8.87819
G1 X100.359 Y200.718 E8.90938
G1 X100.263 Y199.538 E8.94876
G1 X100.254 Y199.206 E8.9598
G1 X100.25 Y198.908 E8.96971
G1 X100.251 Y192.411 E9.18581
G1 X100.262 Y191.702 E9.20939
G1 X100.317 Y190.766 E9.24057
G1 X100.451 Y189.838 E9.27176
G1 X100.664 Y188.924 E9.30297
G1 X101.054 Y187.773 E9.34339
G1 X101.303 Y187.153 E9.36562
G1 X102.246 Y184.706 E9.45284
G1 X103.08 Y182.344 E9.53615
G1 X103.854 Y179.938 E9.62022
G1 X104.551 Y177.54 E9.70327
G1 X105.19 Y175.081 E9.78778
G1 X105.761 Y172.611 E9.8721
G1 X106.247 Y170.177 E9.95465
G1 X106.674 Y167.685 E10.03874
G1 X107.028 Y165.198 E10.12229
G1 X107.315 Y162.677 E10.20668
G1 X107.527 Y160.184 E10.2899
G1 X107.668 Y157.7 E10.37265
G1 X107.741 Y155.112 E10.45876
G1 X107.75 Y153.818 E10.5018
G1 X107.75 Y96.187 E12.41862
G1 X107.713 Y93.578 E12.5054
G1 X107.606 Y91.057 E12.58933
G1 X107.429 Y88.562 E12.67252
G1 X107.181 Y86.063 E12.75604
G1 X106.863 Y83.574 E12.8395
G1 X106.469 Y81.065 E12.92397
G1 X106.01 Y78.599 E13.0074
G1 X105.476 Y76.116 E13.09188
G1 X104.889 Y73.721 E13.17389
G1 X104.211 Y71.255 E13.25895
G1 X103.482 Y68.875 E13.34174
G1 X102.671 Y66.472 E13.4261
G1 X101.791 Y64.084 E13.51074
G1 X101.277 Y62.804 E13.55662
G1 X100.991 Y62.06 E13.58313
G1 X100.693 Y61.171 E13.61432
G1 X100.471 Y60.26 E13.6455
G1 X100.327 Y59.333 E13.67671
G1 X100.263 Y58.424 E13.70701
G1 X100.254 Y58.106 E13.71759
G1 X100.25 Y57.795 E13.72794
G1 X100.251 Y51.276 E13.94476
G1 X100.26 Y50.61 E13.96692
G1 X100.313 Y49.674 E13.9981
G1 X100.445 Y48.745 E14.02931
G1 X100.656 Y47.832 E14.06047
G1 X100.944 Y46.939 E14.09168
G1 X101.306 Y46.074 E14.12287
G0 F6000 X101.705 Y46.168
G1 F1200 X102.139 Y45.357 E14.15346
G1 X102.642 Y44.586 E14.18408
G1 X103.21 Y43.861 E14.21471
G1 X103.839 Y43.189 E14.24533
G1 X104.524 Y42.573 E14.27597
G1 X105.26 Y42.02 E14.30659
G1 X106.041 Y41.532 E14.33722
G1 X106.861 Y41.114 E14.36783
G1 X107.715 Y40.769 E14.39846
G1 X108.595 Y40.499 E14.42908
G1 X109.495 Y40.307 E14.45969
G1 X110.349 Y40.198 E14.48832
G1 X110.92 Y40.15 E14.50738
G1 X112.72 Y40.021 E14.5674
G1 X115.222 Y39.77 E14.65104
G1 X117.056 Y39.535 E14.71253
G1 X117.553 Y39.478 E14.72917
G1 X118.462 Y39.413 E14.75948
G1 X118.781 Y39.404 E14.7701
G1 X119.08 Y39.4 E14.78004
G1 X125.285 Y39.4 E14.98642
G1 X127.478 Y39.43 E15.05937
G1 X130.215 Y39.429 E15.1504
G1 X132.254 Y39.4 E15.21823
G1 X138.195 Y39.401 E15.41582
G1 X138.893 Y39.411 E15.43904
G1 X139.812 Y39.464 E15.46966
G1 X140.723 Y39.597 E15.50028
G1 X141.619 Y39.808 E15.5309
G1 X142.493 Y40.096 E15.5615
G1 X143.34 Y40.459 E15.59215
G1 X144.151 Y40.894 E15.62276
G1 X144.921 Y41.398 E15.65337
G1 X145.645 Y41.967 E15.684
G1 X146.317 Y42.597 E15.71464
G1 X146.932 Y43.282 E15.74525
G1 X147.485 Y44.018 E15.77587
G1 X147.972 Y44.799 E15.80649
G1 X148.389 Y45.62 E15.83711
G1 X148.734 Y46.474 E15.86775
G1 X149.003 Y47.354 E15.89835
G1 X149.195 Y48.255 E15.92899
G1 X149.308 Y49.168 E15.95959
G1 X149.337 Y49.704 E15.97744
G1 X149.346 Y50.016 E15.98783
G1 X149.35 Y50.322 E15.998
G1 X149.349 Y111.445 E18.03096
G1 X149.339 Y112.142 E18.05415
G1 X149.262 Y113.278 E18.09202
G1 X149.227 Y113.564 E18.1016
G1 X148.935 Y116.13 E18.1875
G1 X148.719 Y118.663 E18.27205
G1 X148.577 Y121.169 E18.35554
G1 X148.505 Y123.716 E18.44028
G1 X148.505 Y126.226 E18.52377
G1 X148.577 Y128.782 E18.60881
G1 X148.717 Y131.27 E18.69169
G1 X148.935 Y133.822 E18.77688
G1 X149.274 Y136.815 E18.87707
G1 X149.335 Y137.679 E18.90588
G1 X149.345 Y138.009 E18.91686
G1 X149.35 Y138.33 E18.92753
G1 X149.349 Y199.395 E20.95856
G1 X149.34 Y200.122 E20.98275
G1 X149.289 Y201.041 E21.01336
G1 X149.158 Y201.953 E21.044
G1 X148.948 Y202.849 E21.07461
G1 X148.662 Y203.724 E21.10523
G1 X148.301 Y204.571 E21.13585
G1 X147.867 Y205.383 E21.16648
G1 X147.365 Y206.155 E21.1971
G1 X146.797 Y206.88 E21.22774
G1 X146.169 Y207.553 E21.25835
G1 X145.485 Y208.169 E21.28897
G1 X144.75 Y208.723 E21.31958
G1 X143.97 Y209.212 E21.3502
G1 X143.15 Y209.631 E21.38083
G1 X142.297 Y209.977 E21.41145
G1 X141.417 Y210.248 E21.44207
G1 X140.517 Y210.441 E21.47269
G1 X139.603 Y210.556 E21.50332
G1 X139.038 Y210.587 E21.52214
G1 X138.717 Y210.596 E21.53283
G1 X138.42 Y210.6 E21.5427
G1 X132.065 Y210.599 E21.75407
G1 X130.022 Y210.57 E21.82203
G1 X127.285 Y210.571 E21.91306
G1 X125.246 Y210.6 E21.98089
G1 X119.305 Y210.599 E22.17849
G1 X118.608 Y210.589 E22.20167
G1 X118.002 Y210.563 E22.22184
G1 X117.388 Y210.503 E22.24236
G1 X116.384 Y210.375 E22.27603
G1 X113.882 Y210.091 E22.35978
G1 X111.26 Y209.867 E22.4473
G1 X110.502 Y209.813 E22.47258
G1 X109.587 Y209.707 E22.50322
G1 X108.685 Y209.523 E22.53383
G1 X107.803 Y209.261 E22.56444
G1 X106.946 Y208.923 E22.59508
G1 X106.122 Y208.512 E22.6257
G1 X105.337 Y208.032 E22.65631
G1 X104.597 Y207.485 E22.68691
G1 X103.906 Y206.875 E22.71757
G1 X103.272 Y206.209 E22.74815
G1 X102.697 Y205.489 E22.7788
G1 X102.187 Y204.723 E22.80941
G1 X101.746 Y203.915 E22.84002
G1 X101.376 Y203.072 E22.87064
G1 X101.081 Y202.2 E22.90126
G1 X100.862 Y201.305 E22.93191
G1 X100.722 Y200.395 E22.96253
G1 X100.663 Y199.527 E22.99147
G1 X100.654 Y199.195 E23.00251
G1 X100.65 Y198.908 E23.01206
G1 X100.651 Y192.418 E23.22792
G1 X100.662 Y191.709 E23.2515
G1 X100.717 Y190.79 E23.28212
G1 X100.85 Y189.879 E23.31275
G1 X101.063 Y188.983 E23.34338
G1 X101.425 Y187.922 E23.38066
G1 X101.676 Y187.298 E23.40303
G1 X102.62 Y184.847 E23.49039
G1 X103.462 Y182.463 E23.57448
G1 X104.236 Y180.057 E23.65855
G1 X104.933 Y177.656 E23.7417
G1 X105.584 Y175.157 E23.82759
G1 X106.148 Y172.713 E23.91102
G1 X106.64 Y170.251 E23.99452
G1 X107.071 Y167.737 E24.07936
G1 X107.428 Y165.228 E24.16365
G1 X107.708 Y162.758 E24.24633
G1 X107.926 Y160.203 E24.33161
G1 X108.068 Y157.698 E24.41507
G1 X108.141 Y155.126 E24.50064
G1 X108.15 Y153.821 E24.54405
G1 X108.15 Y96.181 E26.46116
G1 X108.113 Y93.555 E26.54851
G1 X108.006 Y91.048 E26.63197
G1 X107.828 Y88.527 E26.71603
G1 X107.578 Y86.009 E26.80019
G1 X107.257 Y83.498 E26.88439
G1 X106.87 Y81.036 E26.96728
G1 X106.401 Y78.514 E27.0526
G1 X105.869 Y76.042 E27.1367
G1 X105.269 Y73.592 E27.2206
G1 X104.602 Y71.169 E27.30418
G1 X103.857 Y68.735 E27.38885
G1 X103.039 Y66.31 E27.47397
G1 X102.178 Y63.975 E27.55674
G1 X101.651 Y62.66 E27.60386
G1 X101.365 Y61.916 E27.63037
G1 X101.072 Y61.044 E27.66097
G1 X100.856 Y60.149 E27.69159
G1 X100.719 Y59.238 E27.72223
G1 X100.663 Y58.413 E27.74973
G1 X100.654 Y58.095 E27.76031
G1 X100.65 Y57.795 E27.77029
G1 X100.651 Y51.282 E27.98692
G1 X100.66 Y50.616 E28.00907
G1 X100.712 Y49.697 E28.03968
G1 X100.844 Y48.785 E28.07033
G1 X101.055 Y47.889 E28.10095
G1 X101.342 Y47.015 E28.13155
G1 X101.705 Y46.168 E28.1622
G0 F6000 X102.103 Y46.264
G1 F1200 X102.536 Y45.472 E28.19222
G1 X103.038 Y44.721 E28.22226
G1 X103.604 Y44.017 E28.25231
G1 X104.231 Y43.367 E28.28234
G1 X104.912 Y42.774 E28.31238
G1 X105.643 Y42.244 E28.34241
G1 X106.419 Y41.781 E28.37246
G1 X107.232 Y41.388 E28.4025
G1 X108.076 Y41.068 E28.43252
G1 X108.946 Y40.825 E28.46256
G1 X109.834 Y40.659 E28.49261
G1 X110.384 Y40.597 E28.51102
G1 X110.949 Y40.549 E28.52988
G1 X112.753 Y40.42 E28.59003
G1 X115.277 Y40.167 E28.6744
G1 X117.102 Y39.932 E28.7356
G1 X117.599 Y39.875 E28.75224
G1 X118.473 Y39.813 E28.78138
G1 X118.792 Y39.804 E28.792
G1 X119.08 Y39.8 E28.80158
G1 X125.285 Y39.8 E29.00796
G1 X127.473 Y39.83 E29.08074
G1 X130.221 Y39.829 E29.17214
G1 X132.254 Y39.8 E29.23976
G1 X138.189 Y39.801 E29.43716
G1 X138.887 Y39.811 E29.46038
G1 X139.789 Y39.864 E29.49043
G1 X140.682 Y39.996 E29.52045
G1 X141.56 Y40.207 E29.55049
G1 X142.416 Y40.495 E29.58053
G1 X143.243 Y40.857 E29.61055
G1 X144.035 Y41.292 E29.64061
G1 X144.786 Y41.794 E29.67065
G1 X145.489 Y42.361 E29.70069
G1 X146.139 Y42.988 E29.73073
G1 X146.731 Y43.67 E29.76077
G1 X147.261 Y44.401 E29.7908
G1 X147.723 Y45.177 E29.82084
G1 X148.116 Y45.99 E29.85087
G1 X148.434 Y46.835 E29.8809
G1 X148.677 Y47.705 E29.91094
G1 X148.842 Y48.593 E29.94098
G1 X148.937 Y49.716 E29.97847
G1 X148.946 Y50.028 E29.98885
G1 X148.95 Y50.322 E29.99863
G1 X148.949 Y111.439 E32.03139
G1 X148.939 Y112.136 E32.05457
G1 X148.864 Y113.229 E32.09101
G1 X148.829 Y113.515 E32.10059
G1 X148.536 Y116.087 E32.18669
G1 X148.322 Y118.605 E32.27074
G1 X148.177 Y121.171 E32.35623
G1 X148.105 Y123.705 E32.44054
G1 X148.105 Y126.238 E32.52479
G1 X148.177 Y128.778 E32.6093
G1 X148.32 Y131.328 E32.69425
G1 X148.534 Y133.83 E32.77777
G1 X148.876 Y136.859 E32.87916
G1 X148.935 Y137.691 E32.9069
G1 X148.945 Y138.021 E32.91788
G1 X148.95 Y138.33 E32.92816
G1 X148.949 Y199.39 E34.95902
G1 X148.94 Y200.117 E34.9832
G1 X148.889 Y201.019 E35.01325
G1 X148.758 Y201.913 E35.0433
G1 X148.549 Y202.791 E35.07332
G1 X148.263 Y203.648 E35.10337
G1 X147.902 Y204.476 E35.13341
G1 X147.47 Y205.268 E35.16342
G1 X146.969 Y206.02 E35.19347
G1 X146.403 Y206.724 E35.22352
G1 X145.778 Y207.375 E35.25353
G1 X145.097 Y207.969 E35.28359
G1 X144.366 Y208.5 E35.31364
G1 X143.592 Y208.964 E35.34366
G1 X142.779 Y209.358 E35.3737
G1 X141.935 Y209.678 E35.40373
G1 X141.065 Y209.923 E35.43379
G1 X140.178 Y210.089 E35.4638
G1 X139.027 Y210.187 E35.50222
G1 X138.706 Y210.196 E35.5129
G1 X138.42 Y210.2 E35.52242
G1 X132.07 Y210.199 E35.73362
G1 X130.027 Y210.17 E35.80158
G1 X127.279 Y210.171 E35.89297
G1 X125.246 Y210.2 E35.9606
G1 X119.311 Y210.199 E36.158
G1 X118.614 Y210.189 E36.18118
G1 X118.029 Y210.164 E36.20066
G1 X117.439 Y210.106 E36.22038
G1 X116.483 Y209.984 E36.25243
G1 X113.889 Y209.69 E36.33926
G1 X111.321 Y209.471 E36.42498
G1 X110.531 Y209.414 E36.45133
G1 X109.634 Y209.31 E36.48136
G1 X108.749 Y209.126 E36.51142
G1 X107.885 Y208.866 E36.54143
G1 X107.046 Y208.529 E36.57151
G1 X106.241 Y208.12 E36.60154
G1 X105.475 Y207.642 E36.63157
G1 X104.755 Y207.097 E36.6616
G1 X104.085 Y206.491 E36.69165
G1 X103.472 Y205.828 E36.72168
G1 X102.92 Y205.114 E36.7517
G1 X102.433 Y204.353 E36.78175
G1 X102.015 Y203.552 E36.8118
G1 X101.67 Y202.718 E36.84182
G1 X101.4 Y201.856 E36.87186
G1 X101.207 Y200.974 E36.90189
G1 X101.093 Y200.078 E36.93193
G1 X101.063 Y199.516 E36.95065
G1 X101.054 Y199.184 E36.9617
G1 X101.05 Y198.908 E36.97088
G1 X101.051 Y192.424 E37.18654
G1 X101.062 Y191.715 E37.21012
G1 X101.116 Y190.813 E37.24018
G1 X101.25 Y189.92 E37.27021
G1 X101.462 Y189.042 E37.30025
G1 X101.796 Y188.071 E37.33441
G1 X102.049 Y187.442 E37.35696
G1 X102.995 Y184.987 E37.44446
G1 X103.845 Y182.581 E37.52933
G1 X104.618 Y180.175 E37.61339
G1 X105.328 Y177.731 E37.69803
G1 X105.967 Y175.276 E37.78241
G1 X106.542 Y172.784 E37.86747
G1 X107.035 Y170.319 E37.95108
G1 X107.462 Y167.825 E38.03524
G1 X107.822 Y165.298 E38.12013
G1 X108.11 Y162.766 E38.20489
G1 X108.323 Y160.259 E38.28858
G1 X108.468 Y157.698 E38.37389
G1 X108.541 Y155.139 E38.45904
G1 X108.55 Y153.824 E38.50278
G1 X108.55 Y96.175 E40.42019
G1 X108.513 Y93.568 E40.50691
G1 X108.404 Y91.001 E40.59236
G1 X108.227 Y88.499 E40.67579
G1 X107.978 Y85.986 E40.75978
G1 X107.65 Y83.423 E40.84572
G1 X107.259 Y80.938 E40.92939
G1 X106.799 Y78.462 E41.01315
G1 X106.255 Y75.935 E41.09913
G1 X105.658 Y73.496 E41.18264
G1 X104.982 Y71.041 E41.26733
G1 X104.246 Y68.637 E41.35095
G1 X103.421 Y66.192 E41.43678
G1 X102.548 Y63.824 E41.52072
G1 X102.024 Y62.517 E41.56756
G1 X101.738 Y61.773 E41.59407
G1 X101.452 Y60.916 E41.62412
G1 X101.242 Y60.038 E41.65414
G1 X101.111 Y59.144 E41.6842
G1 X101.063 Y58.402 E41.70893
G1 X101.054 Y58.084 E41.71951
G1 X101.05 Y57.795 E41.72912
G1 X101.051 Y51.287 E41.94558
G1 X101.06 Y50.621 E41.96773
G1 X101.112 Y49.72 E41.99775
G1 X101.244 Y48.826 E42.0278
G1 X101.454 Y47.948 E42.05783
G1 X101.741 Y47.092 E42.08786
G1 X102.103 Y46.264 E42.11792
G1 F2700 E37.11792
;MESH:vt320_stand_F1.stl
G0 F6000 X110.597 Y58.778
G0 X118.097 Y58.778
G0 X119.164 Y57.711
G0 X119.532 Y192.657
G0 X112.032 Y192.657
G0 X112.032 Y198.468
G0 X114.218 Y198.468
G0 X114.218 Y193.843
G0 X119.532 Y193.843
G0 X119.532 Y199.218
G0 X124.959 Y199.4
;TYPE:WALL-INNER
G1 F2700 E42.11792
G1 F1200 X119.35 Y199.4 E42.30447
