;FLAVOR:Marlin
;TIME:4884
;Filament used: 3.09355m
;Layer height: 0.2
;MINX:82.25
;MINY:71
;MINZ:0.2
;MAXX:152.745
;MAXY:164
;MAXZ:13
;Generated with Cura_SteamEngine 4.12.1
M140 S50
M105
M190 S50
M104 S200
M105
M109 S200
M82 ;absolute extrusion mode
; Ender 3 Custom Start G-code
G92 E0 ; Reset Extruder
G28 ; Home all axes
G1 Z2.0 F3000 ; Move Z Axis up little to prevent scratching of Heat Bed
G1 X0.1 Y20 Z0.3 F5000.0 ; Move to start position
G1 X0.1 Y200.0 Z0.3 F1500.0 E15 ; Draw the first line
G1 X0.4 Y200.0 Z0.3 F5000.0 ; Move to side a little
G1 X0.4 Y20 Z0.3 F1500.0 E30 ; Draw the second line
G92 E0 ; Reset Extruder
G1 Z2.0 F3000 ; Move Z Axis up little to prevent scratching of Heat Bed
G1 X5 Y20 Z0.3 F5000.0 ; Move over to prevent blob squish
G92 E0
G92 E0
G1 F2700 E-5
;LAYER_COUNT:65
;LAYER:0
M107
G0 F6000 X84.828 Y74.945 Z0.2
;TYPE:SKIRT
G1 F2700 E0
G1 F1200 X85.46 Y74.252 E0.03119
G1 X86.149 Y73.616 E0.06238
G1 X86.89 Y73.041 E0.09358
G1 X87.677 Y72.531 E0.12477
G1 X88.505 Y72.09 E0.15597
G1 X89.367 Y71.721 E0.18716
G1 X90.258 Y71.427 E0.21836
G1 X91.17 Y71.209 E0.24955
G1 X92.097 Y71.071 E0.28072
G1 X92.951 Y71.013 E0.30919
G1 X93.271 Y71.004 E0.31984
G1 X93.58 Y71 E0.33012
G1 X97.543 Y71 E0.46193
G1 X98.402 Y71.011 E0.4905
G1 X99.339 Y71.064 E0.52172
G1 X100.267 Y71.197 E0.5529
G1 X101.181 Y71.409 E0.5841
G1 X102.073 Y71.697 E0.61528
G1 X102.938 Y72.061 E0.64649
G1 X103.768 Y72.497 E0.67768
G1 X104.529 Y72.981 E0.70767
G1 X105.327 Y73.536 E0.74
G1 X107.469 Y74.984 E0.826
G1 X109.592 Y76.332 E0.90964
G1 X111.782 Y77.637 E0.99443
G1 X113.941 Y78.842 E1.07667
G1 X116.196 Y80.019 E1.16127
G1 X118.483 Y81.131 E1.24585
G1 X120.729 Y82.146 E1.32783
G1 X123.093 Y83.136 E1.41307
G1 X125.441 Y84.039 E1.49674
G1 X127.818 Y84.878 E1.58058
G1 X129.54 Y85.441 E1.64084
G1 X130.041 Y85.611 E1.65844
G1 X130.635 Y85.823 E1.67941
G1 X131.118 Y86.004 E1.69657
G1 X131.564 Y86.179 E1.7125
G1 X132.199 Y86.441 E1.73535
G1 X132.432 Y86.541 E1.74378
G1 X132.832 Y86.719 E1.75835
G1 X133.307 Y86.936 E1.77571
G1 X133.516 Y87.034 E1.78339
G1 X133.923 Y87.232 E1.79845
G1 X134.458 Y87.502 E1.81838
G1 X134.922 Y87.746 E1.83581
G1 X135.648 Y88.145 E1.86337
G1 X135.9 Y88.29 E1.87304
G1 X136.43 Y88.603 E1.89351
G1 X136.917 Y88.902 E1.91252
G1 X137.349 Y89.178 E1.92957
G1 X137.994 Y89.606 E1.95531
G1 X138.335 Y89.841 E1.96909
G1 X138.814 Y90.183 E1.98866
G1 X138.961 Y90.29 E1.99471
G1 X139.387 Y90.607 E2.01237
G1 X139.776 Y90.906 E2.02869
G1 X140.251 Y91.284 E2.04888
G1 X140.713 Y91.667 E2.06884
G1 X141.162 Y92.051 E2.08849
G1 X141.327 Y92.195 E2.09577
G1 X141.785 Y92.606 E2.11624
G1 X142.118 Y92.915 E2.13135
G1 X142.489 Y93.269 E2.14841
G1 X142.66 Y93.436 E2.15636
G1 X143.09 Y93.867 E2.17661
G1 X143.404 Y94.191 E2.19161
G1 X143.846 Y94.663 E2.21312
G1 X144.087 Y94.928 E2.22503
G1 X144.559 Y95.466 E2.24884
G1 X144.881 Y95.843 E2.26533
G1 X145.247 Y96.289 E2.28452
G1 X145.372 Y96.444 E2.29114
G1 X145.799 Y96.988 E2.31414
G1 X146.06 Y97.335 E2.32858
G1 X146.393 Y97.79 E2.34734
G1 X146.721 Y98.253 E2.36621
G1 X147.067 Y98.763 E2.38671
G1 X147.497 Y99.423 E2.41291
G1 X147.76 Y99.844 E2.42942
G1 X148.052 Y100.331 E2.4483
G1 X148.415 Y100.959 E2.47243
G1 X148.624 Y101.337 E2.4868
G1 X148.942 Y101.933 E2.50926
G1 X149.222 Y102.482 E2.52976
G1 X149.444 Y102.94 E2.54669
G1 X149.737 Y103.568 E2.56974
G1 X149.916 Y103.971 E2.58441
G1 X150.117 Y104.44 E2.60138
G1 X150.363 Y105.042 E2.62301
G1 X150.532 Y105.475 E2.63847
G1 X150.749 Y106.061 E2.65925
G1 X150.823 Y106.266 E2.6665
G1 X150.957 Y106.653 E2.68012
G1 X151.176 Y107.324 E2.7036
G1 X151.378 Y107.987 E2.72665
G1 X151.494 Y108.388 E2.74053
G1 X151.624 Y108.866 E2.75701
G1 X151.785 Y109.502 E2.77883
G1 X151.91 Y110.032 E2.79694
G1 X152.05 Y110.678 E2.81893
G1 X152.138 Y111.119 E2.83388
G1 X152.274 Y111.877 E2.8595
G1 X152.351 Y112.344 E2.87524
G1 X152.387 Y112.583 E2.88328
G1 X152.471 Y113.198 E2.90392
G1 X152.526 Y113.653 E2.91917
G1 X152.587 Y114.222 E2.9382
G1 X152.63 Y114.689 E2.9538
G1 X152.692 Y115.578 E2.98344
G1 X152.715 Y116.045 E2.99899
G1 X152.735 Y116.601 E3.01749
G1 X152.744 Y117.024 E3.03157
G1 X152.745 Y117.849 E3.05901
G1 X152.738 Y118.236 E3.07188
G1 X152.706 Y119.144 E3.1021
G1 X152.686 Y119.532 E3.11502
G1 X152.63 Y120.31 E3.14096
G1 X152.589 Y120.765 E3.15616
G1 X152.53 Y121.321 E3.17475
G1 X152.47 Y121.812 E3.19121
G1 X152.393 Y122.373 E3.21004
G1 X152.362 Y122.584 E3.21713
G1 X152.308 Y122.925 E3.22862
G1 X152.175 Y123.682 E3.25418
G1 X152.137 Y123.889 E3.26118
G1 X152.051 Y124.315 E3.27563
G1 X151.917 Y124.935 E3.29673
G1 X151.801 Y125.428 E3.31358
G1 X151.617 Y126.162 E3.33875
G1 X151.496 Y126.605 E3.35402
G1 X151.323 Y127.198 E3.37457
G1 X151.125 Y127.835 E3.39675
G1 X150.959 Y128.339 E3.4144
G1 X150.825 Y128.727 E3.42805
G1 X150.746 Y128.948 E3.43586
G1 X150.532 Y129.525 E3.45633
G1 X150.369 Y129.943 E3.47125
G1 X150.129 Y130.532 E3.4924
G1 X149.916 Y131.029 E3.51039
G1 X149.73 Y131.446 E3.52558
G1 X149.452 Y132.043 E3.54748
G1 X149.22 Y132.519 E3.56509
G1 X149.127 Y132.706 E3.57204
G1 X148.856 Y133.23 E3.59166
G1 X148.551 Y133.797 E3.61307
G1 X148.424 Y134.026 E3.62178
G1 X148.31 Y134.226 E3.62944
G1 X147.957 Y134.83 E3.65271
G1 X147.76 Y135.156 E3.66538
G1 X147.486 Y135.593 E3.68253
G1 X147.076 Y136.223 E3.70753
G1 X146.806 Y136.624 E3.72361
G1 X146.394 Y137.209 E3.74741
G1 X146.061 Y137.664 E3.76616
G1 X145.794 Y138.018 E3.78091
G1 X145.375 Y138.552 E3.80349
G1 X145 Y139.013 E3.82325
G1 X144.676 Y139.4 E3.84004
G1 X144.227 Y139.915 E3.86276
G1 X143.846 Y140.337 E3.88167
G1 X143.447 Y140.764 E3.90111
G1 X143.276 Y140.944 E3.90937
G1 X142.919 Y141.306 E3.92628
G1 X142.502 Y141.717 E3.94575
G1 X142.009 Y142.188 E3.96843
G1 X141.66 Y142.509 E3.9842
G1 X141.163 Y142.95 E4.0063
G1 X140.677 Y143.364 E4.02753
G1 X140.267 Y143.702 E4.04521
G1 X139.917 Y143.983 E4.06014
G1 X139.563 Y144.259 E4.07507
G1 X139.009 Y144.674 E4.09809
G1 X138.462 Y145.069 E4.12053
G1 X138.126 Y145.304 E4.13417
G1 X137.506 Y145.719 E4.15898
G1 X137.066 Y146.003 E4.1764
G1 X136.624 Y146.279 E4.19373
G1 X135.774 Y146.783 E4.2266
G1 X135.475 Y146.951 E4.23801
G1 X134.783 Y147.328 E4.26422
G1 X134.275 Y147.591 E4.28324
G1 X133.765 Y147.845 E4.30219
G1 X133.461 Y147.991 E4.31341
G1 X132.828 Y148.282 E4.33658
G1 X132.423 Y148.462 E4.35132
G1 X132.193 Y148.561 E4.35965
G1 X131.558 Y148.823 E4.3825
G1 X131.112 Y148.998 E4.39843
G1 X130.629 Y149.179 E4.41559
G1 X130.035 Y149.391 E4.43656
G1 X129.808 Y149.469 E4.44455
G1 X126.975 Y150.411 E4.54385
G1 X124.6 Y151.276 E4.62792
G1 X122.262 Y152.203 E4.71157
G1 X119.937 Y153.202 E4.79573
G1 X117.663 Y154.256 E4.8791
G1 X115.407 Y155.38 E4.96293
G1 X113.201 Y156.559 E5.04612
G1 X110.976 Y157.83 E5.13135
G1 X108.863 Y159.118 E5.21365
G1 X106.747 Y160.489 E5.29751
G1 X104.984 Y161.712 E5.36888
G1 X104.414 Y162.098 E5.39178
G1 X103.616 Y162.59 E5.42296
G1 X102.778 Y163.013 E5.45418
G1 X101.908 Y163.363 E5.48537
G1 X101.011 Y163.637 E5.51656
G1 X100.094 Y163.834 E5.54776
G1 X99.164 Y163.952 E5.57894
G1 X98.583 Y163.985 E5.59829
G1 X98.257 Y163.995 E5.60914
G1 X97.92 Y164 E5.62035
G1 X93.815 Y163.999 E5.75688
G1 X93.117 Y163.99 E5.7801
G1 X92.181 Y163.938 E5.81128
G1 X91.252 Y163.806 E5.84249
G1 X90.338 Y163.596 E5.87368
G1 X89.445 Y163.309 E5.90488
G1 X88.58 Y162.946 E5.93608
G1 X87.749 Y162.512 E5.96726
G1 X86.958 Y162.008 E5.99846
G1 X86.213 Y161.438 E6.02966
G1 X85.519 Y160.807 E6.06085
G1 X84.882 Y160.12 E6.09201
G1 X84.305 Y159.38 E6.12323
G1 X83.793 Y158.594 E6.15442
G1 X83.35 Y157.767 E6.18563
G1 X82.979 Y156.906 E6.21681
G1 X82.683 Y156.016 E6.24801
G1 X82.464 Y155.104 E6.2792
G1 X82.323 Y154.177 E6.31039
G1 X82.263 Y153.288 E6.34002
G1 X82.254 Y152.955 E6.3511
G1 X82.25 Y152.658 E6.36098
G1 X82.251 Y82.509 E8.69415
G1 X82.261 Y81.844 E8.71627
G1 X82.315 Y80.907 E8.74749
G1 X82.449 Y79.979 E8.77867
G1 X82.661 Y79.065 E8.80988
G1 X82.95 Y78.173 E8.84106
G1 X83.315 Y77.309 E8.87226
G1 X83.751 Y76.479 E8.90344
G1 X84.257 Y75.689 E8.93465
G1 X84.828 Y74.945 E8.96584
G0 F6000 X85.222 Y75.099
G1 F1200 X85.852 Y74.427 E8.99648
G1 X86.538 Y73.813 E9.0271
G1 X87.274 Y73.261 E9.0577
G1 X88.056 Y72.774 E9.08834
G1 X88.877 Y72.358 E9.11895
G1 X89.731 Y72.014 E9.14957
G1 X90.611 Y71.745 E9.18018
G1 X91.512 Y71.554 E9.21081
G1 X92.426 Y71.442 E9.24144
G1 X92.962 Y71.413 E9.25929
G1 X93.282 Y71.404 E9.26994
G1 X93.58 Y71.4 E9.27985
G1 X97.543 Y71.4 E9.41166
G1 X98.397 Y71.411 E9.44007
G1 X99.316 Y71.464 E9.47068
G1 X100.227 Y71.597 E9.50131
G1 X101.123 Y71.808 E9.53192
G1 X101.997 Y72.096 E9.56253
G1 X102.844 Y72.459 E9.59318
G1 X103.655 Y72.894 E9.62379
G1 X104.3 Y73.309 E9.6493
G1 X105.079 Y73.851 E9.68086
G1 X107.261 Y75.326 E9.76846
G1 X109.394 Y76.68 E9.85249
G1 X111.562 Y77.972 E9.93643
G1 X113.768 Y79.203 E10.02045
G1 X116.015 Y80.376 E10.10476
G1 X118.279 Y81.477 E10.18849
G1 X120.589 Y82.521 E10.27281
G1 X122.973 Y83.519 E10.35877
G1 X125.268 Y84.402 E10.44055
G1 X127.687 Y85.256 E10.52588
G1 X129.413 Y85.82 E10.58627
G1 X129.706 Y85.918 E10.59655
G1 X130.501 Y86.2 E10.6246
G1 X130.977 Y86.378 E10.64151
G1 X131.416 Y86.551 E10.6572
G1 X132.046 Y86.811 E10.67987
G1 X132.271 Y86.907 E10.688
G1 X132.666 Y87.082 E10.70237
G1 X133.141 Y87.299 E10.71974
G1 X133.599 Y87.518 E10.73663
G1 X134.121 Y87.778 E10.75602
G1 X134.549 Y88 E10.77206
G1 X135.266 Y88.39 E10.79921
G1 X135.573 Y88.563 E10.81093
G1 X136.226 Y88.948 E10.83614
G1 X136.418 Y89.064 E10.8436
G1 X136.86 Y89.34 E10.86093
G1 X137.277 Y89.609 E10.87744
G1 X137.772 Y89.939 E10.89722
G1 X138.108 Y90.17 E10.91079
G1 X138.581 Y90.508 E10.93012
G1 X139.148 Y90.928 E10.95359
G1 X139.531 Y91.222 E10.96965
G1 X140.001 Y91.597 E10.98965
G1 X140.168 Y91.733 E10.99681
G1 X140.57 Y92.07 E11.01426
G1 X141.06 Y92.493 E11.03579
G1 X141.514 Y92.9 E11.05607
G1 X141.842 Y93.204 E11.07094
G1 X142.213 Y93.558 E11.088
G1 X142.378 Y93.719 E11.09567
G1 X142.803 Y94.145 E11.11568
G1 X143.113 Y94.466 E11.13052
G1 X143.55 Y94.932 E11.15177
G1 X143.791 Y95.197 E11.16368
G1 X143.936 Y95.36 E11.17094
G1 X144.359 Y95.847 E11.1924
G1 X144.69 Y96.239 E11.20946
G1 X145.058 Y96.691 E11.22885
G1 X145.353 Y97.065 E11.24469
G1 X145.633 Y97.432 E11.26004
G1 X146.07 Y98.027 E11.2846
G1 X146.393 Y98.483 E11.30318
G1 X146.621 Y98.815 E11.31658
G1 X147.061 Y99.485 E11.34324
G1 X147.313 Y99.882 E11.35888
G1 X147.614 Y100.377 E11.37815
G1 X147.967 Y100.981 E11.40141
G1 X148.193 Y101.383 E11.41675
G1 X148.498 Y101.949 E11.43814
G1 X148.771 Y102.476 E11.45788
G1 X149.006 Y102.952 E11.47553
G1 X149.29 Y103.553 E11.49764
G1 X149.482 Y103.977 E11.51312
G1 X149.749 Y104.597 E11.53558
G1 X149.992 Y105.192 E11.55695
G1 X150.159 Y105.619 E11.5722
G1 X150.374 Y106.199 E11.59278
G1 X150.445 Y106.397 E11.59977
G1 X150.579 Y106.784 E11.61339
G1 X150.74 Y107.274 E11.63055
G1 X150.943 Y107.93 E11.65339
G1 X150.994 Y108.098 E11.65923
G1 X151.11 Y108.499 E11.67311
G1 X151.237 Y108.969 E11.6893
G1 X151.397 Y109.6 E11.71096
G1 X151.445 Y109.795 E11.71763
G1 X151.562 Y110.307 E11.7351
G1 X151.695 Y110.936 E11.75649
G1 X151.782 Y111.387 E11.77176
G1 X151.881 Y111.946 E11.79064
G1 X151.956 Y112.407 E11.80618
G1 X151.991 Y112.638 E11.81395
G1 X152.074 Y113.247 E11.83439
G1 X152.129 Y113.696 E11.84944
G1 X152.19 Y114.265 E11.86847
G1 X152.231 Y114.723 E11.88377
G1 X152.28 Y115.403 E11.90644
G1 X152.307 Y115.885 E11.9225
G1 X152.335 Y116.615 E11.9468
G1 X152.344 Y117.03 E11.9606
G1 X152.345 Y117.849 E11.98784
G1 X152.338 Y118.222 E12.00025
G1 X152.306 Y119.13 E12.03047
G1 X152.287 Y119.504 E12.04292
G1 X152.231 Y120.276 E12.06867
G1 X152.191 Y120.723 E12.08359
G1 X152.132 Y121.279 E12.10219
G1 X152.073 Y121.762 E12.11838
G1 X151.997 Y122.318 E12.13704
G1 X151.967 Y122.522 E12.1439
G1 X151.881 Y123.054 E12.16182
G1 X151.782 Y123.613 E12.1807
G1 X151.693 Y124.071 E12.19622
G1 X151.572 Y124.645 E12.21573
G1 X151.528 Y124.844 E12.22251
G1 X151.413 Y125.331 E12.23915
G1 X151.231 Y126.058 E12.26408
G1 X151.111 Y126.494 E12.27912
G1 X150.94 Y127.08 E12.29942
G1 X150.745 Y127.711 E12.32139
G1 X150.644 Y128.022 E12.33227
G1 X150.447 Y128.596 E12.35245
G1 X150.371 Y128.809 E12.35997
G1 X150.159 Y129.381 E12.38026
G1 X149.998 Y129.793 E12.39498
G1 X149.761 Y130.375 E12.41588
G1 X149.475 Y131.038 E12.43989
G1 X149.293 Y131.441 E12.4546
G1 X149.09 Y131.874 E12.4705
G1 X148.861 Y132.343 E12.48786
G1 X148.771 Y132.523 E12.49456
G1 X148.503 Y133.041 E12.51396
G1 X148.201 Y133.603 E12.53518
G1 X148.074 Y133.832 E12.54388
G1 X147.702 Y134.474 E12.56856
G1 X147.417 Y134.949 E12.58699
G1 X147.303 Y135.134 E12.59422
G1 X147.069 Y135.502 E12.60872
G1 X146.741 Y136.005 E12.62869
G1 X146.475 Y136.398 E12.64448
G1 X146.192 Y136.803 E12.66091
G1 X146.071 Y136.972 E12.66782
G1 X145.629 Y137.573 E12.69264
G1 X145.355 Y137.932 E12.70766
G1 X144.939 Y138.457 E12.72994
G1 X144.587 Y138.885 E12.74837
G1 X144.37 Y139.142 E12.75955
G1 X143.926 Y139.651 E12.78202
G1 X143.791 Y139.803 E12.78878
G1 X143.447 Y140.179 E12.80573
G1 X143.155 Y140.491 E12.81994
G1 X142.99 Y140.664 E12.8279
G1 X142.637 Y141.022 E12.84462
G1 X142.226 Y141.428 E12.86383
G1 X141.863 Y141.776 E12.88056
G1 X141.543 Y142.074 E12.8951
G1 X141.393 Y142.211 E12.90186
G1 X141.066 Y142.503 E12.91644
G1 X140.56 Y142.939 E12.93865
G1 X140.422 Y143.056 E12.94467
G1 X140.016 Y143.39 E12.96216
G1 X139.666 Y143.671 E12.97709
G1 X139.317 Y143.943 E12.9918
G1 X139.146 Y144.074 E12.99897
G1 X138.77 Y144.354 E13.01456
G1 X138.229 Y144.744 E13.03674
G1 X137.898 Y144.975 E13.05017
G1 X137.284 Y145.386 E13.07474
G1 X136.85 Y145.667 E13.09194
G1 X136.414 Y145.938 E13.10901
G1 X136.226 Y146.052 E13.11633
G1 X135.575 Y146.435 E13.14145
G1 X135.283 Y146.6 E13.1526
G1 X134.792 Y146.869 E13.17122
G1 X134.598 Y146.973 E13.17854
G1 X134.096 Y147.233 E13.19735
G1 X133.592 Y147.484 E13.21607
G1 X133.108 Y147.714 E13.2339
G1 X132.535 Y147.976 E13.25485
G1 X132.261 Y148.097 E13.26482
G1 X132.04 Y148.191 E13.2728
G1 X131.41 Y148.451 E13.29547
G1 X130.971 Y148.624 E13.31117
G1 X130.495 Y148.802 E13.32807
G1 X129.901 Y149.014 E13.34905
G1 X129.682 Y149.09 E13.35676
G1 X126.817 Y150.042 E13.45717
G1 X124.464 Y150.899 E13.54046
G1 X122.093 Y151.84 E13.6253
G1 X119.79 Y152.83 E13.70868
G1 X117.496 Y153.893 E13.79277
G1 X115.205 Y155.034 E13.8779
G1 X112.993 Y156.216 E13.96131
G1 X110.817 Y157.46 E14.04468
G1 X108.642 Y158.785 E14.12939
G1 X106.509 Y160.168 E14.21394
G1 X104.76 Y161.381 E14.28473
G1 X104.19 Y161.767 E14.30763
G1 X103.406 Y162.249 E14.33824
G1 X102.583 Y162.662 E14.36886
G1 X101.727 Y163.002 E14.3995
G1 X100.845 Y163.266 E14.43012
G1 X99.944 Y163.453 E14.46073
G1 X98.571 Y163.585 E14.5066
G1 X98.245 Y163.595 E14.51745
G1 X97.92 Y163.6 E14.52826
G1 X93.82 Y163.599 E14.66463
G1 X93.122 Y163.59 E14.68784
G1 X92.203 Y163.538 E14.71846
G1 X91.292 Y163.407 E14.74907
G1 X90.396 Y163.197 E14.77968
G1 X89.521 Y162.91 E14.81031
G1 X88.674 Y162.548 E14.84094
G1 X87.862 Y162.114 E14.87157
G1 X87.091 Y161.612 E14.90217
G1 X86.366 Y161.044 E14.9328
G1 X85.693 Y160.415 E14.96344
G1 X85.078 Y159.731 E14.99403
G1 X84.524 Y158.996 E15.02464
G1 X84.036 Y158.215 E15.05528
G1 X83.617 Y157.395 E15.0859
G1 X83.271 Y156.542 E15.11652
G1 X83.001 Y155.662 E15.14713
G1 X82.808 Y154.761 E15.17778
G1 X82.694 Y153.848 E15.20838
G1 X82.663 Y153.277 E15.2274
G1 X82.654 Y152.944 E15.23848
G1 X82.65 Y152.658 E15.248
G1 X82.651 Y82.515 E17.58096
G1 X82.661 Y81.85 E17.60308
G1 X82.715 Y80.931 E17.6337
G1 X82.848 Y80.02 E17.66432
G1 X83.06 Y79.124 E17.69495
G1 X83.349 Y78.249 E17.7256
G1 X83.713 Y77.404 E17.7562
G1 X84.148 Y76.593 E17.78681
G1 X84.653 Y75.822 E17.81746
G1 X85.222 Y75.099 E17.84806
G0 F6000 X85.616 Y75.256
G1 F1200 X86.243 Y74.606 E17.8781
G1 X86.925 Y74.014 E17.90814
G1 X87.657 Y73.485 E17.93818
G1 X88.433 Y73.023 E17.96821
G1 X89.247 Y72.632 E17.99825
G1 X90.092 Y72.313 E18.02829
G1 X90.962 Y72.071 E18.05832
G1 X91.85 Y71.907 E18.08836
G1 X92.973 Y71.813 E18.12584
G1 X93.293 Y71.804 E18.13649
G1 X93.58 Y71.8 E18.14603
G1 X97.543 Y71.8 E18.27784
G1 X98.391 Y71.811 E18.30605
G1 X99.293 Y71.864 E18.3361
G1 X100.186 Y71.996 E18.36613
G1 X101.064 Y72.207 E18.39616
