;FLAVOR:Marlin
;TIME:4328
;Filament used: 3.26414m
;Layer height: 0.2
;MINX:104
;MINY:30.514
;MINZ:0.2
;MAXX:146
;MAXY:202.514
;MAXZ:5.6
;Generated with Cura_SteamEngine 4.12.1
M140 S50
M105
M190 S50
M104 S200
M105
M109 S200
M82 ;absolute extrusion mode
; Ender 3 Custom Start G-code
G92 E0 ; Reset Extruder
G28 ; Home all axes
G1 Z2.0 F3000 ; Move Z Axis up little to prevent scratching of Heat Bed
G1 X0.1 Y20 Z0.3 F5000.0 ; Move to start position
G1 X0.1 Y200.0 Z0.3 F1500.0 E15 ; Draw the first line
G1 X0.4 Y200.0 Z0.3 F5000.0 ; Move to side a little
G1 X0.4 Y20 Z0.3 F1500.0 E30 ; Draw the second line
G92 E0 ; Reset Extruder
G1 Z2.0 F3000 ; Move Z Axis up little to prevent scratching of Heat Bed
G1 X5 Y20 Z0.3 F5000.0 ; Move over to prevent blob squish
G92 E0
G92 E0
G1 F2700 E-5
;LAYER_COUNT:28
;LAYER:0
M107
G0 F6000 X104.694 Y37.703 Z0.2
;TYPE:SKIRT
G1 F2700 E0
G1 F1200 X105.057 Y36.838 E0.0312
G1 X105.492 Y36.007 E0.0624
G1 X105.996 Y35.217 E0.09356
G1 X106.566 Y34.472 E0.12476
G1 X107.198 Y33.778 E0.15598
G1 X107.886 Y33.141 E0.18717
G1 X108.626 Y32.565 E0.21836
G1 X109.412 Y32.053 E0.24956
G1 X110.239 Y31.611 E0.28075
G1 X111.101 Y31.241 E0.31195
G1 X111.991 Y30.945 E0.34314
G1 X112.903 Y30.727 E0.37433
G1 X113.83 Y30.586 E0.40552
G1 X114.701 Y30.527 E0.43455
G1 X115.022 Y30.518 E0.44523
G1 X115.33 Y30.514 E0.45548
G1 X134.293 Y30.514 E1.08619
G1 X135.149 Y30.525 E1.11466
G1 X136.085 Y30.579 E1.14585
G1 X137.013 Y30.711 E1.17702
G1 X137.927 Y30.923 E1.20823
G1 X138.819 Y31.212 E1.23942
G1 X139.684 Y31.575 E1.27062
G1 X140.514 Y32.011 E1.3018
G1 X141.305 Y32.516 E1.33301
G1 X142.049 Y33.087 E1.36421
G1 X142.742 Y33.719 E1.3954
G1 X143.379 Y34.407 E1.42659
G1 X143.954 Y35.148 E1.45778
G1 X144.465 Y35.934 E1.48896
G1 X144.907 Y36.762 E1.52018
G1 X145.276 Y37.624 E1.55137
G1 X145.571 Y38.514 E1.58255
G1 X145.789 Y39.426 E1.61374
G1 X145.929 Y40.354 E1.64496
G1 X145.987 Y41.215 E1.67366
G1 X145.996 Y41.535 E1.6843
G1 X146 Y41.844 E1.69458
G1 X145.999 Y102.965 E3.72748
G1 X145.989 Y103.662 E3.75066
G1 X145.909 Y104.84 E3.78993
G1 X145.874 Y105.126 E3.79951
G1 X145.582 Y107.691 E3.88538
G1 X145.368 Y110.198 E3.96906
G1 X145.227 Y112.683 E4.05185
G1 X145.155 Y115.241 E4.13696
G1 X145.155 Y117.729 E4.21971
G1 X145.227 Y120.261 E4.30396
G1 X145.37 Y122.801 E4.38858
G1 X145.579 Y125.255 E4.47049
G1 X145.921 Y128.284 E4.57188
G1 X145.985 Y129.181 E4.60179
G1 X145.995 Y129.511 E4.61277
G1 X146 Y129.844 E4.62384
G1 X145.999 Y190.914 E6.65504
G1 X145.99 Y191.641 E6.67922
G1 X145.939 Y192.578 E6.71043
G1 X145.807 Y193.506 E6.74161
G1 X145.598 Y194.42 E6.77279
G1 X145.311 Y195.313 E6.80399
G1 X144.949 Y196.179 E6.83521
G1 X144.515 Y197.01 E6.86639
G1 X144.011 Y197.801 E6.89759
G1 X143.442 Y198.546 E6.92877
G1 X142.811 Y199.241 E6.95999
G1 X142.124 Y199.879 E6.99117
G1 X141.385 Y200.456 E7.02236
G1 X140.599 Y200.968 E7.05356
G1 X139.773 Y201.411 E7.08473
G1 X138.911 Y201.783 E7.11596
G1 X138.022 Y202.079 E7.14712
G1 X137.11 Y202.299 E7.17832
G1 X136.183 Y202.44 E7.20951
G1 X135.299 Y202.501 E7.23898
G1 X134.978 Y202.51 E7.24966
G1 X134.67 Y202.514 E7.25991
G1 X115.565 Y202.513 E7.89534
G1 X114.867 Y202.504 E7.91856
G1 X113.931 Y202.452 E7.94974
G1 X113.002 Y202.32 E7.98095
G1 X112.088 Y202.11 E8.01214
G1 X111.195 Y201.823 E8.04334
G1 X110.33 Y201.46 E8.07454
G1 X109.499 Y201.026 E8.10572
G1 X108.708 Y200.522 E8.13692
G1 X107.963 Y199.952 E8.16812
G1 X107.269 Y199.321 E8.19931
G1 X106.632 Y198.634 E8.23047
G1 X106.055 Y197.894 E8.26168
G1 X105.543 Y197.108 E8.29288
G1 X105.1 Y196.281 E8.32409
G1 X104.729 Y195.42 E8.35527
G1 X104.433 Y194.53 E8.38646
G1 X104.214 Y193.618 E8.41766
G1 X104.073 Y192.691 E8.44885
G1 X104.013 Y191.802 E8.47848
G1 X104.004 Y191.469 E8.48956
G1 X104 Y191.172 E8.49944
G1 X104.001 Y42.039 E13.45963
G1 X104.01 Y41.374 E13.48175
G1 X104.063 Y40.438 E13.51293
G1 X104.195 Y39.509 E13.54414
G1 X104.406 Y38.595 E13.57534
G1 X104.694 Y37.703 E13.60651
G0 F6000 X105.092 Y37.778
G1 F1200 X105.455 Y36.932 E13.63713
G1 X105.889 Y36.12 E13.66775
G1 X106.392 Y35.349 E13.69837
G1 X106.961 Y34.625 E13.729
G1 X107.589 Y33.953 E13.75959
G1 X108.274 Y33.337 E13.79023
G1 X109.01 Y32.784 E13.82085
G1 X109.791 Y32.296 E13.85148
G1 X110.611 Y31.878 E13.88209
G1 X111.465 Y31.533 E13.91273
G1 X112.345 Y31.263 E13.94334
G1 X113.245 Y31.071 E13.97395
G1 X114.159 Y30.957 E14.00459
G1 X114.712 Y30.927 E14.02301
G1 X115.033 Y30.918 E14.03369
G1 X115.33 Y30.914 E14.04356
G1 X134.293 Y30.914 E14.67428
G1 X135.143 Y30.925 E14.70255
G1 X136.062 Y30.978 E14.73317
G1 X136.973 Y31.111 E14.76379
G1 X137.869 Y31.322 E14.7944
G1 X138.743 Y31.61 E14.82501
G1 X139.59 Y31.973 E14.85566
G1 X140.401 Y32.408 E14.88627
G1 X141.171 Y32.912 E14.91688
G1 X141.895 Y33.481 E14.94751
G1 X142.567 Y34.111 E14.97814
G1 X143.182 Y34.796 E15.00876
G1 X143.735 Y35.532 E15.03938
G1 X144.222 Y36.313 E15.06999
G1 X144.639 Y37.134 E15.10062
G1 X144.984 Y37.988 E15.13125
G1 X145.253 Y38.868 E15.16186
G1 X145.445 Y39.769 E15.1925
G1 X145.558 Y40.682 E15.2231
G1 X145.587 Y41.226 E15.24122
G1 X145.596 Y41.546 E15.25187
G1 X145.6 Y41.844 E15.26178
G1 X145.599 Y102.959 E17.29447
G1 X145.589 Y103.656 E17.31766
G1 X145.512 Y104.792 E17.35553
G1 X145.477 Y105.078 E17.36511
G1 X145.185 Y107.644 E17.45101
G1 X144.969 Y110.177 E17.53556
G1 X144.827 Y112.683 E17.61904
G1 X144.755 Y115.23 E17.70379
G1 X144.755 Y117.74 E17.78727
G1 X144.827 Y120.296 E17.87232
G1 X144.967 Y122.784 E17.9552
G1 X145.185 Y125.336 E18.04039
G1 X145.524 Y128.329 E18.14057
G1 X145.585 Y129.193 E18.16938
G1 X145.595 Y129.523 E18.18036
G1 X145.6 Y129.844 E18.19104
G1 X145.599 Y190.909 E20.22207
G1 X145.59 Y191.636 E20.24625
G1 X145.539 Y192.555 E20.27687
G1 X145.408 Y193.467 E20.30751
G1 X145.198 Y194.363 E20.33812
G1 X144.912 Y195.238 E20.36874
G1 X144.551 Y196.085 E20.39936
G1 X144.117 Y196.897 E20.42998
G1 X143.615 Y197.669 E20.46061
G1 X143.047 Y198.394 E20.49125
G1 X142.419 Y199.067 E20.52186
G1 X141.735 Y199.683 E20.55248
G1 X141 Y200.237 E20.58309
G1 X140.22 Y200.726 E20.61371
G1 X139.4 Y201.145 E20.64434
G1 X138.547 Y201.491 E20.67495
G1 X137.667 Y201.762 E20.70558
G1 X136.767 Y201.955 E20.73619
G1 X135.853 Y202.07 E20.76683
G1 X135.288 Y202.101 E20.78565
G1 X134.967 Y202.11 E20.79633
G1 X134.67 Y202.114 E20.80621
G1 X115.57 Y202.113 E21.44148
G1 X114.872 Y202.104 E21.4647
G1 X113.953 Y202.052 E21.49531
G1 X113.042 Y201.921 E21.52592
G1 X112.146 Y201.711 E21.55653
G1 X111.271 Y201.424 E21.58716
G1 X110.424 Y201.062 E21.6178
G1 X109.612 Y200.628 E21.64842
G1 X108.841 Y200.126 E21.67902
G1 X108.116 Y199.558 E21.70965
G1 X107.443 Y198.929 E21.74029
G1 X106.828 Y198.245 E21.77089
G1 X106.274 Y197.51 E21.8015
G1 X105.786 Y196.729 E21.83213
G1 X105.367 Y195.909 E21.86276
G1 X105.021 Y195.056 E21.89337
G1 X104.751 Y194.176 E21.92399
G1 X104.558 Y193.275 E21.95463
G1 X104.444 Y192.362 E21.98524
G1 X104.413 Y191.791 E22.00426
G1 X104.404 Y191.458 E22.01534
G1 X104.4 Y191.172 E22.02485
G1 X104.401 Y42.045 E26.98483
G1 X104.41 Y41.38 E27.00695
G1 X104.462 Y40.46 E27.0376
G1 X104.594 Y39.549 E27.06822
G1 X104.805 Y38.653 E27.09883
G1 X105.092 Y37.778 E27.12946
G0 F6000 X105.491 Y37.855
G1 F1200 X105.853 Y37.028 E27.15949
G1 X106.286 Y36.236 E27.18951
G1 X106.788 Y35.485 E27.21956
G1 X107.355 Y34.781 E27.24962
G1 X107.981 Y34.131 E27.27964
G1 X108.662 Y33.538 E27.30967
G1 X109.394 Y33.008 E27.33973
G1 X110.169 Y32.545 E27.36975
G1 X110.982 Y32.152 E27.39979
G1 X111.827 Y31.832 E27.42984
G1 X112.696 Y31.589 E27.45985
G1 X113.584 Y31.423 E27.4899
G1 X114.723 Y31.327 E27.52792
G1 X115.044 Y31.318 E27.5386
G1 X115.33 Y31.314 E27.54811
G1 X134.293 Y31.314 E28.17882
G1 X135.137 Y31.325 E28.2069
G1 X136.039 Y31.378 E28.23695
G1 X136.932 Y31.51 E28.26697
G1 X137.81 Y31.721 E28.29701
G1 X138.666 Y32.009 E28.32705
G1 X139.493 Y32.371 E28.35707
G1 X140.285 Y32.806 E28.38713
G1 X141.036 Y33.308 E28.41717
G1 X141.739 Y33.875 E28.44721
G1 X142.389 Y34.502 E28.47725
G1 X142.981 Y35.184 E28.50728
G1 X143.511 Y35.915 E28.53732
G1 X143.973 Y36.691 E28.56735
G1 X144.366 Y37.504 E28.59739
G1 X144.684 Y38.349 E28.62742
G1 X144.927 Y39.219 E28.65746
G1 X145.092 Y40.107 E28.6875
G1 X145.187 Y41.237 E28.72522
G1 X145.196 Y41.557 E28.73586
G1 X145.2 Y41.844 E28.74541
G1 X145.199 Y102.953 E30.77791
G1 X145.189 Y103.65 E30.80109
G1 X145.114 Y104.743 E30.83753
G1 X145.079 Y105.029 E30.84711
G1 X144.786 Y107.601 E30.93321
G1 X144.572 Y110.119 E31.01726
G1 X144.427 Y112.685 E31.10274
G1 X144.355 Y115.219 E31.18706
G1 X144.355 Y117.752 E31.27131
G1 X144.427 Y120.292 E31.35582
G1 X144.57 Y122.842 E31.44077
G1 X144.784 Y125.344 E31.52429
G1 X145.126 Y128.373 E31.62567
G1 X145.185 Y129.205 E31.65342
G1 X145.195 Y129.535 E31.6644
G1 X145.2 Y129.844 E31.67467
G1 X145.199 Y190.904 E33.70554
G1 X145.19 Y191.631 E33.72972
G1 X145.139 Y192.533 E33.75977
G1 X145.008 Y193.427 E33.78982
G1 X144.799 Y194.305 E33.81984
G1 X144.513 Y195.162 E33.84989
G1 X144.152 Y195.99 E33.87993
G1 X143.72 Y196.782 E33.90994
G1 X143.219 Y197.534 E33.93999
G1 X142.653 Y198.238 E33.97004
G1 X142.028 Y198.889 E34.00005
G1 X141.347 Y199.483 E34.03011
G1 X140.616 Y200.014 E34.06016
G1 X139.842 Y200.478 E34.09017
G1 X139.029 Y200.872 E34.12022
G1 X138.185 Y201.192 E34.15024
G1 X137.315 Y201.437 E34.1803
G1 X136.428 Y201.603 E34.21032
G1 X135.277 Y201.701 E34.24874
G1 X134.956 Y201.71 E34.25942
G1 X134.67 Y201.714 E34.26893
G1 X115.575 Y201.713 E34.90404
G1 X114.877 Y201.704 E34.92725
G1 X113.976 Y201.653 E34.95727
G1 X113.082 Y201.521 E34.98733
G1 X112.204 Y201.312 E35.01734
G1 X111.347 Y201.025 E35.0474
G1 X110.52 Y200.664 E35.07742
G1 X109.727 Y200.231 E35.10747
G1 X108.976 Y199.73 E35.13749
G1 X108.272 Y199.164 E35.16754
G1 X107.621 Y198.538 E35.19758
G1 X107.028 Y197.857 E35.22761
G1 X106.498 Y197.126 E35.25764
G1 X106.034 Y196.351 E35.28769
G1 X105.64 Y195.538 E35.31773
G1 X105.32 Y194.694 E35.34776
G1 X105.076 Y193.824 E35.37781
G1 X104.91 Y192.936 E35.40786
G1 X104.813 Y191.781 E35.44641
G1 X104.804 Y191.448 E35.45749
G1 X104.8 Y191.172 E35.46667
G1 X104.801 Y42.05 E40.42648
G1 X104.81 Y41.385 E40.4486
G1 X104.862 Y40.483 E40.47865
G1 X104.994 Y39.59 E40.50868
G1 X105.204 Y38.712 E40.5387
G1 X105.491 Y37.855 E40.56876
G1 F2700 E35.56876
;MESH:vt320_stand.stl
G0 F6000 X122.916 Y46.014
G0 X121.457 Y46.014
G0 X122.316 Y47.74
G0 X122.916 Y48.431
G0 X123.605 Y48.869
G0 X125.008 Y49.366
;TYPE:WALL-INNER
G1 F2700 E40.56876
G1 F1200 X125.485 Y49.33 E40.58467
G1 X125.952 Y49.228 E40.60057
G1 X126.4 Y49.059 E40.6165
G1 X126.819 Y48.829 E40.6324
G1 X127.201 Y48.542 E40.64829
G1 X127.533 Y48.208 E40.66395
G1 X127.819 Y47.827 E40.6798
G1 X128.049 Y47.406 E40.69575
G1 X128.216 Y46.958 E40.71165
G1 X128.317 Y46.491 E40.72755
G1 X128.352 Y46.014 E40.74345
G1 X128.317 Y45.538 E40.75933
G1 X128.216 Y45.071 E40.77522
G1 X128.049 Y44.622 E40.79115
G1 X127.818 Y44.201 E40.80713
G1 X127.527 Y43.815 E40.8232
G1 X127.189 Y43.477 E40.8391
G1 X126.804 Y43.191 E40.85505
G1 X126.385 Y42.964 E40.8709
G1 X125.944 Y42.799 E40.88656
G1 X125.469 Y42.697 E40.90272
G1 X124.993 Y42.662 E40.9186
G1 X124.522 Y42.697 E40.93431
G1 X124.048 Y42.801 E40.95045
G1 X123.6 Y42.97 E40.96637
G1 X123.181 Y43.2 E40.98227
G1 X122.799 Y43.487 E40.99816
G1 X122.467 Y43.821 E41.01382
G1 X122.18 Y44.203 E41.02972
G1 X121.952 Y44.622 E41.04558
G1 X121.784 Y45.07 E41.0615
G1 X121.683 Y45.538 E41.07742
G1 X121.648 Y46.014 E41.09329
G1 X121.683 Y46.491 E41.1092
G1 X121.784 Y46.959 E41.12513
G1 X121.952 Y47.407 E41.14104
G1 X122.181 Y47.827 E41.15695
G1 X122.473 Y48.214 E41.17308
G1 X122.811 Y48.552 E41.18897
G1 X123.196 Y48.838 E41.20493
G1 X123.615 Y49.065 E41.22078
G1 X124.056 Y49.231 E41.23645
G1 X124.532 Y49.332 E41.25263
G1 X125.008 Y49.366 E41.2685
G0 F6000 X125.007 Y48.965
;TYPE:WALL-OUTER
G1 F1200 X125.427 Y48.933 E41.28251
G1 X125.838 Y48.843 E41.29651
G1 X126.232 Y48.695 E41.31051
G1 X126.601 Y48.492 E41.32451
G1 X126.938 Y48.239 E41.33853
G1 X127.23 Y47.946 E41.35229
G1 X127.482 Y47.61 E41.36626
G1 X127.684 Y47.24 E41.38028
G1 X127.831 Y46.845 E41.3943
G1 X127.92 Y46.434 E41.40828
G1 X127.951 Y46.014 E41.42229
G1 X127.92 Y45.595 E41.43626
G1 X127.831 Y45.184 E41.45025
G1 X127.684 Y44.789 E41.46427
G1 X127.481 Y44.419 E41.47831
G1 X127.224 Y44.078 E41.49251
G1 X126.927 Y43.78 E41.5065
G1 X126.589 Y43.529 E41.5205
G1 X126.219 Y43.329 E41.53449
G1 X125.831 Y43.184 E41.54827
G1 X125.412 Y43.094 E41.56252
G1 X124.993 Y43.063 E41.5765
G1 X124.58 Y43.094 E41.59027
G1 X124.162 Y43.186 E41.60451
G1 X123.768 Y43.334 E41.61851
G1 X123.399 Y43.537 E41.63251
G1 X123.062 Y43.79 E41.64653
G1 X122.77 Y44.083 E41.66029
G1 X122.518 Y44.42 E41.67428
G1 X122.317 Y44.789 E41.68826
G1 X122.169 Y45.183 E41.70226
G1 X122.08 Y45.595 E41.71628
G1 X122.049 Y46.014 E41.73025
G1 X122.08 Y46.434 E41.74426
G1 X122.169 Y46.846 E41.75828
G1 X122.317 Y47.24 E41.77228
G1 X122.518 Y47.61 E41.78628
G1 X122.776 Y47.951 E41.8005
G1 X123.073 Y48.249 E41.8145
G1 X123.411 Y48.5 E41.8285
G1 X123.781 Y48.7 E41.84249
G1 X124.169 Y48.846 E41.85628
G1 X124.588 Y48.935 E41.87052
G1 X125.007 Y48.965 E41.8845
G0 F6000 X125.008 Y49.405
G1 F2700 E36.8845
G0 F6000 X125.006 Y48.098
G0 X124.994 Y184.93
G0 X124.993 Y183.471
G0 X126.718 Y184.327
G0 X127.405 Y184.921
G0 X127.902 Y185.69
G0 X128.157 Y186.561
G0 X128.157 Y187.468
G0 X127.902 Y188.339
G0 X127.412 Y189.103
G0 X126.731 Y189.693
G0 X126.265 Y189.907
G0 X125.008 Y190.366
;TYPE:WALL-INNER
G1 F2700 E41.8845
G1 F1200 X125.485 Y190.33 E41.90041
G1 X125.952 Y190.228 E41.9163
G1 X126.4 Y190.059 E41.93223
G1 X126.819 Y189.829 E41.94813
G1 X127.201 Y189.542 E41.96402
G1 X127.533 Y189.208 E41.97968
G1 X127.819 Y188.827 E41.99553
G1 X128.049 Y188.406 E42.01148
G1 X128.216 Y187.958 E42.02739
G1 X128.317 Y187.491 E42.04328
G1 X128.352 Y187.014 E42.05919
G1 X128.317 Y186.538 E42.07506
G1 X128.216 Y186.071 E42.09095
G1 X128.049 Y185.622 E42.10688
G1 X127.818 Y185.201 E42.12286
G1 X127.527 Y184.815 E42.13893
G1 X127.189 Y184.477 E42.15483
G1 X126.804 Y184.191 E42.17079
G1 X126.385 Y183.964 E42.18663
G1 X125.944 Y183.799 E42.2023
G1 X125.469 Y183.697 E42.21845
G1 X124.993 Y183.662 E42.23433
G1 X124.514 Y183.698 E42.25031
G1 X124.048 Y183.802 E42.26619
G1 X123.6 Y183.97 E42.2821
G1 X123.181 Y184.2 E42.298
G1 X122.799 Y184.487 E42.31389
G1 X122.467 Y184.821 E42.32955
G1 X122.18 Y185.203 E42.34544
G1 X121.952 Y185.622 E42.36131
G1 X121.784 Y186.07 E42.37722
G1 X121.683 Y186.538 E42.39315
G1 X121.648 Y187.014 E42.40902
G1 X121.683 Y187.491 E42.42493
G1 X121.784 Y187.959 E42.44085
G1 X121.952 Y188.407 E42.45677
G1 X122.181 Y188.827 E42.47268
G1 X122.473 Y189.214 E42.4888
G1 X122.811 Y189.552 E42.5047
G1 X123.196 Y189.838 E42.52065
G1 X123.615 Y190.065 E42.5365
G1 X124.056 Y190.231 E42.55218
G1 X124.532 Y190.332 E42.56836
G1 X125.008 Y190.366 E42.58423
G0 F6000 X125.007 Y189.965
;TYPE:WALL-OUTER
G1 F1200 X125.427 Y189.933 E42.59824
G1 X125.838 Y189.843 E42.61224
G1 X126.232 Y189.695 E42.62623
G1 X126.601 Y189.492 E42.64024
G1 X126.938 Y189.239 E42.65426
G1 X127.23 Y188.946 E42.66802
G1 X127.482 Y188.61 E42.68199
G1 X127.684 Y188.24 E42.69601
G1 X127.831 Y187.845 E42.71002
G1 X127.92 Y187.434 E42.72401
G1 X127.951 Y187.014 E42.73802
G1 X127.92 Y186.595 E42.75199
G1 X127.831 Y186.184 E42.76598
G1 X127.684 Y185.789 E42.78
G1 X127.481 Y185.419 E42.79403
G1 X127.224 Y185.078 E42.80824
G1 X126.927 Y184.78 E42.82223
G1 X126.589 Y184.529 E42.83623
G1 X126.219 Y184.329 E42.85022
G1 X125.831 Y184.184 E42.864
G1 X125.412 Y184.094 E42.87825
G1 X124.993 Y184.063 E42.89223
G1 X124.573 Y184.095 E42.90624
G1 X124.162 Y184.186 E42.92024
G1 X123.768 Y184.334 E42.93423
G1 X123.399 Y184.537 E42.94824
G1 X123.062 Y184.79 E42.96226
G1 X122.77 Y185.083 E42.97602
G1 X122.518 Y185.42 E42.99001
G1 X122.317 Y185.789 E43.00399
G1 X122.169 Y186.183 E43.01799
G1 X122.08 Y186.595 E43.03201
G1 X122.049 Y187.014 E43.04598
G1 X122.08 Y187.434 E43.05999
G1 X122.169 Y187.846 E43.07401
G1 X122.317 Y188.24 E43.088
G1 X122.518 Y188.61 E43.10201
G1 X122.776 Y188.951 E43.11623
G1 X123.073 Y189.249 E43.13023
G1 X123.411 Y189.5 E43.14423
