;FLAVOR:Marlin
;TIME:17739
;Filament used: 12.4166m
;Layer height: 0.2
;MINX:84
;MINY:36.5
;MINZ:0.2
;MAXX:166
;MAXY:213.5
;MAXZ:20
;Generated with Cura_SteamEngine 4.12.1
M140 S50
M105
M190 S50
M104 S200
M105
M109 S200
M82 ;absolute extrusion mode
; Ender 3 Custom Start G-code
G92 E0 ; Reset Extruder
G28 ; Home all axes
G1 Z2.0 F3000 ; Move Z Axis up little to prevent scratching of Heat Bed
G1 X0.1 Y20 Z0.3 F5000.0 ; Move to start position
G1 X0.1 Y200.0 Z0.3 F1500.0 E15 ; Draw the first line
G1 X0.4 Y200.0 Z0.3 F5000.0 ; Move to side a little
G1 X0.4 Y20 Z0.3 F1500.0 E30 ; Draw the second line
G92 E0 ; Reset Extruder
G1 Z2.0 F3000 ; Move Z Axis up little to prevent scratching of Heat Bed
G1 X5 Y20 Z0.3 F5000.0 ; Move over to prevent blob squish
G92 E0
G92 E0
G1 F2700 E-5
;LAYER_COUNT:100
;LAYER:0
M107
G0 F6000 X85.057 Y42.824 Z0.2
;TYPE:SKIRT
G1 F2700 E0
G1 F1200 X85.492 Y41.993 E0.0312
G1 X85.996 Y41.203 E0.06236
G1 X86.566 Y40.458 E0.09356
G1 X87.198 Y39.764 E0.12478
G1 X87.886 Y39.127 E0.15597
G1 X88.626 Y38.551 E0.18716
G1 X89.412 Y38.039 E0.21836
G1 X90.239 Y37.597 E0.24955
G1 X91.101 Y37.227 E0.28075
G1 X91.991 Y36.931 E0.31194
G1 X92.903 Y36.713 E0.34313
G1 X93.83 Y36.572 E0.37432
G1 X94.701 Y36.513 E0.40335
G1 X95.022 Y36.504 E0.41403
G1 X95.33 Y36.5 E0.42428
G1 X154.293 Y36.5 E2.3854
G1 X155.149 Y36.511 E2.41387
G1 X156.085 Y36.565 E2.44505
G1 X157.013 Y36.697 E2.47623
G1 X157.927 Y36.909 E2.50743
G1 X158.819 Y37.198 E2.53862
G1 X159.684 Y37.561 E2.56982
G1 X160.514 Y37.997 E2.601
G1 X161.305 Y38.502 E2.63222
G1 X162.049 Y39.073 E2.66341
G1 X162.742 Y39.705 E2.69461
G1 X163.379 Y40.393 E2.72579
G1 X163.954 Y41.134 E2.75699
G1 X164.465 Y41.92 E2.78817
G1 X164.907 Y42.748 E2.81939
G1 X165.276 Y43.61 E2.85057
G1 X165.571 Y44.5 E2.88176
G1 X165.789 Y45.412 E2.91295
G1 X165.929 Y46.34 E2.94416
G1 X165.987 Y47.201 E2.97286
G1 X165.996 Y47.521 E2.98351
G1 X166 Y47.83 E2.99379
G1 X165.999 Y201.9 E8.11818
G1 X165.99 Y202.627 E8.14236
G1 X165.939 Y203.564 E8.17357
G1 X165.807 Y204.492 E8.20475
G1 X165.598 Y205.406 E8.23593
G1 X165.311 Y206.299 E8.26713
G1 X164.949 Y207.165 E8.29835
G1 X164.515 Y207.996 E8.32953
G1 X164.011 Y208.787 E8.36072
G1 X163.442 Y209.532 E8.3919
G1 X162.811 Y210.227 E8.42312
G1 X162.124 Y210.865 E8.45431
G1 X161.385 Y211.442 E8.48549
G1 X160.599 Y211.954 E8.51669
G1 X159.773 Y212.397 E8.54787
G1 X158.911 Y212.769 E8.57909
G1 X158.022 Y213.065 E8.61026
G1 X157.11 Y213.285 E8.64146
G1 X156.183 Y213.426 E8.67265
G1 X155.299 Y213.487 E8.70212
G1 X154.978 Y213.496 E8.7128
G1 X154.67 Y213.5 E8.72304
G1 X95.565 Y213.499 E10.68888
G1 X94.867 Y213.49 E10.7121
G1 X93.931 Y213.438 E10.74328
G1 X93.002 Y213.306 E10.77449
G1 X92.088 Y213.096 E10.80568
G1 X91.195 Y212.809 E10.83688
G1 X90.33 Y212.446 E10.86808
G1 X89.499 Y212.012 E10.89926
G1 X88.708 Y211.508 E10.93046
G1 X87.963 Y210.938 E10.96166
G1 X87.269 Y210.307 E10.99285
G1 X86.632 Y209.62 E11.02401
G1 X86.055 Y208.88 E11.05522
G1 X85.543 Y208.094 E11.08642
G1 X85.1 Y207.267 E11.11763
G1 X84.729 Y206.406 E11.14881
G1 X84.433 Y205.516 E11.18001
G1 X84.214 Y204.604 E11.2112
G1 X84.073 Y203.677 E11.24239
G1 X84.013 Y202.788 E11.27202
G1 X84.004 Y202.455 E11.2831
G1 X84 Y202.158 E11.29298
G1 X84.001 Y48.025 E16.41947
G1 X84.01 Y47.36 E16.44159
G1 X84.063 Y46.424 E16.47277
G1 X84.195 Y45.495 E16.50398
G1 X84.406 Y44.581 E16.53518
G1 X84.694 Y43.689 E16.56635
G1 X85.057 Y42.824 E16.59755
G0 F6000 X85.455 Y42.918
G1 F1200 X85.889 Y42.106 E16.62818
G1 X86.392 Y41.335 E16.65879
G1 X86.961 Y40.611 E16.68942
G1 X87.589 Y39.939 E16.72001
G1 X88.274 Y39.323 E16.75065
G1 X89.01 Y38.77 E16.78127
G1 X89.791 Y38.282 E16.8119
G1 X90.611 Y37.864 E16.84252
G1 X91.465 Y37.519 E16.87315
G1 X92.345 Y37.249 E16.90377
G1 X93.245 Y37.057 E16.93437
G1 X94.159 Y36.943 E16.96501
G1 X94.712 Y36.913 E16.98343
G1 X95.033 Y36.904 E16.99411
G1 X95.33 Y36.9 E17.00399
G1 X154.293 Y36.9 E18.96511
G1 X155.143 Y36.911 E18.99338
G1 X156.062 Y36.964 E19.024
G1 X156.973 Y37.097 E19.05462
G1 X157.869 Y37.308 E19.08523
G1 X158.743 Y37.596 E19.11584
G1 X159.59 Y37.959 E19.14649
G1 X160.401 Y38.394 E19.1771
G1 X161.171 Y38.898 E19.20771
G1 X161.895 Y39.467 E19.23833
G1 X162.567 Y40.097 E19.26897
G1 X163.182 Y40.782 E19.29959
G1 X163.735 Y41.518 E19.33021
G1 X164.222 Y42.299 E19.36082
G1 X164.639 Y43.12 E19.39145
G1 X164.984 Y43.974 E19.42208
G1 X165.253 Y44.854 E19.45269
G1 X165.445 Y45.755 E19.48333
G1 X165.558 Y46.668 E19.51393
G1 X165.587 Y47.212 E19.53205
G1 X165.596 Y47.532 E19.54269
G1 X165.6 Y47.83 E19.55261
G1 X165.599 Y201.895 E24.67683
G1 X165.59 Y202.622 E24.70101
G1 X165.539 Y203.541 E24.73162
G1 X165.408 Y204.453 E24.76227
G1 X165.198 Y205.349 E24.79288
G1 X164.912 Y206.224 E24.8235
G1 X164.551 Y207.071 E24.85412
G1 X164.117 Y207.883 E24.88474
G1 X163.615 Y208.655 E24.91537
G1 X163.047 Y209.38 E24.946
G1 X162.419 Y210.053 E24.97662
G1 X161.735 Y210.669 E25.00723
G1 X161 Y211.223 E25.03785
G1 X160.22 Y211.712 E25.06847
G1 X159.4 Y212.131 E25.09909
G1 X158.547 Y212.477 E25.12971
G1 X157.667 Y212.748 E25.16033
G1 X156.767 Y212.941 E25.19095
G1 X155.853 Y213.056 E25.22159
G1 X155.288 Y213.087 E25.24041
G1 X154.967 Y213.096 E25.25109
G1 X154.67 Y213.1 E25.26097
G1 X95.57 Y213.099 E27.22664
G1 X94.872 Y213.09 E27.24986
G1 X93.953 Y213.038 E27.28048
G1 X93.042 Y212.907 E27.31109
G1 X92.146 Y212.697 E27.3417
G1 X91.271 Y212.41 E27.37232
G1 X90.424 Y212.048 E27.40296
G1 X89.612 Y211.614 E27.43358
G1 X88.841 Y211.112 E27.46418
G1 X88.116 Y210.544 E27.49482
G1 X87.443 Y209.915 E27.52545
G1 X86.828 Y209.231 E27.55605
G1 X86.274 Y208.496 E27.58666
G1 X85.786 Y207.715 E27.61729
G1 X85.367 Y206.895 E27.64792
G1 X85.021 Y206.042 E27.67853
G1 X84.751 Y205.162 E27.70915
G1 X84.558 Y204.261 E27.7398
G1 X84.444 Y203.348 E27.7704
G1 X84.413 Y202.777 E27.78942
G1 X84.404 Y202.444 E27.8005
G1 X84.4 Y202.158 E27.81001
G1 X84.401 Y48.031 E32.9363
G1 X84.41 Y47.366 E32.95842
G1 X84.462 Y46.446 E32.98907
G1 X84.594 Y45.535 E33.01968
G1 X84.805 Y44.639 E33.0503
G1 X85.092 Y43.764 E33.08093
G1 X85.455 Y42.918 E33.11154
G0 F6000 X85.853 Y43.014
G1 F1200 X86.286 Y42.222 E33.14157
G1 X86.788 Y41.471 E33.17161
G1 X87.355 Y40.767 E33.20168
G1 X87.981 Y40.117 E33.23169
G1 X88.662 Y39.524 E33.26173
G1 X89.394 Y38.994 E33.29178
G1 X90.169 Y38.531 E33.32181
G1 X90.982 Y38.138 E33.35184
G1 X91.827 Y37.818 E33.3819
G1 X92.696 Y37.575 E33.41191
G1 X93.584 Y37.409 E33.44195
G1 X94.723 Y37.313 E33.47997
G1 X95.044 Y37.304 E33.49065
G1 X95.33 Y37.3 E33.50017
G1 X154.293 Y37.3 E35.46128
G1 X155.137 Y37.311 E35.48936
G1 X156.039 Y37.364 E35.51941
G1 X156.932 Y37.496 E35.54943
G1 X157.81 Y37.707 E35.57947
G1 X158.666 Y37.995 E35.60951
G1 X159.493 Y38.357 E35.63953
G1 X160.285 Y38.792 E35.66959
G1 X161.036 Y39.294 E35.69963
G1 X161.739 Y39.861 E35.72967
G1 X162.389 Y40.488 E35.75971
G1 X162.981 Y41.17 E35.78975
G1 X163.511 Y41.901 E35.81978
G1 X163.973 Y42.677 E35.84981
G1 X164.366 Y43.49 E35.87985
G1 X164.684 Y44.335 E35.90988
G1 X164.927 Y45.205 E35.93992
G1 X165.092 Y46.093 E35.96996
G1 X165.187 Y47.223 E36.00768
G1 X165.196 Y47.543 E36.01833
G1 X165.2 Y47.83 E36.02787
G1 X165.199 Y201.89 E41.15193
G1 X165.19 Y202.617 E41.17611
G1 X165.139 Y203.519 E41.20616
G1 X165.008 Y204.413 E41.23621
G1 X164.799 Y205.291 E41.26623
G1 X164.513 Y206.148 E41.29628
G1 X164.152 Y206.976 E41.32632
G1 X163.72 Y207.768 E41.35633
G1 X163.219 Y208.52 E41.38638
G1 X162.653 Y209.224 E41.41643
G1 X162.028 Y209.875 E41.44644
G1 X161.347 Y210.469 E41.4765
G1 X160.616 Y211 E41.50655
G1 X159.842 Y211.464 E41.53656
G1 X159.029 Y211.858 E41.56661
G1 X158.185 Y212.178 E41.59663
G1 X157.315 Y212.423 E41.6267
G1 X156.428 Y212.589 E41.65671
G1 X155.277 Y212.687 E41.69513
G1 X154.956 Y212.696 E41.70581
G1 X154.67 Y212.7 E41.71532
G1 X95.575 Y212.699 E43.68083
G1 X94.877 Y212.69 E43.70405
G1 X93.976 Y212.639 E43.73407
G1 X93.082 Y212.507 E43.76412
G1 X92.204 Y212.298 E43.79414
G1 X91.347 Y212.011 E43.8242
G1 X90.52 Y211.65 E43.85421
G1 X89.727 Y211.217 E43.88426
G1 X88.976 Y210.716 E43.91429
G1 X88.272 Y210.15 E43.94433
G1 X87.621 Y209.524 E43.97437
G1 X87.028 Y208.843 E44.00441
G1 X86.498 Y208.112 E44.03444
G1 X86.034 Y207.337 E44.06448
G1 X85.64 Y206.524 E44.09453
G1 X85.32 Y205.68 E44.12455
G1 X85.076 Y204.81 E44.1546
G1 X84.91 Y203.922 E44.18465
G1 X84.813 Y202.767 E44.2232
G1 X84.804 Y202.434 E44.23428
G1 X84.8 Y202.158 E44.24346
G1 X84.801 Y48.036 E49.36958
G1 X84.81 Y47.371 E49.3917
G1 X84.862 Y46.469 E49.42175
G1 X84.994 Y45.576 E49.45178
G1 X85.204 Y44.698 E49.4818
G1 X85.491 Y43.841 E49.51186
G1 X85.853 Y43.014 E49.54189
G1 F2700 E44.54189
;MESH:vt320_pi_box.stl
G0 F6000 X94.335 Y48.31
G0 X95.81 Y48.31
G0 X154.218 Y48.282
G0 X154.4 Y201.9
;TYPE:WALL-INNER
G1 F2700 E49.54189
G1 F1200 X95.6 Y201.9 E51.49758
G1 X95.6 Y48.1 E56.61299
G1 X154.4 Y48.1 E58.56869
G1 X154.4 Y201.9 E63.6841
G0 F6000 X154.8 Y202.3
;TYPE:WALL-OUTER
G1 F1200 X95.2 Y202.3 E65.6664
G1 X95.2 Y47.7 E70.80842
G1 X154.8 Y47.7 E72.79072
G1 X154.8 Y202.3 E77.93274
G0 F6000 X154.53 Y202.03
G0 X154.29 Y201.51
G0 X154.01 Y201.51
;TYPE:SKIN
G1 F1200 X95.99 Y201.51 E79.86249
G1 X95.99 Y48.49 E84.95196
G1 X154.01 Y48.49 E86.88171
G1 X154.01 Y201.51 E91.97118
G1 F2700 E86.97118
G0 F6000 X154.29 Y201.51
G0 X96.697 Y201.79
G1 F2700 E91.97118
G0 F6000 X96.697 Y201.349
G1 F1200 X96.149 Y200.801 E91.99695
G0 F6000 X96.149 Y200.235
G1 F1200 X97.263 Y201.349 E92.04935
G0 F6000 X97.828 Y201.349
G1 F1200 X96.149 Y199.669 E92.12835
G0 F6000 X96.149 Y199.104
G1 F1200 X98.394 Y201.349 E92.23395
G0 F6000 X98.96 Y201.349
G1 F1200 X96.149 Y198.538 E92.36617
G0 F6000 X96.149 Y197.972
G1 F1200 X99.525 Y201.349 E92.52499
G0 F6000 X100.091 Y201.349
G1 F1200 X96.149 Y197.407 E92.71041
G0 F6000 X96.149 Y196.841
G1 F1200 X100.657 Y201.349 E92.92245
G0 F6000 X101.223 Y201.349
G1 F1200 X96.149 Y196.275 E93.16112
G0 F6000 X96.149 Y195.71
G1 F1200 X101.788 Y201.349 E93.42636
G0 F6000 X102.354 Y201.349
G1 F1200 X96.149 Y195.144 E93.71822
G0 F6000 X96.149 Y194.578
G1 F1200 X102.92 Y201.349 E94.03671
G0 F6000 X103.485 Y201.349
G1 F1200 X96.149 Y194.013 E94.38177
G0 F6000 X96.149 Y193.447
G1 F1200 X104.051 Y201.349 E94.75346
G0 F6000 X104.617 Y201.349
G1 F1200 X96.149 Y192.881 E95.15177
G0 F6000 X96.149 Y192.316
G1 F1200 X105.182 Y201.349 E95.57665
G0 F6000 X105.748 Y201.349
G1 F1200 X96.149 Y191.75 E96.02816
G0 F6000 X96.149 Y191.184
G1 F1200 X106.314 Y201.349 E96.50629
G0 F6000 X106.879 Y201.349
G1 F1200 X96.149 Y190.619 E97.011
G0 F6000 X96.149 Y190.053
G1 F1200 X107.445 Y201.349 E97.54232
G0 F6000 X108.011 Y201.349
G1 F1200 X96.149 Y189.487 E98.10028
G0 F6000 X96.149 Y188.921
G1 F1200 X108.576 Y201.349 E98.68483
G0 F6000 X109.142 Y201.349
G1 F1200 X96.149 Y188.356 E99.29598
G0 F6000 X96.149 Y187.79
G1 F1200 X109.708 Y201.349 E99.93375
G0 F6000 X110.274 Y201.349
G1 F1200 X96.149 Y187.224 E100.59815
G0 F6000 X96.149 Y186.659
G1 F1200 X110.839 Y201.349 E101.28912
G0 F6000 X111.405 Y201.349
G1 F1200 X96.149 Y186.093 E102.00672
G0 F6000 X96.149 Y185.527
G1 F1200 X111.971 Y201.349 E102.75094
G0 F6000 X112.536 Y201.349
G1 F1200 X96.149 Y184.962 E103.52173
G0 F6000 X96.149 Y184.396
G1 F1200 X113.102 Y201.349 E104.31915
G0 F6000 X113.668 Y201.349
G1 F1200 X96.149 Y183.83 E105.14319
G0 F6000 X96.149 Y183.265
G1 F1200 X114.233 Y201.349 E105.9938
G0 F6000 X114.799 Y201.349
G1 F1200 X96.149 Y182.699 E106.87104
G0 F6000 X96.149 Y182.133
G1 F1200 X115.365 Y201.349 E107.7749
G0 F6000 X115.93 Y201.349
G1 F1200 X96.149 Y181.568 E108.70534
G0 F6000 X96.149 Y181.002
G1 F1200 X116.496 Y201.349 E109.6624
G0 F6000 X117.062 Y201.349
G1 F1200 X96.149 Y180.436 E110.64609
G0 F6000 X96.149 Y179.87
G1 F1200 X117.627 Y201.349 E111.65637
G0 F6000 X118.193 Y201.349
G1 F1200 X96.149 Y179.305 E112.69325
G0 F6000 X96.149 Y178.739
G1 F1200 X118.759 Y201.349 E113.75676
G0 F6000 X119.324 Y201.349
G1 F1200 X96.149 Y178.173 E114.84686
G0 F6000 X96.149 Y177.608
G1 F1200 X119.89 Y201.349 E115.96356
G0 F6000 X120.456 Y201.349
G1 F1200 X96.149 Y177.042 E117.10689
G0 F6000 X96.149 Y176.476
G1 F1200 X121.022 Y201.349 E118.27684
G0 F6000 X121.587 Y201.349
G1 F1200 X96.149 Y175.911 E119.47337
G0 F6000 X96.149 Y175.345
G1 F1200 X122.153 Y201.349 E120.69651
G0 F6000 X122.719 Y201.349
G1 F1200 X96.149 Y174.779 E121.94629
G0 F6000 X96.149 Y174.214
G1 F1200 X123.284 Y201.349 E123.22263
G0 F6000 X123.85 Y201.349
G1 F1200 X96.149 Y173.648 E124.5256
G0 F6000 X96.149 Y173.082
G1 F1200 X124.416 Y201.349 E125.8552
G0 F6000 X124.981 Y201.349
G1 F1200 X96.149 Y172.517 E127.21137
G0 F6000 X96.149 Y171.951
G1 F1200 X125.547 Y201.349 E128.59416
G0 F6000 X126.113 Y201.349
G1 F1200 X96.149 Y171.385 E130.00357
G0 F6000 X96.149 Y170.82
G1 F1200 X126.678 Y201.349 E131.43956
G0 F6000 X127.244 Y201.349
G1 F1200 X96.149 Y170.254 E132.90218
G0 F6000 X96.149 Y169.688
G1 F1200 X127.81 Y201.349 E134.39141
G0 F6000 X128.375 Y201.349
G1 F1200 X96.149 Y169.122 E135.90725
G0 F6000 X96.149 Y168.557
G1 F1200 X128.941 Y201.349 E137.44968
G0 F6000 X129.507 Y201.349
G1 F1200 X96.149 Y167.991 E139.01874
G0 F6000 X96.149 Y167.425
G1 F1200 X130.072 Y201.349 E140.6144
G0 F6000 X130.638 Y201.349
G1 F1200 X96.149 Y166.86 E142.23666
G0 F6000 X96.149 Y166.294
G1 F1200 X131.204 Y201.349 E143.88553
G0 F6000 X131.77 Y201.349
G1 F1200 X96.149 Y165.728 E145.56104
G0 F6000 X96.149 Y165.163
G1 F1200 X132.335 Y201.349 E147.26312
G0 F6000 X132.901 Y201.349
G1 F1200 X96.149 Y164.597 E148.99182
G0 F6000 X96.149 Y164.031
G1 F1200 X133.467 Y201.349 E150.74714
G0 F6000 X134.032 Y201.349
G1 F1200 X96.149 Y163.466 E152.52904
G0 F6000 X96.149 Y162.9
G1 F1200 X134.598 Y201.349 E154.33756
G0 F6000 X135.164 Y201.349
G1 F1200 X96.149 Y162.334 E156.17271
G0 F6000 X96.149 Y161.769
G1 F1200 X135.729 Y201.349 E158.03443
G0 F6000 X136.295 Y201.349
G1 F1200 X96.149 Y161.203 E159.92278
G0 F6000 X96.149 Y160.637
G1 F1200 X136.861 Y201.349 E161.83775
G0 F6000 X137.426 Y201.349
G1 F1200 X96.149 Y160.072 E163.77929
G0 F6000 X96.149 Y159.506
G1 F1200 X137.992 Y201.349 E165.74746
G0 F6000 X138.558 Y201.349
G1 F1200 X96.149 Y158.94 E167.74224
G0 F6000 X96.149 Y158.374
G1 F1200 X139.123 Y201.349 E169.76363
G0 F6000 X139.689 Y201.349
G1 F1200 X96.149 Y157.809 E171.81162
G0 F6000 X96.149 Y157.243
G1 F1200 X140.255 Y201.349 E173.88623
G0 F6000 X140.821 Y201.349
G1 F1200 X96.149 Y156.677 E175.98747
G0 F6000 X96.149 Y156.112
G1 F1200 X141.386 Y201.349 E178.11528
G0 F6000 X141.952 Y201.349
G1 F1200 X96.149 Y155.546 E180.26971
G0 F6000 X96.149 Y154.98
G1 F1200 X142.518 Y201.349 E182.45076
G0 F6000 X143.083 Y201.349
G1 F1200 X96.149 Y154.415 E184.6584
G0 F6000 X96.149 Y153.849
G1 F1200 X143.649 Y201.349 E186.89265
G0 F6000 X144.215 Y201.349
G1 F1200 X96.149 Y153.283 E189.15353
G0 F6000 X96.149 Y152.718
G1 F1200 X144.78 Y201.349 E191.44098
G0 F6000 X145.346 Y201.349
G1 F1200 X96.149 Y152.152 E193.75506
G0 F6000 X96.149 Y151.586
G1 F1200 X145.912 Y201.349 E196.09576
G0 F6000 X146.477 Y201.349
G1 F1200 X96.149 Y151.021 E198.46303
G0 F6000 X96.149 Y150.455
G1 F1200 X147.043 Y201.349 E200.85693
G0 F6000 X147.609 Y201.349
G1 F1200 X96.149 Y149.889 E203.27745
G0 F6000 X96.149 Y149.323
G1 F1200 X148.174 Y201.349 E205.72457
G0 F6000 X148.74 Y201.349
G1 F1200 X96.149 Y148.758 E208.19829
G0 F6000 X96.149 Y148.192
G1 F1200 X149.306 Y201.349 E210.69863
G0 F6000 X149.871 Y201.349
G1 F1200 X96.149 Y147.626 E213.22557
G0 F6000 X96.149 Y147.061
G1 F1200 X150.437 Y201.349 E215.77911
G0 F6000 X151.003 Y201.349
G1 F1200 X96.149 Y146.495 E218.35928
G0 F6000 X96.149 Y145.929
G1 F1200 X151.569 Y201.349 E220.96606
G0 F6000 X152.134 Y201.349
G1 F1200 X96.149 Y145.364 E223.59943
G0 F6000 X96.149 Y144.798
G1 F1200 X152.7 Y201.349 E226.25941
G0 F6000 X153.266 Y201.349
G1 F1200 X96.149 Y144.232 E228.94602
G0 F6000 X96.149 Y143.667
G1 F1200 X153.831 Y201.349 E231.65921
G0 F6000 X153.85 Y200.802
G1 F1200 X96.149 Y143.101 E234.37328
G0 F6000 X96.149 Y142.535
G1 F1200 X153.85 Y200.236 E237.08736
G0 F6000 X153.85 Y199.67
G1 F1200 X96.149 Y141.97 E239.80142
G0 F6000 X96.149 Y141.404
G1 F1200 X153.85 Y199.105 E242.51549
G0 F6000 X153.85 Y198.539
