;FLAVOR:Marlin
;TIME:4059
;Filament used: 2.71076m
;Layer height: 0.2
;MINX:100.95
;MINY:34.7
;MINZ:0.2
;MAXX:134.05
;MAXY:200.3
;MAXZ:5.6
;Generated with Cura_SteamEngine 4.12.1
M140 S50
M105
M190 S50
M104 S200
M105
M109 S200
M82 ;absolute extrusion mode
; Ender 3 Custom Start G-code
G92 E0 ; Reset Extruder
G28 ; Home all axes
G1 Z2.0 F3000 ; Move Z Axis up little to prevent scratching of Heat Bed
G1 X0.1 Y20 Z0.3 F5000.0 ; Move to start position
G1 X0.1 Y200.0 Z0.3 F1500.0 E15 ; Draw the first line
G1 X0.4 Y200.0 Z0.3 F5000.0 ; Move to side a little
G1 X0.4 Y20 Z0.3 F1500.0 E30 ; Draw the second line
G92 E0 ; Reset Extruder
G1 Z2.0 F3000 ; Move Z Axis up little to prevent scratching of Heat Bed
G1 X5 Y20 Z0.3 F5000.0 ; Move over to prevent blob squish
G92 E0
G92 E0
G1 F2700 E-5
;LAYER_COUNT:28
;LAYER:0
M107
G0 F6000 X101.581 Y42.426 Z0.2
;TYPE:SKIRT
G1 F2700 E0
G1 F1200 X101.929 Y41.717 E0.02627
G1 X102.347 Y41.046 E0.05256
G1 X102.83 Y40.422 E0.07881
G1 X103.373 Y39.849 E0.10506
G1 X103.972 Y39.334 E0.13134
G1 X104.62 Y38.883 E0.1576
G1 X105.311 Y38.499 E0.18389
G1 X106.036 Y38.187 E0.21014
G1 X106.789 Y37.95 E0.2364
G1 X107.563 Y37.791 E0.26268
G1 X108.348 Y37.71 E0.28893
G1 X108.75 Y37.7 E0.3023
G1 X110.115 Y37.7 E0.3477
G1 X110.33 Y37.422 E0.35939
G1 X110.873 Y36.849 E0.38565
G1 X111.472 Y36.334 E0.41192
G1 X112.12 Y35.883 E0.43818
G1 X112.811 Y35.499 E0.46447
G1 X113.536 Y35.187 E0.49072
G1 X114.289 Y34.95 E0.51698
G1 X115.063 Y34.791 E0.54326
G1 X115.848 Y34.71 E0.56951
G1 X116.25 Y34.7 E0.58288
G1 X126.25 Y34.7 E0.91548
G1 X127.039 Y34.74 E0.94176
G1 X127.819 Y34.859 E0.968
G1 X128.584 Y35.057 E0.99429
G1 X129.324 Y35.331 E1.02053
G1 X130.033 Y35.679 E1.0468
G1 X130.704 Y36.097 E1.07309
G1 X131.328 Y36.58 E1.09934
G1 X131.901 Y37.123 E1.1256
G1 X132.416 Y37.722 E1.15187
G1 X132.867 Y38.37 E1.17813
G1 X133.251 Y39.061 E1.20442
G1 X133.563 Y39.786 E1.23067
G1 X133.8 Y40.539 E1.25693
G1 X133.959 Y41.313 E1.28321
G1 X134.04 Y42.098 E1.30946
G1 X134.05 Y42.5 E1.32283
G1 X134.05 Y192.5 E6.31185
G1 X134.01 Y193.289 E6.33813
G1 X133.891 Y194.069 E6.36437
G1 X133.693 Y194.834 E6.39065
G1 X133.419 Y195.574 E6.4169
G1 X133.071 Y196.283 E6.44317
G1 X132.653 Y196.954 E6.46946
G1 X132.17 Y197.578 E6.49571
G1 X131.627 Y198.151 E6.52196
G1 X131.028 Y198.666 E6.54824
G1 X130.38 Y199.117 E6.5745
G1 X129.689 Y199.501 E6.60079
G1 X128.964 Y199.813 E6.62704
G1 X128.211 Y200.05 E6.6533
G1 X127.437 Y200.209 E6.67958
G1 X126.652 Y200.29 E6.70583
G1 X126.25 Y200.3 E6.7192
G1 X116.25 Y200.3 E7.0518
G1 X115.461 Y200.26 E7.07808
G1 X114.681 Y200.141 E7.10432
G1 X113.916 Y199.943 E7.1306
G1 X113.176 Y199.669 E7.15685
G1 X112.467 Y199.321 E7.18312
G1 X111.796 Y198.903 E7.20941
G1 X111.172 Y198.42 E7.23566
G1 X110.599 Y197.877 E7.26191
G1 X110.103 Y197.3 E7.28722
G1 X108.75 Y197.3 E7.33222
G1 X107.961 Y197.26 E7.3585
G1 X107.181 Y197.141 E7.38474
G1 X106.416 Y196.943 E7.41102
G1 X105.676 Y196.669 E7.43727
G1 X104.967 Y196.321 E7.46354
G1 X104.296 Y195.903 E7.48983
G1 X103.672 Y195.42 E7.51608
G1 X103.099 Y194.877 E7.54233
G1 X102.584 Y194.278 E7.56861
G1 X102.133 Y193.63 E7.59486
G1 X101.749 Y192.939 E7.62116
G1 X101.437 Y192.214 E7.64741
G1 X101.2 Y191.461 E7.67367
G1 X101.041 Y190.687 E7.69995
G1 X100.96 Y189.902 E7.72619
G1 X100.95 Y189.5 E7.73957
G1 X100.95 Y182.125 E7.98486
G1 X100.99 Y181.336 E8.01114
G1 X101.109 Y180.556 E8.03738
G1 X101.307 Y179.791 E8.06366
G1 X101.581 Y179.051 E8.08991
G1 X101.929 Y178.342 E8.11618
G1 X102.347 Y177.671 E8.14247
G1 X102.83 Y177.047 E8.16872
G1 X103.373 Y176.474 E8.19497
G1 X103.972 Y175.959 E8.22125
G1 X104.62 Y175.508 E8.24751
G1 X105.311 Y175.124 E8.2738
G1 X106.036 Y174.812 E8.30005
G1 X106.789 Y174.575 E8.32631
G1 X107.563 Y174.416 E8.35259
G1 X108.348 Y174.335 E8.37884
G1 X108.45 Y174.332 E8.38223
G1 X108.45 Y60.66 E12.16298
G1 X107.961 Y60.635 E12.17926
G1 X107.181 Y60.516 E12.2055
G1 X106.416 Y60.318 E12.23179
G1 X105.676 Y60.044 E12.25803
G1 X104.967 Y59.696 E12.2843
G1 X104.296 Y59.278 E12.3106
G1 X103.672 Y58.795 E12.33684
G1 X103.099 Y58.252 E12.3631
G1 X102.584 Y57.653 E12.38937
G1 X102.133 Y57.005 E12.41563
G1 X101.749 Y56.314 E12.44192
G1 X101.437 Y55.589 E12.46817
G1 X101.2 Y54.836 E12.49443
G1 X101.041 Y54.062 E12.52071
G1 X100.96 Y53.277 E12.54696
G1 X100.95 Y52.875 E12.56033
G1 X100.95 Y45.5 E12.80563
G1 X100.99 Y44.711 E12.8319
G1 X101.109 Y43.931 E12.85815
G1 X101.307 Y43.166 E12.88443
G1 X101.581 Y42.426 E12.91067
G0 F6000 X101.981 Y42.51
G1 F1200 X102.328 Y41.824 E12.93624
G1 X102.744 Y41.177 E12.96183
G1 X103.225 Y40.577 E12.9874
G1 X103.766 Y40.03 E13.01299
G1 X104.361 Y39.542 E13.03859
G1 X105.003 Y39.119 E13.06416
G1 X105.686 Y38.764 E13.08976
G1 X106.401 Y38.483 E13.11531
G1 X107.143 Y38.277 E13.14092
G1 X107.901 Y38.149 E13.16649
G1 X108.75 Y38.1 E13.19478
G1 X110.306 Y38.1 E13.24653
G1 X110.725 Y37.577 E13.26882
G1 X111.266 Y37.03 E13.29441
G1 X111.861 Y36.542 E13.32
G1 X112.503 Y36.119 E13.34557
G1 X113.186 Y35.764 E13.37118
G1 X113.901 Y35.483 E13.39673
G1 X114.643 Y35.277 E13.42234
G1 X115.401 Y35.149 E13.44791
G1 X116.25 Y35.1 E13.47619
G1 X126.25 Y35.1 E13.80879
G1 X127.018 Y35.14 E13.83437
G1 X127.778 Y35.259 E13.85996
G1 X128.521 Y35.457 E13.88553
G1 X129.24 Y35.731 E13.91112
G1 X129.926 Y36.078 E13.93669
G1 X130.573 Y36.494 E13.96228
G1 X131.173 Y36.975 E13.98785
G1 X131.72 Y37.516 E14.01344
G1 X132.208 Y38.111 E14.03904
G1 X132.631 Y38.753 E14.06461
G1 X132.986 Y39.436 E14.09021
G1 X133.267 Y40.151 E14.11576
G1 X133.473 Y40.893 E14.14137
G1 X133.601 Y41.651 E14.16694
G1 X133.65 Y42.5 E14.19523
G1 X133.65 Y192.5 E19.18425
G1 X133.61 Y193.268 E19.20983
G1 X133.491 Y194.028 E19.23541
G1 X133.293 Y194.771 E19.26099
G1 X133.019 Y195.49 E19.28658
G1 X132.672 Y196.176 E19.31215
G1 X132.256 Y196.823 E19.33773
G1 X131.775 Y197.423 E19.36331
G1 X131.234 Y197.97 E19.3889
G1 X130.639 Y198.458 E19.41449
G1 X129.997 Y198.881 E19.44006
G1 X129.314 Y199.236 E19.46566
G1 X128.599 Y199.517 E19.49122
G1 X127.857 Y199.723 E19.51683
G1 X127.099 Y199.851 E19.5424
G1 X126.25 Y199.9 E19.57068
G1 X116.25 Y199.9 E19.90328
G1 X115.482 Y199.86 E19.92886
G1 X114.722 Y199.741 E19.95445
G1 X113.979 Y199.543 E19.98002
G1 X113.26 Y199.269 E20.00561
G1 X112.574 Y198.922 E20.03118
G1 X111.927 Y198.506 E20.05677
G1 X111.327 Y198.025 E20.08234
G1 X110.78 Y197.484 E20.10793
G1 X110.301 Y196.9 E20.13305
G1 X108.75 Y196.9 E20.18464
G1 X107.982 Y196.86 E20.21022
G1 X107.222 Y196.741 E20.2358
G1 X106.479 Y196.543 E20.26138
G1 X105.76 Y196.269 E20.28697
G1 X105.074 Y195.922 E20.31254
G1 X104.427 Y195.506 E20.33812
G1 X103.827 Y195.025 E20.3637
G1 X103.28 Y194.484 E20.38929
G1 X102.792 Y193.889 E20.41488
G1 X102.369 Y193.247 E20.44045
G1 X102.014 Y192.564 E20.46606
G1 X101.733 Y191.849 E20.49161
G1 X101.527 Y191.107 E20.51722
G1 X101.399 Y190.349 E20.54279
G1 X101.35 Y189.5 E20.57107
G1 X101.35 Y182.125 E20.81637
G1 X101.39 Y181.357 E20.84195
G1 X101.509 Y180.597 E20.86753
G1 X101.707 Y179.854 E20.89311
G1 X101.981 Y179.135 E20.9187
G1 X102.328 Y178.449 E20.94427
G1 X102.744 Y177.802 E20.96985
G1 X103.225 Y177.202 E20.99543
G1 X103.766 Y176.655 E21.02102
G1 X104.361 Y176.167 E21.04661
G1 X105.003 Y175.744 E21.07218
G1 X105.686 Y175.389 E21.09778
G1 X106.401 Y175.108 E21.12334
G1 X107.143 Y174.902 E21.14895
G1 X107.901 Y174.774 E21.17452
G1 X108.75 Y174.725 E21.2028
G1 X108.85 Y174.725 E21.20613
G1 X108.85 Y60.275 E25.01275
G1 X108.75 Y60.275 E25.01608
G1 X107.982 Y60.235 E25.04165
G1 X107.222 Y60.116 E25.06724
G1 X106.479 Y59.918 E25.09281
G1 X105.76 Y59.644 E25.11841
G1 X105.074 Y59.297 E25.14398
G1 X104.427 Y58.881 E25.16956
G1 X103.827 Y58.4 E25.19514
G1 X103.28 Y57.859 E25.22072
G1 X102.792 Y57.264 E25.24632
G1 X102.369 Y56.622 E25.27189
G1 X102.014 Y55.939 E25.29749
G1 X101.733 Y55.224 E25.32304
G1 X101.527 Y54.482 E25.34866
G1 X101.399 Y53.724 E25.37422
G1 X101.35 Y52.875 E25.40251
G1 X101.35 Y45.5 E25.6478
G1 X101.39 Y44.732 E25.67338
G1 X101.509 Y43.972 E25.69897
G1 X101.707 Y43.229 E25.72454
G1 X101.981 Y42.51 E25.75013
G0 F6000 X102.38 Y42.597
G1 F1200 X102.727 Y41.934 E25.77502
G1 X103.142 Y41.311 E25.79992
G1 X103.621 Y40.737 E25.82479
G1 X104.158 Y40.216 E25.84967
G1 X104.748 Y39.757 E25.87453
G1 X105.384 Y39.362 E25.89943
G1 X106.058 Y39.038 E25.92431
G1 X106.763 Y38.788 E25.94919
G1 X107.491 Y38.614 E25.97408
G1 X108.233 Y38.519 E25.99896
G1 X108.75 Y38.5 E26.01617
G1 X110.516 Y38.5 E26.07491
G1 X110.642 Y38.311 E26.08246
G1 X111.121 Y37.737 E26.10733
G1 X111.658 Y37.216 E26.13221
G1 X112.248 Y36.757 E26.15708
G1 X112.884 Y36.362 E26.18198
G1 X113.558 Y36.038 E26.20685
G1 X114.263 Y35.788 E26.23173
G1 X114.991 Y35.614 E26.25662
G1 X115.733 Y35.519 E26.2815
G1 X116.25 Y35.5 E26.29871
G1 X126.25 Y35.5 E26.63131
G1 X126.997 Y35.54 E26.65619
G1 X127.735 Y35.659 E26.68106
G1 X128.457 Y35.857 E26.70596
G1 X129.153 Y36.13 E26.73082
G1 X129.816 Y36.477 E26.75571
G1 X130.439 Y36.892 E26.78061
G1 X131.013 Y37.371 E26.80548
G1 X131.534 Y37.908 E26.83036
G1 X131.993 Y38.498 E26.85522
G1 X132.388 Y39.134 E26.88012
G1 X132.712 Y39.808 E26.905
G1 X132.962 Y40.513 E26.92988
G1 X133.136 Y41.241 E26.95477
G1 X133.231 Y41.983 E26.97965
G1 X133.25 Y42.5 E26.99686
G1 X133.25 Y192.5 E31.98588
G1 X133.21 Y193.247 E32.01076
G1 X133.091 Y193.985 E32.03562
G1 X132.893 Y194.707 E32.06052
G1 X132.62 Y195.403 E32.08539
G1 X132.273 Y196.066 E32.11028
G1 X131.858 Y196.689 E32.13518
G1 X131.379 Y197.263 E32.16004
G1 X130.842 Y197.784 E32.18493
G1 X130.252 Y198.243 E32.20979
G1 X129.616 Y198.638 E32.23469
G1 X128.942 Y198.962 E32.25956
G1 X128.237 Y199.212 E32.28444
G1 X127.509 Y199.386 E32.30934
G1 X126.767 Y199.481 E32.33422
G1 X126.25 Y199.5 E32.35143
G1 X116.25 Y199.5 E32.68403
G1 X115.503 Y199.46 E32.70891
G1 X114.765 Y199.341 E32.73377
G1 X114.043 Y199.143 E32.75867
G1 X113.347 Y198.87 E32.78354
G1 X112.684 Y198.523 E32.80843
G1 X112.061 Y198.108 E32.83332
G1 X111.487 Y197.629 E32.85819
G1 X110.966 Y197.092 E32.88308
G1 X110.506 Y196.5 E32.90801
G1 X108.75 Y196.5 E32.96642
G1 X108.003 Y196.46 E32.9913
G1 X107.265 Y196.341 E33.01616
G1 X106.543 Y196.143 E33.04106
G1 X105.847 Y195.87 E33.06593
G1 X105.184 Y195.523 E33.09082
G1 X104.561 Y195.108 E33.11571
G1 X103.987 Y194.629 E33.14058
G1 X103.466 Y194.092 E33.16546
G1 X103.007 Y193.502 E33.19033
G1 X102.612 Y192.866 E33.21523
G1 X102.288 Y192.192 E33.2401
G1 X102.038 Y191.487 E33.26498
G1 X101.864 Y190.759 E33.28987
G1 X101.769 Y190.017 E33.31476
G1 X101.75 Y189.5 E33.33196
G1 X101.75 Y182.125 E33.57726
G1 X101.79 Y181.378 E33.60214
G1 X101.909 Y180.64 E33.627
G1 X102.107 Y179.918 E33.6519
G1 X102.38 Y179.222 E33.67677
G1 X102.727 Y178.559 E33.70166
G1 X103.142 Y177.936 E33.72655
G1 X103.621 Y177.362 E33.75142
G1 X104.158 Y176.841 E33.7763
G1 X104.748 Y176.382 E33.80117
G1 X105.384 Y175.987 E33.82607
G1 X106.058 Y175.663 E33.85094
G1 X106.763 Y175.413 E33.87582
G1 X107.491 Y175.239 E33.90072
G1 X108.233 Y175.144 E33.9256
G1 X108.75 Y175.125 E33.9428
G1 X109.25 Y175.125 E33.95943
G1 X109.25 Y59.875 E37.79266
G1 X108.75 Y59.875 E37.80929
G1 X108.003 Y59.835 E37.83417
G1 X107.265 Y59.716 E37.85904
G1 X106.543 Y59.518 E37.88394
G1 X105.847 Y59.245 E37.9088
G1 X105.184 Y58.898 E37.93369
G1 X104.561 Y58.483 E37.95859
G1 X103.987 Y58.004 E37.98346
G1 X103.466 Y57.467 E38.00834
G1 X103.007 Y56.877 E38.0332
G1 X102.612 Y56.241 E38.05811
G1 X102.288 Y55.567 E38.08298
G1 X102.038 Y54.862 E38.10786
G1 X101.864 Y54.134 E38.13275
G1 X101.769 Y53.392 E38.15763
G1 X101.75 Y52.875 E38.17484
G1 X101.75 Y45.5 E38.42013
G1 X101.79 Y44.753 E38.44501
G1 X101.909 Y44.015 E38.46988
G1 X102.107 Y43.293 E38.49478
G1 X102.38 Y42.597 E38.51964
G0 F6000 X102.78 Y42.686
G1 F1200 X103.125 Y42.047 E38.5438
G1 X103.539 Y41.45 E38.56796
G1 X104.015 Y40.902 E38.5921
G1 X104.549 Y40.409 E38.61628
G1 X105.134 Y39.979 E38.64042
G1 X105.763 Y39.615 E38.66459
G1 X106.428 Y39.322 E38.68876
G1 X107.121 Y39.104 E38.71293
G1 X107.833 Y38.964 E38.73706
G1 X108.75 Y38.9 E38.76764
G1 X110.727 Y38.9 E38.83339
G1 X111.039 Y38.45 E38.8516
G1 X111.515 Y37.902 E38.87575
G1 X112.049 Y37.409 E38.89992
G1 X112.634 Y36.979 E38.92407
G1 X113.263 Y36.615 E38.94824
G1 X113.928 Y36.322 E38.97241
G1 X114.621 Y36.104 E38.99657
G1 X115.333 Y35.964 E39.02071
G1 X116.25 Y35.9 E39.05128
G1 X126.25 Y35.9 E39.38388
G1 X126.975 Y35.94 E39.40803
G1 X127.692 Y36.059 E39.4322
G1 X128.391 Y36.257 E39.45637
G1 X129.064 Y36.53 E39.48052
G1 X129.703 Y36.875 E39.50468
G1 X130.3 Y37.289 E39.52884
G1 X130.848 Y37.765 E39.55298
G1 X131.341 Y38.299 E39.57716
G1 X131.771 Y38.884 E39.6013
G1 X132.135 Y39.513 E39.62547
G1 X132.428 Y40.178 E39.64964
G1 X132.646 Y40.871 E39.67381
G1 X132.786 Y41.583 E39.69794
G1 X132.85 Y42.5 E39.72852
G1 X132.85 Y192.5 E44.71754
G1 X132.81 Y193.225 E44.74169
G1 X132.691 Y193.942 E44.76586
G1 X132.493 Y194.641 E44.79002
G1 X132.22 Y195.314 E44.81418
G1 X131.875 Y195.953 E44.83833
G1 X131.461 Y196.55 E44.8625
G1 X130.985 Y197.098 E44.88664
G1 X130.451 Y197.591 E44.91081
G1 X129.866 Y198.021 E44.93496
G1 X129.237 Y198.385 E44.95913
G1 X128.572 Y198.678 E44.9833
G1 X127.879 Y198.896 E45.00746
G1 X127.167 Y199.036 E45.0316
G1 X126.25 Y199.1 E45.06217
G1 X116.25 Y199.1 E45.39477
G1 X115.525 Y199.06 E45.41892
G1 X114.808 Y198.941 E45.4431
G1 X114.109 Y198.743 E45.46726
G1 X113.436 Y198.47 E45.49141
G1 X112.797 Y198.125 E45.51557
G1 X112.2 Y197.711 E45.53973
G1 X111.652 Y197.235 E45.56387
G1 X111.159 Y196.701 E45.58805
G1 X110.729 Y196.116 E45.61219
G1 X110.72 Y196.1 E45.61281
G1 X108.75 Y196.1 E45.67833
G1 X108.025 Y196.06 E45.70248
G1 X107.308 Y195.941 E45.72665
G1 X106.609 Y195.743 E45.75082
G1 X105.936 Y195.47 E45.77497
G1 X105.297 Y195.125 E45.79912
G1 X104.7 Y194.711 E45.82329
G1 X104.152 Y194.235 E45.84743
G1 X103.659 Y193.701 E45.8716
G1 X103.229 Y193.116 E45.89575
G1 X102.865 Y192.487 E45.91992
G1 X102.572 Y191.822 E45.94409
G1 X102.354 Y191.129 E45.96825
G1 X102.214 Y190.417 E45.99239
G1 X102.15 Y189.5 E46.02296
G1 X102.15 Y182.125 E46.26826
G1 X102.19 Y181.4 E46.29241
G1 X102.309 Y180.683 E46.31658
G1 X102.507 Y179.984 E46.34074
G1 X102.78 Y179.311 E46.3649
G1 X103.125 Y178.672 E46.38905
G1 X103.539 Y178.075 E46.41322
G1 X104.015 Y177.527 E46.43736
G1 X104.549 Y177.034 E46.46153
G1 X105.134 Y176.604 E46.48568
G1 X105.763 Y176.24 E46.50985
G1 X106.428 Y175.947 E46.53402
G1 X107.121 Y175.729 E46.55818
G1 X107.833 Y175.589 E46.58232
G1 X108.75 Y175.525 E46.61289
G1 X109.65 Y175.525 E46.64282
G1 X109.65 Y59.475 E50.50266
G1 X108.75 Y59.475 E50.5326
G1 X108.025 Y59.435 E50.55675
G1 X107.308 Y59.316 E50.58092
G1 X106.609 Y59.118 E50.60509
G1 X105.936 Y58.845 E50.62924
G1 X105.297 Y58.5 E50.65339
G1 X104.7 Y58.086 E50.67756
G1 X104.152 Y57.61 E50.7017
G1 X103.659 Y57.076 E50.72587
G1 X103.229 Y56.491 E50.75002
G1 X102.865 Y55.862 E50.77419
G1 X102.572 Y55.197 E50.79836
G1 X102.354 Y54.504 E50.82252
G1 X102.214 Y53.792 E50.84666
G1 X102.15 Y52.875 E50.87723
G1 X102.15 Y45.5 E51.12253
G1 X102.19 Y44.775 E51.14668
G1 X102.309 Y44.058 E51.17085
G1 X102.507 Y43.359 E51.19501
G1 X102.78 Y42.686 E51.21917
G0 F6000 X103.179 Y42.779
G1 F1200 X103.524 Y42.165 E51.24259
G1 X103.935 Y41.594 E51.26599
G1 X104.409 Y41.073 E51.28942
G1 X104.939 Y40.609 E51.31285
G1 X105.518 Y40.209 E51.33626
G1 X106.139 Y39.877 E51.35968
G1 X106.793 Y39.617 E51.38308
G1 X107.473 Y39.433 E51.40652
G1 X108.169 Y39.327 E51.42993
G1 X108.75 Y39.3 E51.44928
G1 X110.948 Y39.3 E51.52238
G1 X111.024 Y39.165 E51.52753
G1 X111.435 Y38.594 E51.55093
G1 X111.909 Y38.073 E51.57436
G1 X112.439 Y37.609 E51.59779
G1 X113.018 Y37.209 E51.6212
G1 X113.639 Y36.877 E51.64462
G1 X114.293 Y36.617 E51.66803
G1 X114.973 Y36.433 E51.69146
G1 X115.669 Y36.327 E51.71487
G1 X116.25 Y36.3 E51.73422
G1 X126.25 Y36.3 E52.06682
G1 X126.953 Y36.34 E52.09024
G1 X127.647 Y36.459 E52.11366
G1 X128.322 Y36.657 E52.13705
G1 X128.971 Y36.929 E52.16046
G1 X129.585 Y37.274 E52.18388
G1 X130.156 Y37.685 E52.20728
G1 X130.677 Y38.159 E52.23071
G1 X131.141 Y38.689 E52.25414
G1 X131.541 Y39.268 E52.27754
G1 X131.873 Y39.889 E52.30097
G1 X132.133 Y40.543 E52.32437
