;FLAVOR:Marlin
;TIME:17725
;Filament used: 13.3249m
;Layer height: 0.2
;MINX:71.5
;MINY:37
;MINZ:0.2
;MAXX:178.5
;MAXY:213
;MAXZ:20
;Generated with Cura_SteamEngine 4.12.1
M140 S50
M105
M190 S50
M104 S200
M105
M109 S200
M82 ;absolute extrusion mode
; Ender 3 Custom Start G-code
G92 E0 ; Reset Extruder
G28 ; Home all axes
G1 Z2.0 F3000 ; Move Z Axis up little to prevent scratching of Heat Bed
G1 X0.1 Y20 Z0.3 F5000.0 ; Move to start position
G1 X0.1 Y200.0 Z0.3 F1500.0 E15 ; Draw the first line
G1 X0.4 Y200.0 Z0.3 F5000.0 ; Move to side a little
G1 X0.4 Y20 Z0.3 F1500.0 E30 ; Draw the second line
G92 E0 ; Reset Extruder
G1 Z2.0 F3000 ; Move Z Axis up little to prevent scratching of Heat Bed
G1 X5 Y20 Z0.3 F5000.0 ; Move over to prevent blob squish
G92 E0
G92 E0
G1 F2700 E-5
;LAYER_COUNT:100
;LAYER:0
M107
G0 F6000 X72.992 Y42.493 Z0.2
;TYPE:SKIRT
G1 F2700 E0
G1 F1200 X73.496 Y41.703 E0.03117
G1 X74.066 Y40.958 E0.06237
G1 X74.698 Y40.264 E0.09359
G1 X75.386 Y39.627 E0.12477
G1 X76.126 Y39.051 E0.15596
G1 X76.912 Y38.539 E0.18716
G1 X77.739 Y38.097 E0.21835
G1 X78.601 Y37.727 E0.24955
G1 X79.491 Y37.431 E0.28074
G1 X80.403 Y37.213 E0.31193
G1 X81.33 Y37.072 E0.34312
G1 X82.201 Y37.013 E0.37216
G1 X82.522 Y37.004 E0.38284
G1 X82.83 Y37 E0.39308
G1 X85.793 Y37 E0.49163
G1 X86.67 Y37.012 E0.5208
G1 X87.606 Y37.067 E0.55199
G1 X88.534 Y37.201 E0.58317
G1 X89.448 Y37.414 E0.61439
G1 X90.34 Y37.704 E0.64558
G1 X91.204 Y38.068 E0.67677
G1 X92.033 Y38.505 E0.70794
G1 X93.033 Y39.162 E0.74773
G1 X93.577 Y39.564 E0.77023
G1 X95.63 Y41.037 E0.85427
G1 X97.73 Y42.454 E0.93853
G1 X99.863 Y43.809 E1.02258
G1 X102.036 Y45.103 E1.1067
G1 X104.216 Y46.319 E1.18972
G1 X106.44 Y47.479 E1.27315
G1 X108.73 Y48.593 E1.35785
G1 X111.002 Y49.619 E1.44076
G1 X113.337 Y50.594 E1.52492
G1 X115.716 Y51.512 E1.60974
G1 X118.046 Y52.332 E1.69189
G1 X120.438 Y53.101 E1.77546
G1 X122.872 Y53.809 E1.85977
G1 X125.296 Y54.439 E1.94307
G1 X127.774 Y55.009 E2.02764
G1 X130.244 Y55.506 E2.11144
G1 X132.68 Y55.922 E2.19364
G1 X135.209 Y56.281 E2.27859
G1 X137.717 Y56.566 E2.36255
G1 X140.182 Y56.775 E2.44483
G1 X142.678 Y56.916 E2.52798
G1 X146.627 Y57 E2.65935
G1 X166.951 Y57.001 E3.33533
G1 X167.649 Y57.011 E3.35855
G1 X168.585 Y57.065 E3.38973
G1 X169.513 Y57.197 E3.42091
G1 X170.427 Y57.409 E3.45212
G1 X171.319 Y57.698 E3.4833
G1 X172.184 Y58.061 E3.5145
G1 X173.014 Y58.497 E3.54569
G1 X173.805 Y59.002 E3.5769
G1 X174.549 Y59.573 E3.60809
G1 X175.242 Y60.205 E3.63929
G1 X175.879 Y60.893 E3.67047
G1 X176.454 Y61.634 E3.70167
G1 X176.965 Y62.42 E3.73285
G1 X177.407 Y63.248 E3.76407
G1 X177.776 Y64.11 E3.79525
G1 X178.071 Y65 E3.82644
G1 X178.289 Y65.912 E3.85763
G1 X178.429 Y66.84 E3.88884
G1 X178.487 Y67.701 E3.91754
G1 X178.496 Y68.021 E3.92819
G1 X178.5 Y68.33 E3.93847
G1 X178.499 Y181.4 E7.69919
G1 X178.49 Y182.127 E7.72337
G1 X178.439 Y183.064 E7.75458
G1 X178.307 Y183.992 E7.78576
G1 X178.098 Y184.906 E7.81695
G1 X177.811 Y185.799 E7.84814
G1 X177.449 Y186.665 E7.87936
G1 X177.015 Y187.496 E7.91054
G1 X176.511 Y188.287 E7.94174
G1 X175.942 Y189.032 E7.97292
G1 X175.311 Y189.727 E8.00414
G1 X174.624 Y190.365 E8.03532
G1 X173.885 Y190.942 E8.06651
G1 X173.099 Y191.454 E8.09771
G1 X172.273 Y191.897 E8.12888
G1 X171.411 Y192.269 E8.16011
G1 X170.522 Y192.565 E8.19127
G1 X169.61 Y192.785 E8.22247
G1 X168.683 Y192.926 E8.25366
G1 X167.799 Y192.987 E8.28313
G1 X167.478 Y192.996 E8.29381
G1 X167.17 Y193 E8.30406
G1 X146.573 Y193 E8.98912
G1 X143.965 Y193.037 E9.07587
G1 X141.444 Y193.144 E9.15979
G1 X138.949 Y193.321 E9.24299
G1 X136.449 Y193.569 E9.32654
G1 X133.956 Y193.888 E9.41014
G1 X131.463 Y194.279 E9.49407
G1 X128.973 Y194.742 E9.57831
G1 X126.509 Y195.272 E9.66213
G1 X124.107 Y195.861 E9.74439
G1 X121.651 Y196.537 E9.82912
G1 X119.241 Y197.275 E9.91295
G1 X116.849 Y198.082 E9.99691
G1 X114.509 Y198.945 E10.07986
G1 X112.153 Y199.891 E10.16431
G1 X109.855 Y200.891 E10.24766
G1 X107.574 Y201.96 E10.33145
G1 X105.304 Y203.103 E10.41598
G1 X103.111 Y204.288 E10.49888
G1 X100.928 Y205.546 E10.58268
G1 X98.783 Y206.866 E10.66645
G1 X96.686 Y208.239 E10.74982
G1 X94.618 Y209.679 E10.83363
G1 X93.662 Y210.386 E10.87318
G1 X92.931 Y210.913 E10.90315
G1 X92.147 Y211.428 E10.93435
G1 X91.323 Y211.875 E10.96553
G1 X90.463 Y212.25 E10.99674
G1 X89.575 Y212.551 E11.02792
G1 X88.664 Y212.775 E11.05913
G1 X87.737 Y212.92 E11.09033
G1 X86.833 Y212.985 E11.12048
G1 X86.505 Y212.995 E11.13139
G1 X86.17 Y213 E11.14253
G1 X83.065 Y212.999 E11.24581
G1 X82.367 Y212.99 E11.26902
G1 X81.431 Y212.938 E11.3002
G1 X80.502 Y212.806 E11.33141
G1 X79.588 Y212.596 E11.36261
G1 X78.695 Y212.309 E11.3938
G1 X77.83 Y211.946 E11.425
G1 X76.999 Y211.512 E11.45619
G1 X76.208 Y211.008 E11.48738
G1 X75.463 Y210.438 E11.51858
G1 X74.769 Y209.807 E11.54978
G1 X74.132 Y209.12 E11.58094
G1 X73.555 Y208.38 E11.61215
G1 X73.043 Y207.594 E11.64335
G1 X72.6 Y206.767 E11.67455
G1 X72.229 Y205.906 E11.70573
G1 X71.933 Y205.016 E11.73693
G1 X71.714 Y204.104 E11.76813
G1 X71.573 Y203.177 E11.79931
G1 X71.513 Y202.288 E11.82895
G1 X71.504 Y201.955 E11.84003
G1 X71.5 Y201.658 E11.84991
G1 X71.501 Y48.525 E16.94313
G1 X71.51 Y47.86 E16.96525
G1 X71.563 Y46.924 E16.99643
G1 X71.695 Y45.995 E17.02764
G1 X71.906 Y45.081 E17.05884
G1 X72.194 Y44.189 E17.09002
G1 X72.557 Y43.324 E17.12122
G1 X72.992 Y42.493 E17.15241
G0 F6000 X73.389 Y42.606
G1 F1200 X73.892 Y41.835 E17.18303
G1 X74.461 Y41.111 E17.21366
G1 X75.089 Y40.439 E17.24425
G1 X75.774 Y39.823 E17.27489
G1 X76.51 Y39.27 E17.30551
G1 X77.291 Y38.782 E17.33614
G1 X78.111 Y38.364 E17.36675
G1 X78.965 Y38.019 E17.39739
G1 X79.845 Y37.749 E17.428
G1 X80.745 Y37.557 E17.45861
G1 X81.659 Y37.443 E17.48925
G1 X82.212 Y37.413 E17.50767
G1 X82.533 Y37.404 E17.51835
G1 X82.83 Y37.4 E17.52823
G1 X85.793 Y37.4 E17.62678
G1 X86.663 Y37.412 E17.65571
G1 X87.582 Y37.467 E17.68634
G1 X88.493 Y37.6 E17.71696
G1 X89.389 Y37.813 E17.74759
G1 X90.263 Y38.102 E17.77821
G1 X91.109 Y38.466 E17.80884
G1 X91.92 Y38.902 E17.83946
G1 X92.795 Y39.484 E17.87442
G1 X93.311 Y39.865 E17.89575
G1 X95.418 Y41.377 E17.982
G1 X97.513 Y42.791 E18.06607
G1 X99.649 Y44.147 E18.15022
G1 X101.816 Y45.438 E18.23412
G1 X104.015 Y46.665 E18.31787
G1 X106.287 Y47.85 E18.4031
G1 X108.527 Y48.94 E18.48595
G1 X110.863 Y49.994 E18.57119
G1 X113.188 Y50.965 E18.655
G1 X115.565 Y51.883 E18.73975
G1 X117.94 Y52.718 E18.82348
G1 X120.319 Y53.483 E18.90659
G1 X122.756 Y54.191 E18.991
G1 X125.219 Y54.832 E19.07565
G1 X127.677 Y55.398 E19.15954
G1 X130.163 Y55.897 E19.24388
G1 X132.629 Y56.318 E19.32708
G1 X135.179 Y56.681 E19.41275
G1 X137.636 Y56.959 E19.49499
G1 X140.196 Y57.178 E19.58045
G1 X142.648 Y57.316 E19.66213
G1 X146.618 Y57.4 E19.7942
G1 X166.945 Y57.401 E20.47028
G1 X167.643 Y57.411 E20.4935
G1 X168.562 Y57.464 E20.52412
G1 X169.473 Y57.597 E20.55474
G1 X170.369 Y57.808 E20.58536
G1 X171.243 Y58.096 E20.61596
G1 X172.09 Y58.459 E20.64661
G1 X172.901 Y58.894 E20.67722
G1 X173.671 Y59.398 E20.70783
G1 X174.395 Y59.967 E20.73846
G1 X175.067 Y60.597 E20.76909
G1 X175.682 Y61.282 E20.79971
G1 X176.235 Y62.018 E20.83033
G1 X176.722 Y62.799 E20.86094
G1 X177.139 Y63.62 E20.89157
G1 X177.484 Y64.474 E20.92221
G1 X177.753 Y65.354 E20.95281
G1 X177.945 Y66.255 E20.98345
G1 X178.058 Y67.168 E21.01405
G1 X178.087 Y67.712 E21.03217
G1 X178.096 Y68.032 E21.04282
G1 X178.1 Y68.33 E21.05273
G1 X178.099 Y181.395 E24.81329
G1 X178.09 Y182.122 E24.83747
G1 X178.039 Y183.041 E24.86808
G1 X177.908 Y183.953 E24.89873
G1 X177.698 Y184.849 E24.92933
G1 X177.412 Y185.724 E24.95995
G1 X177.051 Y186.571 E24.99058
G1 X176.617 Y187.383 E25.0212
G1 X176.115 Y188.155 E25.05183
G1 X175.547 Y188.88 E25.08246
G1 X174.919 Y189.553 E25.11307
G1 X174.235 Y190.169 E25.14369
G1 X173.5 Y190.723 E25.1743
G1 X172.72 Y191.212 E25.20492
G1 X171.9 Y191.631 E25.23555
G1 X171.047 Y191.977 E25.26617
G1 X170.167 Y192.248 E25.29679
G1 X169.267 Y192.441 E25.32741
G1 X168.353 Y192.556 E25.35805
G1 X167.788 Y192.587 E25.37687
G1 X167.467 Y192.596 E25.38755
G1 X167.17 Y192.6 E25.39743
G1 X146.567 Y192.6 E26.08268
G1 X143.942 Y192.637 E26.17
G1 X141.434 Y192.744 E26.25349
G1 X138.914 Y192.922 E26.33752
G1 X136.399 Y193.171 E26.42158
G1 X133.91 Y193.49 E26.50504
G1 X131.358 Y193.891 E26.59096
G1 X128.927 Y194.343 E26.6732
G1 X126.435 Y194.879 E26.75798
G1 X123.978 Y195.481 E26.84212
G1 X121.533 Y196.154 E26.92646
G1 X119.133 Y196.889 E27.00995
G1 X116.719 Y197.703 E27.09468
G1 X114.369 Y198.57 E27.17799
G1 X111.981 Y199.529 E27.26358
G1 X109.704 Y200.52 E27.34617
G1 X107.375 Y201.612 E27.43173
G1 X105.14 Y202.737 E27.51495
G1 X102.927 Y203.932 E27.5986
G1 X100.74 Y205.193 E27.68257
G1 X98.56 Y206.535 E27.76771
G1 X96.461 Y207.909 E27.85115
G1 X94.381 Y209.358 E27.93547
G1 X93.428 Y210.061 E27.97485
G1 X92.697 Y210.588 E28.00483
G1 X91.927 Y211.094 E28.03547
G1 X91.117 Y211.531 E28.06608
G1 X90.272 Y211.896 E28.0967
G1 X89.398 Y212.186 E28.12732
G1 X88.502 Y212.399 E28.15796
G1 X87.592 Y212.533 E28.18855
G1 X86.821 Y212.585 E28.21425
G1 X86.493 Y212.595 E28.22517
G1 X86.17 Y212.6 E28.23591
G1 X83.07 Y212.599 E28.33902
G1 X82.372 Y212.59 E28.36223
G1 X81.453 Y212.538 E28.39285
G1 X80.542 Y212.407 E28.42346
G1 X79.646 Y212.197 E28.45407
G1 X78.771 Y211.91 E28.4847
G1 X77.924 Y211.548 E28.51533
G1 X77.112 Y211.114 E28.54596
G1 X76.341 Y210.612 E28.57656
G1 X75.616 Y210.044 E28.60719
G1 X74.943 Y209.415 E28.63783
G1 X74.328 Y208.731 E28.66842
G1 X73.774 Y207.996 E28.69903
G1 X73.286 Y207.215 E28.72966
G1 X72.867 Y206.395 E28.76029
G1 X72.521 Y205.542 E28.79091
G1 X72.251 Y204.662 E28.82152
G1 X72.058 Y203.761 E28.85217
G1 X71.944 Y202.848 E28.88277
G1 X71.913 Y202.277 E28.90179
G1 X71.904 Y201.944 E28.91287
G1 X71.9 Y201.658 E28.92239
G1 X71.901 Y48.531 E34.01541
G1 X71.91 Y47.866 E34.03753
G1 X71.962 Y46.946 E34.06818
G1 X72.094 Y46.035 E34.09879
G1 X72.305 Y45.139 E34.12941
G1 X72.592 Y44.264 E34.16004
G1 X72.955 Y43.418 E34.19066
G1 X73.389 Y42.606 E34.22128
G0 F6000 X73.786 Y42.722
G1 F1200 X74.288 Y41.971 E34.25133
G1 X74.855 Y41.267 E34.28139
G1 X75.481 Y40.617 E34.31141
G1 X76.162 Y40.024 E34.34144
G1 X76.894 Y39.494 E34.3715
G1 X77.669 Y39.031 E34.40152
G1 X78.482 Y38.638 E34.43156
G1 X79.327 Y38.318 E34.46161
G1 X80.196 Y38.075 E34.49162
G1 X81.084 Y37.909 E34.52167
G1 X82.223 Y37.813 E34.55969
G1 X82.544 Y37.804 E34.57037
G1 X82.83 Y37.8 E34.57988
G1 X85.793 Y37.8 E34.67843
G1 X86.657 Y37.812 E34.70717
G1 X87.559 Y37.866 E34.73722
G1 X88.452 Y38 E34.76726
G1 X89.33 Y38.212 E34.7973
G1 X90.185 Y38.501 E34.82732
G1 X91.012 Y38.864 E34.85736
G1 X91.803 Y39.299 E34.88738
G1 X92.558 Y39.806 E34.91763
G1 X93.08 Y40.192 E34.93922
G1 X95.184 Y41.701 E35.02534
G1 X97.305 Y43.133 E35.11046
G1 X99.437 Y44.486 E35.19444
G1 X101.611 Y45.781 E35.27861
G1 X103.841 Y47.026 E35.36355
G1 X106.106 Y48.207 E35.44851
G1 X108.366 Y49.306 E35.5321
G1 X110.68 Y50.351 E35.61654
G1 X113.038 Y51.336 E35.70154
G1 X115.425 Y52.257 E35.78664
G1 X117.789 Y53.089 E35.86999
G1 X120.232 Y53.874 E35.95534
G1 X122.648 Y54.577 E36.03903
G1 X125.126 Y55.221 E36.12418
G1 X127.587 Y55.787 E36.20817
G1 X130.088 Y56.29 E36.29302
G1 X132.611 Y56.721 E36.37815
G1 X135.074 Y57.071 E36.4609
G1 X137.628 Y57.361 E36.54639
G1 X140.141 Y57.575 E36.63027
G1 X142.645 Y57.716 E36.71369
G1 X146.61 Y57.8 E36.84559
G1 X166.939 Y57.801 E37.52174
G1 X167.637 Y57.811 E37.54496
G1 X168.539 Y57.864 E37.57501
G1 X169.432 Y57.996 E37.60503
G1 X170.31 Y58.207 E37.63507
G1 X171.166 Y58.495 E37.66511
G1 X171.993 Y58.857 E37.69513
G1 X172.785 Y59.292 E37.72519
G1 X173.536 Y59.794 E37.75523
G1 X174.239 Y60.361 E37.78527
G1 X174.889 Y60.988 E37.81531
G1 X175.481 Y61.67 E37.84535
G1 X176.011 Y62.401 E37.87538
G1 X176.473 Y63.177 E37.90541
G1 X176.866 Y63.99 E37.93545
G1 X177.184 Y64.835 E37.96548
G1 X177.427 Y65.705 E37.99552
G1 X177.592 Y66.593 E38.02556
G1 X177.687 Y67.723 E38.06328
G1 X177.696 Y68.043 E38.07393
G1 X177.7 Y68.33 E38.08347
G1 X177.699 Y181.39 E41.84386
G1 X177.69 Y182.117 E41.86805
G1 X177.639 Y183.019 E41.89809
G1 X177.508 Y183.913 E41.92815
G1 X177.299 Y184.791 E41.95816
G1 X177.013 Y185.648 E41.98821
G1 X176.652 Y186.476 E42.01826
G1 X176.22 Y187.268 E42.04826
G1 X175.719 Y188.02 E42.07832
G1 X175.153 Y188.724 E42.10836
G1 X174.528 Y189.375 E42.13838
G1 X173.847 Y189.969 E42.16843
G1 X173.116 Y190.5 E42.19848
G1 X172.342 Y190.964 E42.2285
G1 X171.529 Y191.358 E42.25855
G1 X170.685 Y191.678 E42.28857
G1 X169.815 Y191.923 E42.31863
G1 X168.928 Y192.089 E42.34864
G1 X167.777 Y192.187 E42.38706
G1 X167.456 Y192.196 E42.39775
G1 X167.17 Y192.2 E42.40726
G1 X146.561 Y192.2 E43.09272
G1 X143.955 Y192.237 E43.1794
G1 X141.39 Y192.346 E43.26479
G1 X138.883 Y192.524 E43.34838
G1 X136.342 Y192.775 E43.43331
G1 X133.834 Y193.096 E43.51741
G1 X131.329 Y193.49 E43.60175
G1 X128.842 Y193.952 E43.68588
G1 X126.328 Y194.493 E43.77141
G1 X123.882 Y195.092 E43.85517
G1 X121.438 Y195.765 E43.93948
G1 X119.003 Y196.51 E44.02418
G1 X116.601 Y197.321 E44.1085
G1 X114.188 Y198.211 E44.19404
G1 X111.881 Y199.137 E44.27672
G1 X109.51 Y200.169 E44.36273
G1 X107.204 Y201.25 E44.44743
G1 X104.962 Y202.379 E44.53092
G1 X102.704 Y203.599 E44.61629
G1 X100.536 Y204.849 E44.69952
G1 X98.352 Y206.192 E44.7848
G1 X96.242 Y207.574 E44.86869
G1 X94.137 Y209.04 E44.95401
G1 X93.194 Y209.737 E44.99301
G1 X92.463 Y210.264 E45.02298
G1 X91.708 Y210.759 E45.05301
G1 X90.912 Y211.186 E45.08305
G1 X90.081 Y211.54 E45.1131
G1 X89.222 Y211.819 E45.14314
G1 X88.342 Y212.022 E45.17317
G1 X87.447 Y212.146 E45.20323
G1 X86.809 Y212.185 E45.22448
G1 X86.481 Y212.195 E45.2354
G1 X86.17 Y212.2 E45.24574
G1 X83.075 Y212.199 E45.34868
G1 X82.377 Y212.19 E45.3719
G1 X81.476 Y212.139 E45.40192
G1 X80.582 Y212.007 E45.43197
G1 X79.704 Y211.798 E45.46199
G1 X78.847 Y211.511 E45.49205
G1 X78.02 Y211.15 E45.52206
G1 X77.227 Y210.717 E45.55212
G1 X76.476 Y210.216 E45.58214
G1 X75.772 Y209.65 E45.61219
G1 X75.121 Y209.024 E45.64223
G1 X74.528 Y208.343 E45.67226
G1 X73.998 Y207.612 E45.70229
G1 X73.534 Y206.837 E45.73233
G1 X73.14 Y206.024 E45.76238
G1 X72.82 Y205.18 E45.7924
G1 X72.576 Y204.31 E45.82246
G1 X72.41 Y203.422 E45.8525
G1 X72.313 Y202.267 E45.89105
G1 X72.304 Y201.934 E45.90213
G1 X72.3 Y201.658 E45.91131
G1 X72.301 Y48.536 E51.00417
G1 X72.31 Y47.871 E51.02629
G1 X72.362 Y46.969 E51.05634
G1 X72.494 Y46.076 E51.08637
G1 X72.704 Y45.198 E51.11639
G1 X72.991 Y44.341 E51.14645
G1 X73.353 Y43.514 E51.17648
G1 X73.786 Y42.722 E51.2065
G1 F2700 E46.2065
;MESH:vt320_pi_box.stl
G0 F6000 X81.835 Y48.81
G0 X83.31 Y48.81
G0 X83.282 Y201.218
G0 X85.9 Y201.4
;TYPE:WALL-INNER
G1 F2700 E51.2065
G1 F1200 X83.1 Y201.4 E51.29963
G1 X83.1 Y48.6 E56.38178
G1 X85.9 Y48.6 E56.47491
G1 X85.9 Y68.6 E57.14011
G1 X166.9 Y68.6 E59.83418
G1 X166.9 Y181.4 E63.58592
G1 X85.9 Y181.4 E66.27999
G1 X85.9 Y201.4 E66.9452
G0 F6000 X86.3 Y201.8
;TYPE:WALL-OUTER
G1 F1200 X82.7 Y201.8 E67.06493
G1 X82.7 Y48.2 E72.17369
G1 X86.3 Y48.2 E72.29343
G1 X86.3 Y68.2 E72.95863
G1 X167.3 Y68.2 E75.6527
G1 X167.3 Y181.8 E79.43105
G1 X86.3 Y181.8 E82.12512
G1 X86.3 Y201.8 E82.79033
G0 F6000 X86.03 Y201.53
G0 X85.79 Y201.01
G0 X85.51 Y201.01
;TYPE:SKIN
G1 F1200 X83.49 Y201.01 E82.85751
G1 X83.49 Y48.99 E87.91372
G1 X85.51 Y48.99 E87.9809
G1 X85.51 Y68.99 E88.6461
G1 X166.51 Y68.99 E91.34018
G1 X166.51 Y181.01 E95.06598
G1 X85.51 Y181.01 E97.76005
G1 X85.51 Y201.01 E98.42525
G0 F6000 X85.79 Y201.01
G0 X83.751 Y201.29
G0 X83.751 Y200.848
G1 F1200 X83.649 Y200.746 E98.43005
G0 F6000 X83.649 Y200.18
G1 F1200 X84.317 Y200.848 E98.46147
G0 F6000 X84.883 Y200.848
G1 F1200 X83.649 Y199.614 E98.51951
G0 F6000 X83.649 Y199.049
G1 F1200 X85.349 Y200.749 E98.59947
G0 F6000 X85.349 Y200.184
G1 F1200 X83.649 Y198.483 E98.67946
G0 F6000 X83.649 Y197.917
G1 F1200 X85.349 Y199.618 E98.75945
G0 F6000 X85.349 Y199.052
G1 F1200 X83.649 Y197.352 E98.83941
G0 F6000 X83.649 Y196.786
G1 F1200 X85.349 Y198.486 E98.91937
G0 F6000 X85.349 Y197.921
G1 F1200 X83.649 Y196.22 E98.99936
G0 F6000 X83.649 Y195.655
G1 F1200 X85.349 Y197.355 E99.07932
G0 F6000 X85.349 Y196.789
