;FLAVOR:Marlin
;TIME:3329
;Filament used: 2.23139m
;Layer height: 0.2
;MINX:100.95
;MINY:34.7
;MINZ:0.2
;MAXX:134.05
;MAXY:200.3
;MAXZ:5.6
;Generated with Cura_SteamEngine 4.12.1
M140 S50
M105
M190 S50
M104 S200
M105
M109 S200
M82 ;absolute extrusion mode
; Ender 3 Custom Start G-code
G92 E0 ; Reset Extruder
G28 ; Home all axes
G1 Z2.0 F3000 ; Move Z Axis up little to prevent scratching of Heat Bed
G1 X0.1 Y20 Z0.3 F5000.0 ; Move to start position
G1 X0.1 Y200.0 Z0.3 F1500.0 E15 ; Draw the first line
G1 X0.4 Y200.0 Z0.3 F5000.0 ; Move to side a little
G1 X0.4 Y20 Z0.3 F1500.0 E30 ; Draw the second line
G92 E0 ; Reset Extruder
G1 Z2.0 F3000 ; Move Z Axis up little to prevent scratching of Heat Bed
G1 X5 Y20 Z0.3 F5000.0 ; Move over to prevent blob squish
G92 E0
G92 E0
G1 F2700 E-5
;LAYER_COUNT:28
;LAYER:0
M107
G0 F6000 X101.581 Y40.426 Z0.2
;TYPE:SKIRT
G1 F2700 E0
G1 F1200 X101.929 Y39.717 E0.02627
G1 X102.347 Y39.046 E0.05256
G1 X102.83 Y38.422 E0.07881
G1 X103.373 Y37.849 E0.10506
G1 X103.972 Y37.334 E0.13134
G1 X104.62 Y36.883 E0.1576
G1 X105.311 Y36.499 E0.18389
G1 X106.036 Y36.187 E0.21014
G1 X106.789 Y35.95 E0.2364
G1 X107.563 Y35.791 E0.26268
G1 X108.348 Y35.71 E0.28893
G1 X108.75 Y35.7 E0.3023
G1 X112.449 Y35.7 E0.42533
G1 X112.811 Y35.499 E0.4391
G1 X113.536 Y35.187 E0.46535
G1 X114.289 Y34.95 E0.49161
G1 X115.063 Y34.791 E0.51789
G1 X115.848 Y34.71 E0.54414
G1 X116.25 Y34.7 E0.55751
G1 X126.25 Y34.7 E0.89011
G1 X127.039 Y34.74 E0.91639
G1 X127.819 Y34.859 E0.94263
G1 X128.584 Y35.057 E0.96892
G1 X129.324 Y35.331 E0.99516
G1 X130.033 Y35.679 E1.02143
G1 X130.704 Y36.097 E1.04772
G1 X131.328 Y36.58 E1.07397
G1 X131.901 Y37.123 E1.10023
G1 X132.416 Y37.722 E1.1265
G1 X132.867 Y38.37 E1.15276
G1 X133.251 Y39.061 E1.17905
G1 X133.563 Y39.786 E1.2053
G1 X133.8 Y40.539 E1.23156
G1 X133.959 Y41.313 E1.25784
G1 X134.04 Y42.098 E1.28409
G1 X134.05 Y42.5 E1.29746
G1 X134.05 Y192.5 E6.28648
G1 X134.01 Y193.289 E6.31276
G1 X133.891 Y194.069 E6.339
G1 X133.693 Y194.834 E6.36528
G1 X133.419 Y195.574 E6.39153
G1 X133.071 Y196.283 E6.4178
G1 X132.653 Y196.954 E6.44409
G1 X132.17 Y197.578 E6.47034
G1 X131.627 Y198.151 E6.49659
G1 X131.028 Y198.666 E6.52287
G1 X130.38 Y199.117 E6.54913
G1 X129.689 Y199.501 E6.57542
G1 X128.964 Y199.813 E6.60167
G1 X128.211 Y200.05 E6.62793
G1 X127.437 Y200.209 E6.65421
G1 X126.652 Y200.29 E6.68046
G1 X126.25 Y200.3 E6.69383
G1 X116.25 Y200.3 E7.02643
G1 X115.461 Y200.26 E7.05271
G1 X114.681 Y200.141 E7.07895
G1 X113.916 Y199.943 E7.10523
G1 X113.176 Y199.669 E7.13148
G1 X112.467 Y199.321 E7.15775
G1 X112.433 Y199.3 E7.15908
G1 X108.75 Y199.3 E7.28157
G1 X107.961 Y199.26 E7.30785
G1 X107.181 Y199.141 E7.33409
G1 X106.416 Y198.943 E7.36038
G1 X105.676 Y198.669 E7.38662
G1 X104.967 Y198.321 E7.41289
G1 X104.296 Y197.903 E7.43918
G1 X103.672 Y197.42 E7.46543
G1 X103.099 Y196.877 E7.49169
G1 X102.584 Y196.278 E7.51796
G1 X102.133 Y195.63 E7.54422
G1 X101.749 Y194.939 E7.57051
G1 X101.437 Y194.214 E7.59676
G1 X101.2 Y193.461 E7.62302
G1 X101.041 Y192.687 E7.6493
G1 X100.96 Y191.902 E7.67555
G1 X100.95 Y191.5 E7.68892
G1 X100.95 Y182.125 E8.00074
G1 X100.99 Y181.336 E8.02701
G1 X101.109 Y180.556 E8.05326
G1 X101.307 Y179.791 E8.07954
G1 X101.581 Y179.051 E8.10578
G1 X101.929 Y178.342 E8.13205
G1 X102.347 Y177.671 E8.15835
G1 X102.83 Y177.047 E8.18459
G1 X103.373 Y176.474 E8.21085
G1 X103.972 Y175.959 E8.23712
G1 X104.62 Y175.508 E8.26338
G1 X105.311 Y175.124 E8.28967
G1 X106.036 Y174.812 E8.31592
G1 X106.789 Y174.575 E8.34218
G1 X107.563 Y174.416 E8.36846
G1 X108.348 Y174.335 E8.39471
G1 X108.45 Y174.332 E8.3981
G1 X108.45 Y60.66 E12.17885
G1 X107.961 Y60.635 E12.19513
G1 X107.181 Y60.516 E12.22138
G1 X106.416 Y60.318 E12.24766
G1 X105.676 Y60.044 E12.27391
G1 X104.967 Y59.696 E12.30017
G1 X104.296 Y59.278 E12.32647
G1 X103.672 Y58.795 E12.35271
G1 X103.099 Y58.252 E12.37897
G1 X102.584 Y57.653 E12.40524
G1 X102.133 Y57.005 E12.4315
G1 X101.749 Y56.314 E12.4578
G1 X101.437 Y55.589 E12.48405
G1 X101.2 Y54.836 E12.5103
G1 X101.041 Y54.062 E12.53658
G1 X100.96 Y53.277 E12.56283
G1 X100.95 Y52.875 E12.57621
G1 X100.95 Y43.5 E12.88802
G1 X100.99 Y42.711 E12.9143
G1 X101.109 Y41.931 E12.94054
G1 X101.307 Y41.166 E12.96682
G1 X101.581 Y40.426 E12.99307
G0 F6000 X101.981 Y40.51
G1 F1200 X102.328 Y39.824 E13.01864
G1 X102.744 Y39.177 E13.04422
G1 X103.225 Y38.577 E13.0698
G1 X103.766 Y38.03 E13.09539
G1 X104.361 Y37.542 E13.12098
G1 X105.003 Y37.119 E13.14655
G1 X105.686 Y36.764 E13.17215
G1 X106.401 Y36.483 E13.19771
G1 X107.143 Y36.277 E13.22332
G1 X107.901 Y36.149 E13.24889
G1 X108.75 Y36.1 E13.27717
G1 X112.5 Y36.1 E13.4019
G1 X112.536 Y36.102 E13.4031
G1 X113.186 Y35.764 E13.42746
G1 X113.901 Y35.483 E13.45301
G1 X114.643 Y35.277 E13.47863
G1 X115.401 Y35.149 E13.5042
G1 X116.25 Y35.1 E13.53248
G1 X126.25 Y35.1 E13.86508
G1 X127.018 Y35.14 E13.89066
G1 X127.778 Y35.259 E13.91625
G1 X128.521 Y35.457 E13.94182
G1 X129.24 Y35.731 E13.96741
G1 X129.926 Y36.078 E13.99298
G1 X130.573 Y36.494 E14.01856
G1 X131.173 Y36.975 E14.04414
G1 X131.72 Y37.516 E14.06973
G1 X132.208 Y38.111 E14.09532
G1 X132.631 Y38.753 E14.1209
G1 X132.986 Y39.436 E14.1465
G1 X133.267 Y40.151 E14.17205
G1 X133.473 Y40.893 E14.19766
G1 X133.601 Y41.651 E14.22323
G1 X133.65 Y42.5 E14.25152
G1 X133.65 Y192.5 E19.24054
G1 X133.61 Y193.268 E19.26611
G1 X133.491 Y194.028 E19.2917
G1 X133.293 Y194.771 E19.31727
G1 X133.019 Y195.49 E19.34287
G1 X132.672 Y196.176 E19.36844
G1 X132.256 Y196.823 E19.39402
G1 X131.775 Y197.423 E19.4196
G1 X131.234 Y197.97 E19.44518
G1 X130.639 Y198.458 E19.47078
G1 X129.997 Y198.881 E19.49635
G1 X129.314 Y199.236 E19.52195
G1 X128.599 Y199.517 E19.5475
G1 X127.857 Y199.723 E19.57312
G1 X127.099 Y199.851 E19.59868
G1 X126.25 Y199.9 E19.62697
G1 X116.25 Y199.9 E19.95957
G1 X115.482 Y199.86 E19.98515
G1 X114.722 Y199.741 E20.01073
G1 X113.979 Y199.543 E20.03631
G1 X113.26 Y199.269 E20.0619
G1 X112.574 Y198.922 E20.08747
G1 X112.5 Y198.9 E20.09004
G1 X108.75 Y198.9 E20.21476
G1 X107.982 Y198.86 E20.24034
G1 X107.222 Y198.741 E20.26593
G1 X106.479 Y198.543 E20.2915
G1 X105.76 Y198.269 E20.31709
G1 X105.074 Y197.922 E20.34266
G1 X104.427 Y197.506 E20.36825
G1 X103.827 Y197.025 E20.39382
G1 X103.28 Y196.484 E20.41941
G1 X102.792 Y195.889 E20.44501
G1 X102.369 Y195.247 E20.47058
G1 X102.014 Y194.564 E20.49618
G1 X101.733 Y193.849 E20.52173
G1 X101.527 Y193.107 E20.54734
G1 X101.399 Y192.349 E20.57291
G1 X101.35 Y191.5 E20.6012
G1 X101.35 Y182.125 E20.91301
G1 X101.39 Y181.357 E20.93859
G1 X101.509 Y180.597 E20.96417
G1 X101.707 Y179.854 E20.98975
G1 X101.981 Y179.135 E21.01534
G1 X102.328 Y178.449 E21.04091
G1 X102.744 Y177.802 E21.06649
G1 X103.225 Y177.202 E21.09207
G1 X103.766 Y176.655 E21.11766
G1 X104.361 Y176.167 E21.14325
G1 X105.003 Y175.744 E21.16883
G1 X105.686 Y175.389 E21.19443
G1 X106.401 Y175.108 E21.21998
G1 X107.143 Y174.902 E21.24559
G1 X107.901 Y174.774 E21.27116
G1 X108.75 Y174.725 E21.29944
G1 X108.85 Y174.725 E21.30277
G1 X108.85 Y60.275 E25.10939
G1 X108.75 Y60.275 E25.11272
G1 X107.982 Y60.235 E25.1383
G1 X107.222 Y60.116 E25.16388
G1 X106.479 Y59.918 E25.18946
G1 X105.76 Y59.644 E25.21505
G1 X105.074 Y59.297 E25.24062
G1 X104.427 Y58.881 E25.2662
G1 X103.827 Y58.4 E25.29178
G1 X103.28 Y57.859 E25.31737
G1 X102.792 Y57.264 E25.34296
G1 X102.369 Y56.622 E25.36853
G1 X102.014 Y55.939 E25.39414
G1 X101.733 Y55.224 E25.41969
G1 X101.527 Y54.482 E25.4453
G1 X101.399 Y53.724 E25.47087
G1 X101.35 Y52.875 E25.49915
G1 X101.35 Y43.5 E25.81097
G1 X101.39 Y42.732 E25.83654
G1 X101.509 Y41.972 E25.86213
G1 X101.707 Y41.229 E25.88771
G1 X101.981 Y40.51 E25.9133
G0 F6000 X102.38 Y40.597
G1 F1200 X102.727 Y39.934 E25.93819
G1 X103.142 Y39.311 E25.96308
G1 X103.621 Y38.737 E25.98795
G1 X104.158 Y38.216 E26.01283
G1 X104.748 Y37.757 E26.0377
G1 X105.384 Y37.362 E26.0626
G1 X106.058 Y37.038 E26.08747
G1 X106.763 Y36.788 E26.11235
G1 X107.491 Y36.614 E26.13725
G1 X108.233 Y36.519 E26.16213
G1 X108.75 Y36.5 E26.17933
G1 X112.5 Y36.5 E26.30406
G1 X112.649 Y36.508 E26.30902
G1 X112.884 Y36.362 E26.31822
G1 X113.558 Y36.038 E26.3431
G1 X114.263 Y35.788 E26.36798
G1 X114.991 Y35.614 E26.39287
G1 X115.733 Y35.519 E26.41775
G1 X116.25 Y35.5 E26.43496
G1 X126.25 Y35.5 E26.76756
G1 X126.997 Y35.54 E26.79244
G1 X127.735 Y35.659 E26.8173
G1 X128.457 Y35.857 E26.8422
G1 X129.153 Y36.13 E26.86707
G1 X129.816 Y36.477 E26.89196
G1 X130.439 Y36.892 E26.91686
G1 X131.013 Y37.371 E26.94172
G1 X131.534 Y37.908 E26.96661
G1 X131.993 Y38.498 E26.99147
G1 X132.388 Y39.134 E27.01637
G1 X132.712 Y39.808 E27.04124
G1 X132.962 Y40.513 E27.06612
G1 X133.136 Y41.241 E27.09102
G1 X133.231 Y41.983 E27.1159
G1 X133.25 Y42.5 E27.13311
G1 X133.25 Y192.5 E32.12213
G1 X133.21 Y193.247 E32.14701
G1 X133.091 Y193.985 E32.17187
G1 X132.893 Y194.707 E32.19677
G1 X132.62 Y195.403 E32.22164
G1 X132.273 Y196.066 E32.24653
G1 X131.858 Y196.689 E32.27142
G1 X131.379 Y197.263 E32.29629
G1 X130.842 Y197.784 E32.32117
G1 X130.252 Y198.243 E32.34604
G1 X129.616 Y198.638 E32.37094
G1 X128.942 Y198.962 E32.39581
G1 X128.237 Y199.212 E32.42069
G1 X127.509 Y199.386 E32.44559
G1 X126.767 Y199.481 E32.47047
G1 X126.25 Y199.5 E32.48767
G1 X116.25 Y199.5 E32.82027
G1 X115.503 Y199.46 E32.84516
G1 X114.765 Y199.341 E32.87002
G1 X114.043 Y199.143 E32.89492
G1 X113.347 Y198.87 E32.91979
G1 X112.684 Y198.523 E32.94467
G1 X112.5 Y198.5 E32.95084
G1 X108.75 Y198.5 E33.07557
G1 X108.003 Y198.46 E33.10045
G1 X107.265 Y198.341 E33.12531
G1 X106.543 Y198.143 E33.15021
G1 X105.847 Y197.87 E33.17508
G1 X105.184 Y197.523 E33.19997
G1 X104.561 Y197.108 E33.22486
G1 X103.987 Y196.629 E33.24973
G1 X103.466 Y196.092 E33.27462
G1 X103.007 Y195.502 E33.29948
G1 X102.612 Y194.866 E33.32438
G1 X102.288 Y194.192 E33.34925
G1 X102.038 Y193.487 E33.37413
G1 X101.864 Y192.759 E33.39903
G1 X101.769 Y192.017 E33.42391
G1 X101.75 Y191.5 E33.44111
G1 X101.75 Y182.125 E33.75293
G1 X101.79 Y181.378 E33.77781
G1 X101.909 Y180.64 E33.80267
G1 X102.107 Y179.918 E33.82757
G1 X102.38 Y179.222 E33.85244
G1 X102.727 Y178.559 E33.87733
G1 X103.142 Y177.936 E33.90222
G1 X103.621 Y177.362 E33.92709
G1 X104.158 Y176.841 E33.95198
G1 X104.748 Y176.382 E33.97684
G1 X105.384 Y175.987 E34.00174
G1 X106.058 Y175.663 E34.02661
G1 X106.763 Y175.413 E34.05149
G1 X107.491 Y175.239 E34.07639
G1 X108.233 Y175.144 E34.10127
G1 X108.75 Y175.125 E34.11847
G1 X109.25 Y175.125 E34.1351
G1 X109.25 Y59.875 E37.96834
G1 X108.75 Y59.875 E37.98497
G1 X108.003 Y59.835 E38.00985
G1 X107.265 Y59.716 E38.03471
G1 X106.543 Y59.518 E38.05961
G1 X105.847 Y59.245 E38.08448
G1 X105.184 Y58.898 E38.10936
G1 X104.561 Y58.483 E38.13426
G1 X103.987 Y58.004 E38.15913
G1 X103.466 Y57.467 E38.18401
G1 X103.007 Y56.877 E38.20888
G1 X102.612 Y56.241 E38.23378
G1 X102.288 Y55.567 E38.25865
G1 X102.038 Y54.862 E38.28353
G1 X101.864 Y54.134 E38.30842
G1 X101.769 Y53.392 E38.3333
G1 X101.75 Y52.875 E38.35051
G1 X101.75 Y43.5 E38.66233
G1 X101.79 Y42.753 E38.68721
G1 X101.909 Y42.015 E38.71207
G1 X102.107 Y41.293 E38.73697
G1 X102.38 Y40.597 E38.76184
G0 F6000 X102.78 Y40.686
G1 F1200 X103.125 Y40.047 E38.78599
G1 X103.539 Y39.45 E38.81015
G1 X104.015 Y38.902 E38.8343
G1 X104.549 Y38.409 E38.85847
G1 X105.134 Y37.979 E38.88262
G1 X105.763 Y37.615 E38.90679
G1 X106.428 Y37.322 E38.93096
G1 X107.121 Y37.104 E38.95512
G1 X107.833 Y36.964 E38.97925
G1 X108.75 Y36.9 E39.00983
G1 X112.5 Y36.9 E39.13455
G1 X112.747 Y36.914 E39.14278
G1 X113.263 Y36.615 E39.16262
G1 X113.928 Y36.322 E39.18679
G1 X114.621 Y36.104 E39.21095
G1 X115.333 Y35.964 E39.23508
G1 X116.25 Y35.9 E39.26566
G1 X126.25 Y35.9 E39.59826
G1 X126.975 Y35.94 E39.62241
G1 X127.692 Y36.059 E39.64658
G1 X128.391 Y36.257 E39.67075
G1 X129.064 Y36.53 E39.6949
G1 X129.703 Y36.875 E39.71906
G1 X130.3 Y37.289 E39.74322
G1 X130.848 Y37.765 E39.76736
G1 X131.341 Y38.299 E39.79153
G1 X131.771 Y38.884 E39.81568
G1 X132.135 Y39.513 E39.83985
G1 X132.428 Y40.178 E39.86402
G1 X132.646 Y40.871 E39.88819
G1 X132.786 Y41.583 E39.91232
G1 X132.85 Y42.5 E39.94289
G1 X132.85 Y192.5 E44.93191
G1 X132.81 Y193.225 E44.95607
G1 X132.691 Y193.942 E44.98024
G1 X132.493 Y194.641 E45.0044
G1 X132.22 Y195.314 E45.02856
G1 X131.875 Y195.953 E45.05271
G1 X131.461 Y196.55 E45.07687
G1 X130.985 Y197.098 E45.10102
G1 X130.451 Y197.591 E45.12519
G1 X129.866 Y198.021 E45.14934
G1 X129.237 Y198.385 E45.17351
G1 X128.572 Y198.678 E45.19768
G1 X127.879 Y198.896 E45.22184
G1 X127.167 Y199.036 E45.24598
G1 X126.25 Y199.1 E45.27655
G1 X116.25 Y199.1 E45.60915
G1 X115.525 Y199.06 E45.6333
G1 X114.808 Y198.941 E45.65747
G1 X114.109 Y198.743 E45.68164
G1 X113.436 Y198.47 E45.70579
G1 X112.797 Y198.125 E45.72995
G1 X112.737 Y198.083 E45.73238
G1 X112.5 Y198.1 E45.74029
G1 X108.75 Y198.1 E45.86501
G1 X108.025 Y198.06 E45.88916
G1 X107.308 Y197.941 E45.91334
G1 X106.609 Y197.743 E45.9375
G1 X105.936 Y197.47 E45.96165
G1 X105.297 Y197.125 E45.98581
G1 X104.7 Y196.711 E46.00997
G1 X104.152 Y196.235 E46.03411
G1 X103.659 Y195.701 E46.05829
G1 X103.229 Y195.116 E46.08243
G1 X102.865 Y194.487 E46.10661
G1 X102.572 Y193.822 E46.13078
G1 X102.354 Y193.129 E46.15494
G1 X102.214 Y192.417 E46.17907
G1 X102.15 Y191.5 E46.20965
G1 X102.15 Y182.125 E46.52146
G1 X102.19 Y181.4 E46.54561
G1 X102.309 Y180.683 E46.56978
G1 X102.507 Y179.984 E46.59395
G1 X102.78 Y179.311 E46.6181
G1 X103.125 Y178.672 E46.64226
G1 X103.539 Y178.075 E46.66642
G1 X104.015 Y177.527 E46.69056
G1 X104.549 Y177.034 E46.71474
G1 X105.134 Y176.604 E46.73888
G1 X105.763 Y176.24 E46.76305
G1 X106.428 Y175.947 E46.78722
G1 X107.121 Y175.729 E46.81139
G1 X107.833 Y175.589 E46.83552
G1 X108.75 Y175.525 E46.8661
G1 X109.65 Y175.525 E46.89603
G1 X109.65 Y59.475 E50.75587
G1 X108.75 Y59.475 E50.7858
G1 X108.025 Y59.435 E50.80995
G1 X107.308 Y59.316 E50.83413
G1 X106.609 Y59.118 E50.85829
G1 X105.936 Y58.845 E50.88245
G1 X105.297 Y58.5 E50.9066
G1 X104.7 Y58.086 E50.93076
G1 X104.152 Y57.61 E50.9549
G1 X103.659 Y57.076 E50.97908
G1 X103.229 Y56.491 E51.00322
G1 X102.865 Y55.862 E51.0274
G1 X102.572 Y55.197 E51.05157
G1 X102.354 Y54.504 E51.07573
G1 X102.214 Y53.792 E51.09986
G1 X102.15 Y52.875 E51.13044
G1 X102.15 Y43.5 E51.44225
G1 X102.19 Y42.775 E51.4664
G1 X102.309 Y42.058 E51.49057
G1 X102.507 Y41.359 E51.51474
G1 X102.78 Y40.686 E51.53889
G0 F6000 X103.179 Y40.779
G1 F1200 X103.524 Y40.165 E51.56232
G1 X103.935 Y39.594 E51.58572
G1 X104.409 Y39.073 E51.60915
G1 X104.939 Y38.609 E51.63257
G1 X105.518 Y38.209 E51.65598
G1 X106.139 Y37.877 E51.6794
G1 X106.793 Y37.617 E51.70281
G1 X107.473 Y37.433 E51.72624
G1 X108.169 Y37.327 E51.74966
G1 X108.75 Y37.3 E51.769
G1 X112.5 Y37.3 E51.89373
G1 X112.857 Y37.32 E51.90562
G1 X113.018 Y37.209 E51.91212
G1 X113.639 Y36.877 E51.93554
G1 X114.293 Y36.617 E51.95895
G1 X114.973 Y36.433 E51.98238
G1 X115.669 Y36.327 E52.0058
G1 X116.25 Y36.3 E52.02514
G1 X126.25 Y36.3 E52.35774
G1 X126.953 Y36.34 E52.38116
G1 X127.647 Y36.459 E52.40458
G1 X128.322 Y36.657 E52.42798
G1 X128.971 Y36.929 E52.45139
G1 X129.585 Y37.274 E52.47481
G1 X130.156 Y37.685 E52.49821
G1 X130.677 Y38.159 E52.52164
G1 X131.141 Y38.689 E52.54507
G1 X131.541 Y39.268 E52.56847
G1 X131.873 Y39.889 E52.59189
G1 X132.133 Y40.543 E52.6153
G1 X132.317 Y41.223 E52.63873
G1 X132.423 Y41.919 E52.66215
G1 X132.45 Y42.5 E52.68149
G1 X132.45 Y192.5 E57.67051
G1 X132.41 Y193.203 E57.69393
G1 X132.291 Y193.897 E57.71735
G1 X132.093 Y194.572 E57.74075
G1 X131.821 Y195.221 E57.76415
G1 X131.476 Y195.835 E57.78758
G1 X131.065 Y196.406 E57.81098
G1 X130.591 Y196.927 E57.8344
G1 X130.061 Y197.391 E57.85783
G1 X129.482 Y197.791 E57.88124
G1 X128.861 Y198.123 E57.90466
G1 X128.207 Y198.383 E57.92807
G1 X127.527 Y198.567 E57.9515
G1 X126.831 Y198.673 E57.97491
G1 X126.25 Y198.7 E57.99426
G1 X116.25 Y198.7 E58.32686
G1 X115.547 Y198.66 E58.35028
G1 X114.853 Y198.541 E58.3737
G1 X114.178 Y198.343 E58.3971
G1 X113.529 Y198.071 E58.4205
G1 X112.915 Y197.726 E58.44393
G1 X112.856 Y197.683 E58.44635
G1 X112.5 Y197.7 E58.45821
G1 X108.75 Y197.7 E58.58293
G1 X108.047 Y197.66 E58.60635
