;FLAVOR:Marlin
;TIME:4103
;Filament used: 2.7147m
;Layer height: 0.2
;MINX:100.95
;MINY:34.7
;MINZ:0.2
;MAXX:134.05
;MAXY:200.3
;MAXZ:5.6
;Generated with Cura_SteamEngine 4.12.1
M140 S50
M105
M190 S50
M104 S200
M105
M109 S200
M82 ;absolute extrusion mode
; Ender 3 Custom Start G-code
G92 E0 ; Reset Extruder
G28 ; Home all axes
G1 Z2.0 F3000 ; Move Z Axis up little to prevent scratching of Heat Bed
G1 X0.1 Y20 Z0.3 F5000.0 ; Move to start position
G1 X0.1 Y200.0 Z0.3 F1500.0 E15 ; Draw the first line
G1 X0.4 Y200.0 Z0.3 F5000.0 ; Move to side a little
G1 X0.4 Y20 Z0.3 F1500.0 E30 ; Draw the second line
G92 E0 ; Reset Extruder
G1 Z2.0 F3000 ; Move Z Axis up little to prevent scratching of Heat Bed
G1 X5 Y20 Z0.3 F5000.0 ; Move over to prevent blob squish
G92 E0
G92 E0
G1 F2700 E-5
;LAYER_COUNT:28
;LAYER:0
M107
G0 F6000 X101.929 Y50.767 Z0.2
;TYPE:SKIRT
G1 F2700 E0
G1 F1200 X102.347 Y50.096 E0.02629
G1 X102.83 Y49.472 E0.05254
G1 X103.373 Y48.899 E0.0788
G1 X103.972 Y48.384 E0.10507
G1 X104.62 Y47.933 E0.13133
G1 X105.311 Y47.549 E0.15762
G1 X106.036 Y47.237 E0.18387
G1 X106.789 Y47 E0.21013
G1 X107.563 Y46.841 E0.23641
G1 X108.348 Y46.76 E0.26266
G1 X108.45 Y46.757 E0.26605
G1 X108.45 Y42.5 E0.40764
G1 X108.49 Y41.711 E0.43392
G1 X108.609 Y40.931 E0.46016
G1 X108.807 Y40.166 E0.48644
G1 X109.081 Y39.426 E0.51269
G1 X109.429 Y38.717 E0.53896
G1 X109.847 Y38.046 E0.56525
G1 X110.33 Y37.422 E0.59149
G1 X110.873 Y36.849 E0.61775
G1 X111.472 Y36.334 E0.64402
G1 X112.12 Y35.883 E0.67028
G1 X112.811 Y35.499 E0.69658
G1 X113.536 Y35.187 E0.72283
G1 X114.289 Y34.95 E0.74908
G1 X115.063 Y34.791 E0.77537
G1 X115.848 Y34.71 E0.80161
G1 X116.25 Y34.7 E0.81499
G1 X126.25 Y34.7 E1.14759
G1 X127.039 Y34.74 E1.17387
G1 X127.819 Y34.859 E1.20011
G1 X128.584 Y35.057 E1.22639
G1 X129.324 Y35.331 E1.25264
G1 X130.033 Y35.679 E1.27891
G1 X130.704 Y36.097 E1.3052
G1 X131.328 Y36.58 E1.33144
G1 X131.901 Y37.123 E1.3577
G1 X132.416 Y37.722 E1.38397
G1 X132.867 Y38.37 E1.41023
G1 X133.251 Y39.061 E1.43653
G1 X133.563 Y39.786 E1.46278
G1 X133.8 Y40.539 E1.48903
G1 X133.959 Y41.313 E1.51531
G1 X134.04 Y42.098 E1.54156
G1 X134.05 Y42.5 E1.55494
G1 X134.05 Y192.5 E6.54396
G1 X134.01 Y193.289 E6.57023
G1 X133.891 Y194.069 E6.59648
G1 X133.693 Y194.834 E6.62276
G1 X133.419 Y195.574 E6.649
G1 X133.071 Y196.283 E6.67527
G1 X132.653 Y196.954 E6.70157
G1 X132.17 Y197.578 E6.72781
G1 X131.627 Y198.151 E6.75407
G1 X131.028 Y198.666 E6.78034
G1 X130.38 Y199.117 E6.8066
G1 X129.689 Y199.501 E6.83289
G1 X128.964 Y199.813 E6.85915
G1 X128.211 Y200.05 E6.8854
G1 X127.437 Y200.209 E6.91168
G1 X126.652 Y200.29 E6.93793
G1 X126.25 Y200.3 E6.95131
G1 X116.25 Y200.3 E7.28391
G1 X115.461 Y200.26 E7.31018
G1 X114.681 Y200.141 E7.33643
G1 X113.916 Y199.943 E7.36271
G1 X113.176 Y199.669 E7.38895
G1 X112.467 Y199.321 E7.41522
G1 X111.796 Y198.903 E7.44152
G1 X111.172 Y198.42 E7.46776
G1 X110.599 Y197.877 E7.49402
G1 X110.084 Y197.278 E7.52029
G1 X109.633 Y196.63 E7.54655
G1 X109.249 Y195.939 E7.57284
G1 X108.937 Y195.214 E7.5991
G1 X108.7 Y194.461 E7.62535
G1 X108.541 Y193.687 E7.65163
G1 X108.46 Y192.902 E7.67788
G1 X108.45 Y192.5 E7.69125
G1 X108.45 Y188.235 E7.83311
G1 X107.961 Y188.21 E7.84939
G1 X107.181 Y188.091 E7.87564
G1 X106.416 Y187.893 E7.90192
G1 X105.676 Y187.619 E7.92817
G1 X104.967 Y187.271 E7.95443
G1 X104.296 Y186.853 E7.98073
G1 X103.672 Y186.37 E8.00697
G1 X103.099 Y185.827 E8.03323
G1 X102.584 Y185.228 E8.0595
G1 X102.133 Y184.58 E8.08576
G1 X101.749 Y183.889 E8.11206
G1 X101.437 Y183.164 E8.13831
G1 X101.2 Y182.411 E8.16456
G1 X101.041 Y181.637 E8.19084
G1 X100.96 Y180.852 E8.21709
G1 X100.95 Y180.45 E8.23047
G1 X100.95 Y172.45 E8.49655
G1 X100.99 Y171.661 E8.52282
G1 X101.109 Y170.881 E8.54907
G1 X101.307 Y170.116 E8.57535
G1 X101.581 Y169.376 E8.60159
G1 X101.929 Y168.667 E8.62786
G1 X102.347 Y167.996 E8.65416
G1 X102.83 Y167.372 E8.6804
G1 X103.373 Y166.799 E8.70666
G1 X103.972 Y166.284 E8.73293
G1 X104.62 Y165.833 E8.75919
G1 X105.311 Y165.449 E8.78548
G1 X106.036 Y165.137 E8.81174
G1 X106.789 Y164.9 E8.83799
G1 X107.563 Y164.741 E8.86427
G1 X108.348 Y164.66 E8.89052
G1 X108.45 Y164.657 E8.89392
G1 X108.45 Y70.335 E12.03108
G1 X107.961 Y70.31 E12.04736
G1 X107.181 Y70.191 E12.07361
G1 X106.416 Y69.993 E12.09989
G1 X105.676 Y69.719 E12.12613
G1 X104.967 Y69.371 E12.1524
G1 X104.296 Y68.953 E12.1787
G1 X103.672 Y68.47 E12.20494
G1 X103.099 Y67.927 E12.2312
G1 X102.584 Y67.328 E12.25747
G1 X102.133 Y66.68 E12.28373
G1 X101.749 Y65.989 E12.31002
G1 X101.437 Y65.264 E12.33628
G1 X101.2 Y64.511 E12.36253
G1 X101.041 Y63.737 E12.38881
G1 X100.96 Y62.952 E12.41506
G1 X100.95 Y62.55 E12.42844
G1 X100.95 Y54.55 E12.69452
G1 X100.99 Y53.761 E12.72079
G1 X101.109 Y52.981 E12.74704
G1 X101.307 Y52.216 E12.77332
G1 X101.581 Y51.476 E12.79956
G1 X101.929 Y50.767 E12.82583
G0 F6000 X102.328 Y50.874
G1 F1200 X102.744 Y50.227 E12.85142
G1 X103.225 Y49.627 E12.87699
G1 X103.766 Y49.08 E12.90258
G1 X104.361 Y48.592 E12.92818
G1 X105.003 Y48.169 E12.95375
G1 X105.686 Y47.814 E12.97935
G1 X106.401 Y47.533 E13.0049
G1 X107.143 Y47.327 E13.03051
G1 X107.901 Y47.199 E13.05608
G1 X108.75 Y47.15 E13.08437
G1 X108.85 Y47.15 E13.08769
G1 X108.85 Y42.5 E13.24235
G1 X108.89 Y41.732 E13.26793
G1 X109.009 Y40.972 E13.29352
G1 X109.207 Y40.229 E13.31909
G1 X109.481 Y39.51 E13.34468
G1 X109.828 Y38.824 E13.37025
G1 X110.244 Y38.177 E13.39584
G1 X110.725 Y37.577 E13.42141
G1 X111.266 Y37.03 E13.447
G1 X111.861 Y36.542 E13.4726
G1 X112.503 Y36.119 E13.49817
G1 X113.186 Y35.764 E13.52377
G1 X113.901 Y35.483 E13.54932
G1 X114.643 Y35.277 E13.57493
G1 X115.401 Y35.149 E13.6005
G1 X116.25 Y35.1 E13.62879
G1 X126.25 Y35.1 E13.96139
G1 X127.018 Y35.14 E13.98697
G1 X127.778 Y35.259 E14.01255
G1 X128.521 Y35.457 E14.03813
G1 X129.24 Y35.731 E14.06372
G1 X129.926 Y36.078 E14.08929
G1 X130.573 Y36.494 E14.11487
G1 X131.173 Y36.975 E14.14045
G1 X131.72 Y37.516 E14.16604
G1 X132.208 Y38.111 E14.19163
G1 X132.631 Y38.753 E14.2172
G1 X132.986 Y39.436 E14.2428
G1 X133.267 Y40.151 E14.26836
G1 X133.473 Y40.893 E14.29397
G1 X133.601 Y41.651 E14.31954
G1 X133.65 Y42.5 E14.34782
G1 X133.65 Y192.5 E19.33684
G1 X133.61 Y193.268 E19.36242
G1 X133.491 Y194.028 E19.388
G1 X133.293 Y194.771 E19.41358
G1 X133.019 Y195.49 E19.43917
G1 X132.672 Y196.176 E19.46474
G1 X132.256 Y196.823 E19.49032
G1 X131.775 Y197.423 E19.5159
G1 X131.234 Y197.97 E19.54149
G1 X130.639 Y198.458 E19.56708
G1 X129.997 Y198.881 E19.59266
G1 X129.314 Y199.236 E19.61826
G1 X128.599 Y199.517 E19.64381
G1 X127.857 Y199.723 E19.66942
G1 X127.099 Y199.851 E19.69499
G1 X126.25 Y199.9 E19.72327
G1 X116.25 Y199.9 E20.05588
G1 X115.482 Y199.86 E20.08145
G1 X114.722 Y199.741 E20.10704
G1 X113.979 Y199.543 E20.13261
G1 X113.26 Y199.269 E20.15821
G1 X112.574 Y198.922 E20.18378
G1 X111.927 Y198.506 E20.20936
G1 X111.327 Y198.025 E20.23494
G1 X110.78 Y197.484 E20.26052
G1 X110.292 Y196.889 E20.28612
G1 X109.869 Y196.247 E20.31169
G1 X109.514 Y195.564 E20.33729
G1 X109.233 Y194.849 E20.36284
G1 X109.027 Y194.107 E20.38846
G1 X108.899 Y193.349 E20.41402
G1 X108.85 Y192.5 E20.44231
G1 X108.85 Y187.85 E20.59697
G1 X108.75 Y187.85 E20.6003
G1 X107.982 Y187.81 E20.62587
G1 X107.222 Y187.691 E20.65146
G1 X106.479 Y187.493 E20.67703
G1 X105.76 Y187.219 E20.70263
G1 X105.074 Y186.872 E20.72819
G1 X104.427 Y186.456 E20.75378
G1 X103.827 Y185.975 E20.77936
G1 X103.28 Y185.434 E20.80494
G1 X102.792 Y184.839 E20.83054
G1 X102.369 Y184.197 E20.85611
G1 X102.014 Y183.514 E20.88171
G1 X101.733 Y182.799 E20.90726
G1 X101.527 Y182.057 E20.93288
G1 X101.399 Y181.299 E20.95844
G1 X101.35 Y180.45 E20.98673
G1 X101.35 Y172.45 E21.25281
G1 X101.39 Y171.682 E21.27839
G1 X101.509 Y170.922 E21.30397
G1 X101.707 Y170.179 E21.32955
G1 X101.981 Y169.46 E21.35514
G1 X102.328 Y168.774 E21.38071
G1 X102.744 Y168.127 E21.40629
G1 X103.225 Y167.527 E21.43187
G1 X103.766 Y166.98 E21.45746
G1 X104.361 Y166.492 E21.48305
G1 X105.003 Y166.069 E21.50862
G1 X105.686 Y165.714 E21.53423
G1 X106.401 Y165.433 E21.55978
G1 X107.143 Y165.227 E21.58539
G1 X107.901 Y165.099 E21.61096
G1 X108.75 Y165.05 E21.63924
G1 X108.85 Y165.05 E21.64257
G1 X108.85 Y69.95 E24.80561
G1 X108.75 Y69.95 E24.80893
G1 X107.982 Y69.91 E24.83451
G1 X107.222 Y69.791 E24.8601
G1 X106.479 Y69.593 E24.88567
G1 X105.76 Y69.319 E24.91126
G1 X105.074 Y68.972 E24.93683
G1 X104.427 Y68.556 E24.96242
G1 X103.827 Y68.075 E24.98799
G1 X103.28 Y67.534 E25.01358
G1 X102.792 Y66.939 E25.03918
G1 X102.369 Y66.297 E25.06475
G1 X102.014 Y65.614 E25.09035
G1 X101.733 Y64.899 E25.1159
G1 X101.527 Y64.157 E25.14152
G1 X101.399 Y63.399 E25.16708
G1 X101.35 Y62.55 E25.19537
G1 X101.35 Y54.55 E25.46145
G1 X101.39 Y53.782 E25.48703
G1 X101.509 Y53.022 E25.51261
G1 X101.707 Y52.279 E25.53819
G1 X101.981 Y51.56 E25.56378
G1 X102.328 Y50.874 E25.58935
G0 F6000 X102.727 Y50.984
G1 F1200 X103.142 Y50.361 E25.61425
G1 X103.621 Y49.787 E25.63911
G1 X104.158 Y49.266 E25.664
G1 X104.748 Y48.807 E25.68886
G1 X105.384 Y48.412 E25.71376
G1 X106.058 Y48.088 E25.73863
G1 X106.763 Y47.838 E25.76351
G1 X107.491 Y47.664 E25.78841
G1 X108.233 Y47.569 E25.81329
G1 X108.75 Y47.55 E25.8305
G1 X109.25 Y47.55 E25.84713
G1 X109.25 Y42.5 E26.01509
G1 X109.29 Y41.753 E26.03997
G1 X109.409 Y41.015 E26.06483
G1 X109.607 Y40.293 E26.08973
G1 X109.88 Y39.597 E26.1146
G1 X110.227 Y38.934 E26.13949
G1 X110.642 Y38.311 E26.16439
G1 X111.121 Y37.737 E26.18925
G1 X111.658 Y37.216 E26.21414
G1 X112.248 Y36.757 E26.239
G1 X112.884 Y36.362 E26.2639
G1 X113.558 Y36.038 E26.28877
G1 X114.263 Y35.788 E26.31365
G1 X114.991 Y35.614 E26.33855
G1 X115.733 Y35.519 E26.36343
G1 X116.25 Y35.5 E26.38064
G1 X126.25 Y35.5 E26.71324
G1 X126.997 Y35.54 E26.73812
G1 X127.735 Y35.659 E26.76298
G1 X128.457 Y35.857 E26.78788
G1 X129.153 Y36.13 E26.81275
G1 X129.816 Y36.477 E26.83764
G1 X130.439 Y36.892 E26.86254
G1 X131.013 Y37.371 E26.8874
G1 X131.534 Y37.908 E26.91229
G1 X131.993 Y38.498 E26.93715
G1 X132.388 Y39.134 E26.96205
G1 X132.712 Y39.808 E26.98692
G1 X132.962 Y40.513 E27.0118
G1 X133.136 Y41.241 E27.0367
G1 X133.231 Y41.983 E27.06158
G1 X133.25 Y42.5 E27.07878
G1 X133.25 Y192.5 E32.0678
G1 X133.21 Y193.247 E32.09269
G1 X133.091 Y193.985 E32.11755
G1 X132.893 Y194.707 E32.14245
G1 X132.62 Y195.403 E32.16732
G1 X132.273 Y196.066 E32.1922
G1 X131.858 Y196.689 E32.2171
G1 X131.379 Y197.263 E32.24197
G1 X130.842 Y197.784 E32.26685
G1 X130.252 Y198.243 E32.29172
G1 X129.616 Y198.638 E32.31662
G1 X128.942 Y198.962 E32.34149
G1 X128.237 Y199.212 E32.36637
G1 X127.509 Y199.386 E32.39126
G1 X126.767 Y199.481 E32.41614
G1 X126.25 Y199.5 E32.43335
G1 X116.25 Y199.5 E32.76595
G1 X115.503 Y199.46 E32.79083
G1 X114.765 Y199.341 E32.8157
G1 X114.043 Y199.143 E32.8406
G1 X113.347 Y198.87 E32.86546
G1 X112.684 Y198.523 E32.89035
G1 X112.061 Y198.108 E32.91525
G1 X111.487 Y197.629 E32.94012
G1 X110.966 Y197.092 E32.965
G1 X110.507 Y196.502 E32.98986
G1 X110.112 Y195.866 E33.01476
G1 X109.788 Y195.192 E33.03964
G1 X109.538 Y194.487 E33.06452
G1 X109.364 Y193.759 E33.08941
G1 X109.269 Y193.017 E33.11429
G1 X109.25 Y192.5 E33.1315
G1 X109.25 Y187.45 E33.29946
G1 X108.75 Y187.45 E33.31609
G1 X108.003 Y187.41 E33.34097
G1 X107.265 Y187.291 E33.36584
G1 X106.543 Y187.093 E33.39074
G1 X105.847 Y186.82 E33.4156
G1 X105.184 Y186.473 E33.44049
G1 X104.561 Y186.058 E33.46539
G1 X103.987 Y185.579 E33.49026
G1 X103.466 Y185.042 E33.51514
G1 X103.007 Y184.452 E33.54
G1 X102.612 Y183.816 E33.56491
G1 X102.288 Y183.142 E33.58978
G1 X102.038 Y182.437 E33.61466
G1 X101.864 Y181.709 E33.63955
G1 X101.769 Y180.967 E33.66443
G1 X101.75 Y180.45 E33.68164
G1 X101.75 Y172.45 E33.94772
G1 X101.79 Y171.703 E33.9726
G1 X101.909 Y170.965 E33.99747
G1 X102.107 Y170.243 E34.02237
G1 X102.38 Y169.547 E34.04723
G1 X102.727 Y168.884 E34.07212
G1 X103.142 Y168.261 E34.09702
G1 X103.621 Y167.687 E34.12188
G1 X104.158 Y167.166 E34.14677
G1 X104.748 Y166.707 E34.17163
G1 X105.384 Y166.312 E34.19653
G1 X106.058 Y165.988 E34.22141
G1 X106.763 Y165.738 E34.24629
G1 X107.491 Y165.564 E34.27118
G1 X108.233 Y165.469 E34.29606
G1 X108.75 Y165.45 E34.31327
G1 X109.25 Y165.45 E34.3299
G1 X109.25 Y69.55 E37.51954
G1 X108.75 Y69.55 E37.53618
G1 X108.003 Y69.51 E37.56106
G1 X107.265 Y69.391 E37.58592
G1 X106.543 Y69.193 E37.61082
G1 X105.847 Y68.92 E37.63569
G1 X105.184 Y68.573 E37.66057
G1 X104.561 Y68.158 E37.68547
G1 X103.987 Y67.679 E37.71034
G1 X103.466 Y67.142 E37.73522
G1 X103.007 Y66.552 E37.76009
G1 X102.612 Y65.916 E37.78499
G1 X102.288 Y65.242 E37.80986
G1 X102.038 Y64.537 E37.83474
G1 X101.864 Y63.809 E37.85963
G1 X101.769 Y63.067 E37.88451
G1 X101.75 Y62.55 E37.90172
G1 X101.75 Y54.55 E38.1678
G1 X101.79 Y53.803 E38.19268
G1 X101.909 Y53.065 E38.21755
G1 X102.107 Y52.343 E38.24245
G1 X102.38 Y51.647 E38.26731
G1 X102.727 Y50.984 E38.2922
G0 F6000 X103.125 Y51.097
G1 F1200 X103.539 Y50.5 E38.31637
G1 X104.015 Y49.952 E38.34051
G1 X104.549 Y49.459 E38.36468
G1 X105.134 Y49.029 E38.38883
G1 X105.763 Y48.665 E38.413
G1 X106.428 Y48.372 E38.43717
G1 X107.121 Y48.154 E38.46133
G1 X107.833 Y48.014 E38.48547
G1 X108.75 Y47.95 E38.51604
G1 X109.65 Y47.95 E38.54598
G1 X109.65 Y42.5 E38.72724
G1 X109.69 Y41.775 E38.75139
G1 X109.809 Y41.058 E38.77557
G1 X110.007 Y40.359 E38.79973
G1 X110.28 Y39.686 E38.82389
G1 X110.625 Y39.047 E38.84804
G1 X111.039 Y38.45 E38.8722
G1 X111.515 Y37.902 E38.89635
G1 X112.049 Y37.409 E38.92052
G1 X112.634 Y36.979 E38.94467
G1 X113.263 Y36.615 E38.96884
G1 X113.928 Y36.322 E38.99301
G1 X114.621 Y36.104 E39.01717
G1 X115.333 Y35.964 E39.0413
G1 X116.25 Y35.9 E39.07188
G1 X126.25 Y35.9 E39.40448
G1 X126.975 Y35.94 E39.42863
G1 X127.692 Y36.059 E39.4528
G1 X128.391 Y36.257 E39.47697
G1 X129.064 Y36.53 E39.50112
G1 X129.703 Y36.875 E39.52528
G1 X130.3 Y37.289 E39.54944
G1 X130.848 Y37.765 E39.57358
G1 X131.341 Y38.299 E39.59775
G1 X131.771 Y38.884 E39.6219
G1 X132.135 Y39.513 E39.64607
G1 X132.428 Y40.178 E39.67024
G1 X132.646 Y40.871 E39.69441
G1 X132.786 Y41.583 E39.71854
G1 X132.85 Y42.5 E39.74911
G1 X132.85 Y192.5 E44.73813
G1 X132.81 Y193.225 E44.76228
G1 X132.691 Y193.942 E44.78646
G1 X132.493 Y194.641 E44.81062
G1 X132.22 Y195.314 E44.83478
G1 X131.875 Y195.953 E44.85893
G1 X131.461 Y196.55 E44.88309
G1 X130.985 Y197.098 E44.90724
G1 X130.451 Y197.591 E44.93141
G1 X129.866 Y198.021 E44.95556
G1 X129.237 Y198.385 E44.97973
G1 X128.572 Y198.678 E45.0039
G1 X127.879 Y198.896 E45.02806
G1 X127.167 Y199.036 E45.0522
G1 X126.25 Y199.1 E45.08277
G1 X116.25 Y199.1 E45.41537
G1 X115.525 Y199.06 E45.43952
G1 X114.808 Y198.941 E45.46369
G1 X114.109 Y198.743 E45.48786
G1 X113.436 Y198.47 E45.51201
G1 X112.797 Y198.125 E45.53617
G1 X112.2 Y197.711 E45.56033
G1 X111.652 Y197.235 E45.58447
G1 X111.159 Y196.701 E45.60865
G1 X110.729 Y196.116 E45.63279
G1 X110.365 Y195.487 E45.65696
G1 X110.072 Y194.822 E45.68113
G1 X109.854 Y194.129 E45.7053
G1 X109.714 Y193.417 E45.72943
G1 X109.65 Y192.5 E45.76001
G1 X109.65 Y187.05 E45.94127
G1 X108.75 Y187.05 E45.97121
G1 X108.025 Y187.01 E45.99536
G1 X107.308 Y186.891 E46.01953
G1 X106.609 Y186.693 E46.04369
G1 X105.936 Y186.42 E46.06785
G1 X105.297 Y186.075 E46.092
G1 X104.7 Y185.661 E46.11617
G1 X104.152 Y185.185 E46.14031
G1 X103.659 Y184.651 E46.16448
G1 X103.229 Y184.066 E46.18863
G1 X102.865 Y183.437 E46.2128
G1 X102.572 Y182.772 E46.23697
G1 X102.354 Y182.079 E46.26113
G1 X102.214 Y181.367 E46.28527
G1 X102.15 Y180.45 E46.31584
G1 X102.15 Y172.45 E46.58192
G1 X102.19 Y171.725 E46.60607
G1 X102.309 Y171.008 E46.63025
G1 X102.507 Y170.309 E46.65441
G1 X102.78 Y169.636 E46.67857
G1 X103.125 Y168.997 E46.70272
G1 X103.539 Y168.4 E46.72688
G1 X104.015 Y167.852 E46.75103
G1 X104.549 Y167.359 E46.7752
G1 X105.134 Y166.929 E46.79935
G1 X105.763 Y166.565 E46.82352
G1 X106.428 Y166.272 E46.84769
G1 X107.121 Y166.054 E46.87185
G1 X107.833 Y165.914 E46.89598
G1 X108.75 Y165.85 E46.92656
G1 X109.65 Y165.85 E46.95649
G1 X109.65 Y69.15 E50.17275
G1 X108.75 Y69.15 E50.20268
G1 X108.025 Y69.11 E50.22683
G1 X107.308 Y68.991 E50.25101
G1 X106.609 Y68.793 E50.27517
