;FLAVOR:Marlin
;TIME:2978
;Filament used: 2.00235m
;Layer height: 0.2
;MINX:105.25
;MINY:39
;MINZ:0.2
;MAXX:144.75
;MAXY:211
;MAXZ:5.6
;Generated with Cura_SteamEngine 4.12.1
M140 S50
M105
M190 S50
M104 S200
M105
M109 S200
M82 ;absolute extrusion mode
; Ender 3 Custom Start G-code
G92 E0 ; Reset Extruder
G28 ; Home all axes
G1 Z2.0 F3000 ; Move Z Axis up little to prevent scratching of Heat Bed
G1 X0.1 Y20 Z0.3 F5000.0 ; Move to start position
G1 X0.1 Y200.0 Z0.3 F1500.0 E15 ; Draw the first line
G1 X0.4 Y200.0 Z0.3 F5000.0 ; Move to side a little
G1 X0.4 Y20 Z0.3 F1500.0 E30 ; Draw the second line
G92 E0 ; Reset Extruder
G1 Z2.0 F3000 ; Move Z Axis up little to prevent scratching of Heat Bed
G1 X5 Y20 Z0.3 F5000.0 ; Move over to prevent blob squish
G92 E0
G92 E0
G1 F2700 E-5
;LAYER_COUNT:28
;LAYER:0
M107
G0 F6000 X106.306 Y46.074 Z0.2
;TYPE:SKIRT
G1 F2700 E0
G1 F1200 X106.742 Y45.243 E0.03121
G1 X107.246 Y44.453 E0.06238
G1 X107.816 Y43.708 E0.09358
G1 X108.447 Y43.014 E0.12478
G1 X109.136 Y42.377 E0.15599
G1 X109.875 Y41.801 E0.18715
G1 X110.662 Y41.29 E0.21836
G1 X111.489 Y40.847 E0.24956
G1 X112.35 Y40.477 E0.28073
G1 X113.24 Y40.181 E0.31193
G1 X114.152 Y39.963 E0.34312
G1 X115.315 Y39.8 E0.38218
G1 X115.892 Y39.751 E0.40144
G1 X117.685 Y39.623 E0.46122
G1 X120.168 Y39.374 E0.54422
G1 X121.858 Y39.156 E0.6009
G1 X122.508 Y39.081 E0.62266
G1 X123.451 Y39.013 E0.65411
G1 X123.77 Y39.004 E0.66472
G1 X124.08 Y39 E0.67503
G1 X133.043 Y39 E0.97314
G1 X133.899 Y39.011 E1.00161
G1 X134.835 Y39.065 E1.0328
G1 X135.763 Y39.197 E1.06397
G1 X136.677 Y39.409 E1.09518
G1 X137.569 Y39.698 E1.12637
G1 X138.434 Y40.061 E1.15757
G1 X139.264 Y40.497 E1.18875
G1 X140.055 Y41.002 E1.21996
G1 X140.799 Y41.573 E1.25116
G1 X141.492 Y42.205 E1.28235
G1 X142.129 Y42.893 E1.31354
G1 X142.704 Y43.634 E1.34473
G1 X143.215 Y44.42 E1.37591
G1 X143.657 Y45.248 E1.40713
G1 X144.026 Y46.11 E1.43832
G1 X144.321 Y47 E1.4695
G1 X144.539 Y47.912 E1.50069
G1 X144.679 Y48.84 E1.53191
G1 X144.736 Y49.693 E1.56034
G1 X144.745 Y50.005 E1.57072
G1 X144.75 Y50.322 E1.58127
G1 X144.749 Y199.4 E6.53962
G1 X144.74 Y200.127 E6.5638
G1 X144.689 Y201.064 E6.59501
G1 X144.557 Y201.992 E6.62619
G1 X144.348 Y202.906 E6.65737
G1 X144.061 Y203.799 E6.68857
G1 X143.699 Y204.665 E6.71979
G1 X143.265 Y205.496 E6.75097
G1 X142.761 Y206.287 E6.78217
G1 X142.192 Y207.032 E6.81335
G1 X141.561 Y207.727 E6.84457
G1 X140.874 Y208.365 E6.87575
G1 X140.135 Y208.942 E6.90694
G1 X139.349 Y209.454 E6.93814
G1 X138.523 Y209.897 E6.96931
G1 X137.661 Y210.269 E7.00054
G1 X136.772 Y210.565 E7.0317
G1 X135.86 Y210.785 E7.0629
G1 X134.933 Y210.926 E7.09409
G1 X134.049 Y210.987 E7.12356
G1 X133.728 Y210.996 E7.13424
G1 X133.42 Y211 E7.14449
G1 X124.299 Y210.999 E7.44785
G1 X123.602 Y210.989 E7.47104
G1 X122.974 Y210.962 E7.49194
G1 X122.338 Y210.899 E7.5132
G1 X121.435 Y210.784 E7.54348
G1 X118.803 Y210.485 E7.63158
G1 X116.273 Y210.269 E7.71604
G1 X115.473 Y210.212 E7.74271
G1 X114.542 Y210.105 E7.77388
G1 X113.622 Y209.919 E7.8051
G1 X112.722 Y209.656 E7.83629
G1 X111.848 Y209.317 E7.86746
G1 X111.006 Y208.904 E7.89866
G1 X110.201 Y208.422 E7.92986
G1 X109.441 Y207.872 E7.96107
G1 X108.731 Y207.26 E7.99224
G1 X108.075 Y206.59 E8.02343
G1 X107.479 Y205.866 E8.05462
G1 X106.946 Y205.094 E8.08582
G1 X106.481 Y204.279 E8.11703
G1 X106.087 Y203.428 E8.14822
G1 X105.768 Y202.546 E8.17942
G1 X105.524 Y201.641 E8.21059
G1 X105.359 Y200.718 E8.24178
G1 X105.263 Y199.538 E8.28116
G1 X105.254 Y199.206 E8.2922
G1 X105.25 Y198.908 E8.30211
G1 X105.251 Y192.411 E8.51821
G1 X105.262 Y191.702 E8.54179
G1 X105.317 Y190.766 E8.57297
G1 X105.451 Y189.838 E8.60416
G1 X105.664 Y188.924 E8.63537
G1 X106.054 Y187.773 E8.67579
G1 X106.303 Y187.153 E8.69802
G1 X107.246 Y184.706 E8.78524
G1 X108.08 Y182.344 E8.86855
G1 X108.854 Y179.938 E8.95262
G1 X109.551 Y177.54 E9.03567
G1 X110.19 Y175.081 E9.12018
G1 X110.761 Y172.611 E9.2045
G1 X111.247 Y170.177 E9.28705
G1 X111.674 Y167.685 E9.37114
G1 X112.028 Y165.198 E9.45469
G1 X112.315 Y162.677 E9.53908
G1 X112.527 Y160.184 E9.6223
G1 X112.668 Y157.7 E9.70505
G1 X112.741 Y155.112 E9.79116
G1 X112.75 Y153.818 E9.8342
G1 X112.75 Y96.187 E11.75102
G1 X112.713 Y93.578 E11.8378
G1 X112.606 Y91.057 E11.92173
G1 X112.429 Y88.562 E12.00492
G1 X112.181 Y86.063 E12.08844
G1 X111.863 Y83.574 E12.1719
G1 X111.469 Y81.065 E12.25637
G1 X111.01 Y78.599 E12.3398
G1 X110.476 Y76.116 E12.42428
G1 X109.889 Y73.721 E12.50629
G1 X109.211 Y71.255 E12.59135
G1 X108.482 Y68.875 E12.67414
G1 X107.671 Y66.472 E12.7585
G1 X106.791 Y64.084 E12.84314
G1 X106.277 Y62.804 E12.88902
G1 X105.991 Y62.06 E12.91553
G1 X105.693 Y61.171 E12.94672
G1 X105.471 Y60.26 E12.9779
G1 X105.327 Y59.333 E13.00911
G1 X105.263 Y58.424 E13.03941
G1 X105.254 Y58.106 E13.04999
G1 X105.25 Y57.795 E13.06034
G1 X105.251 Y51.276 E13.27716
G1 X105.26 Y50.61 E13.29932
G1 X105.313 Y49.674 E13.3305
G1 X105.445 Y48.745 E13.36171
G1 X105.656 Y47.832 E13.39287
G1 X105.944 Y46.939 E13.42408
G1 X106.306 Y46.074 E13.45527
G0 F6000 X106.705 Y46.168
G1 F1200 X107.139 Y45.357 E13.48586
G1 X107.642 Y44.586 E13.51648
G1 X108.21 Y43.861 E13.54711
G1 X108.839 Y43.189 E13.57773
G1 X109.524 Y42.573 E13.60837
G1 X110.26 Y42.02 E13.63899
G1 X111.041 Y41.532 E13.66962
G1 X111.861 Y41.114 E13.70023
G1 X112.715 Y40.769 E13.73086
G1 X113.595 Y40.499 E13.76148
G1 X114.495 Y40.307 E13.79209
G1 X115.349 Y40.198 E13.82072
G1 X115.92 Y40.15 E13.83978
G1 X117.72 Y40.021 E13.8998
G1 X120.222 Y39.77 E13.98344
G1 X122.056 Y39.535 E14.04493
G1 X122.553 Y39.478 E14.06157
G1 X123.462 Y39.413 E14.09188
G1 X123.781 Y39.404 E14.1025
G1 X124.08 Y39.4 E14.11244
G1 X133.043 Y39.4 E14.41055
G1 X133.893 Y39.411 E14.43883
G1 X134.812 Y39.464 E14.46944
G1 X135.723 Y39.597 E14.50007
G1 X136.619 Y39.808 E14.53068
G1 X137.493 Y40.096 E14.56129
G1 X138.34 Y40.459 E14.59194
G1 X139.151 Y40.894 E14.62255
G1 X139.921 Y41.398 E14.65316
G1 X140.645 Y41.967 E14.68378
G1 X141.317 Y42.597 E14.71442
G1 X141.932 Y43.282 E14.74504
G1 X142.485 Y44.018 E14.77566
G1 X142.972 Y44.799 E14.80627
G1 X143.389 Y45.62 E14.8369
G1 X143.734 Y46.474 E14.86753
G1 X144.003 Y47.354 E14.89814
G1 X144.195 Y48.255 E14.92878
G1 X144.308 Y49.168 E14.95938
G1 X144.337 Y49.704 E14.97723
G1 X144.346 Y50.016 E14.98761
G1 X144.35 Y50.322 E14.99779
G1 X144.349 Y199.395 E19.95598
G1 X144.34 Y200.122 E19.98016
G1 X144.289 Y201.041 E20.01077
G1 X144.158 Y201.953 E20.04142
G1 X143.948 Y202.849 E20.07203
G1 X143.662 Y203.724 E20.10264
G1 X143.301 Y204.571 E20.13327
G1 X142.867 Y205.383 E20.16389
G1 X142.365 Y206.155 E20.19452
G1 X141.797 Y206.88 E20.22515
G1 X141.169 Y207.553 E20.25577
G1 X140.485 Y208.169 E20.28638
G1 X139.75 Y208.723 E20.31699
G1 X138.97 Y209.212 E20.34761
G1 X138.15 Y209.631 E20.37824
G1 X137.297 Y209.977 E20.40886
G1 X136.417 Y210.248 E20.43948
G1 X135.517 Y210.441 E20.4701
G1 X134.603 Y210.556 E20.50074
G1 X134.038 Y210.587 E20.51956
G1 X133.717 Y210.596 E20.53024
G1 X133.42 Y210.6 E20.54012
G1 X124.305 Y210.599 E20.84328
G1 X123.608 Y210.589 E20.86647
G1 X123.002 Y210.563 E20.88664
G1 X122.388 Y210.503 E20.90716
G1 X121.384 Y210.375 E20.94082
G1 X118.882 Y210.091 E21.02458
G1 X116.26 Y209.867 E21.1121
G1 X115.502 Y209.813 E21.13738
G1 X114.587 Y209.707 E21.16801
G1 X113.685 Y209.523 E21.19863
G1 X112.803 Y209.261 E21.22923
G1 X111.946 Y208.923 E21.25987
G1 X111.122 Y208.512 E21.2905
G1 X110.337 Y208.032 E21.3211
G1 X109.597 Y207.485 E21.35171
G1 X108.906 Y206.875 E21.38237
G1 X108.272 Y206.209 E21.41295
G1 X107.697 Y205.489 E21.4436
G1 X107.187 Y204.723 E21.47421
G1 X106.746 Y203.915 E21.50482
G1 X106.376 Y203.072 E21.53544
G1 X106.081 Y202.2 E21.56606
G1 X105.862 Y201.305 E21.59671
G1 X105.722 Y200.395 E21.62733
G1 X105.663 Y199.527 E21.65627
G1 X105.654 Y199.195 E21.66731
G1 X105.65 Y198.908 E21.67686
G1 X105.651 Y192.418 E21.89272
G1 X105.662 Y191.709 E21.9163
G1 X105.717 Y190.79 E21.94692
G1 X105.85 Y189.879 E21.97754
G1 X106.063 Y188.983 E22.00817
G1 X106.425 Y187.922 E22.04546
G1 X106.676 Y187.298 E22.06783
G1 X107.62 Y184.847 E22.15519
G1 X108.462 Y182.463 E22.23928
G1 X109.236 Y180.057 E22.32334
G1 X109.933 Y177.656 E22.4065
G1 X110.584 Y175.157 E22.49239
G1 X111.148 Y172.713 E22.57581
G1 X111.64 Y170.251 E22.65932
G1 X112.071 Y167.737 E22.74416
G1 X112.428 Y165.228 E22.82845
G1 X112.708 Y162.758 E22.91112
G1 X112.926 Y160.203 E22.99641
G1 X113.068 Y157.698 E23.07986
G1 X113.141 Y155.126 E23.16544
G1 X113.15 Y153.821 E23.20885
G1 X113.15 Y96.181 E25.12596
G1 X113.113 Y93.555 E25.21331
G1 X113.006 Y91.048 E25.29677
G1 X112.828 Y88.527 E25.38083
G1 X112.578 Y86.009 E25.46499
G1 X112.257 Y83.498 E25.54919
G1 X111.87 Y81.036 E25.63208
G1 X111.401 Y78.514 E25.7174
G1 X110.869 Y76.042 E25.8015
G1 X110.269 Y73.592 E25.88539
G1 X109.602 Y71.169 E25.96898
G1 X108.857 Y68.735 E26.05364
G1 X108.039 Y66.31 E26.13876
G1 X107.178 Y63.975 E26.22154
G1 X106.651 Y62.66 E26.26866
G1 X106.365 Y61.916 E26.29517
G1 X106.072 Y61.044 E26.32576
G1 X105.856 Y60.149 E26.35639
G1 X105.719 Y59.238 E26.38703
G1 X105.663 Y58.413 E26.41453
G1 X105.654 Y58.095 E26.42511
G1 X105.65 Y57.795 E26.43509
G1 X105.651 Y51.282 E26.65171
G1 X105.66 Y50.616 E26.67387
G1 X105.712 Y49.697 E26.70448
G1 X105.844 Y48.785 E26.73513
G1 X106.055 Y47.889 E26.76575
G1 X106.342 Y47.015 E26.79634
G1 X106.705 Y46.168 E26.82699
G0 F6000 X107.103 Y46.264
G1 F1200 X107.536 Y45.472 E26.85701
G1 X108.038 Y44.721 E26.88706
G1 X108.604 Y44.017 E26.9171
G1 X109.231 Y43.367 E26.94714
G1 X109.912 Y42.774 E26.97718
G1 X110.643 Y42.244 E27.00721
G1 X111.419 Y41.781 E27.03726
G1 X112.232 Y41.388 E27.0673
G1 X113.076 Y41.068 E27.09732
G1 X113.946 Y40.825 E27.12736
G1 X114.834 Y40.659 E27.15741
G1 X115.384 Y40.597 E27.17582
G1 X115.949 Y40.549 E27.19468
G1 X117.753 Y40.42 E27.25483
G1 X120.277 Y40.167 E27.3392
G1 X122.102 Y39.932 E27.4004
G1 X122.599 Y39.875 E27.41704
G1 X123.473 Y39.813 E27.44618
G1 X123.792 Y39.804 E27.4568
G1 X124.08 Y39.8 E27.46638
G1 X133.043 Y39.8 E27.76449
G1 X133.887 Y39.811 E27.79256
G1 X134.789 Y39.864 E27.82261
G1 X135.682 Y39.996 E27.85264
G1 X136.56 Y40.207 E27.88267
G1 X137.416 Y40.495 E27.91271
G1 X138.243 Y40.857 E27.94274
G1 X139.035 Y41.292 E27.97279
G1 X139.786 Y41.794 E28.00283
G1 X140.489 Y42.361 E28.03287
G1 X141.139 Y42.988 E28.06291
G1 X141.731 Y43.67 E28.09295
G1 X142.261 Y44.401 E28.12298
G1 X142.723 Y45.177 E28.15302
G1 X143.116 Y45.99 E28.18305
G1 X143.434 Y46.835 E28.21308
G1 X143.677 Y47.705 E28.24312
G1 X143.842 Y48.593 E28.27317
G1 X143.937 Y49.716 E28.31065
G1 X143.946 Y50.028 E28.32103
G1 X143.95 Y50.322 E28.33081
G1 X143.949 Y199.39 E33.28883
G1 X143.94 Y200.117 E33.31301
G1 X143.889 Y201.019 E33.34306
G1 X143.758 Y201.913 E33.37312
G1 X143.549 Y202.791 E33.40313
G1 X143.263 Y203.648 E33.43318
G1 X142.902 Y204.476 E33.46323
G1 X142.47 Y205.268 E33.49323
G1 X141.969 Y206.02 E33.52329
G1 X141.403 Y206.724 E33.55333
G1 X140.778 Y207.375 E33.58335
G1 X140.097 Y207.969 E33.6134
G1 X139.366 Y208.5 E33.64345
G1 X138.592 Y208.964 E33.67347
G1 X137.779 Y209.358 E33.70352
G1 X136.935 Y209.678 E33.73354
G1 X136.065 Y209.923 E33.7636
G1 X135.178 Y210.089 E33.79361
G1 X134.027 Y210.187 E33.83203
G1 X133.706 Y210.196 E33.84271
G1 X133.42 Y210.2 E33.85223
G1 X124.311 Y210.199 E34.15519
G1 X123.614 Y210.189 E34.17838
G1 X123.029 Y210.164 E34.19785
G1 X122.439 Y210.106 E34.21757
G1 X121.483 Y209.984 E34.24963
G1 X118.889 Y209.69 E34.33646
G1 X116.321 Y209.471 E34.42218
G1 X115.531 Y209.414 E34.44852
G1 X114.634 Y209.31 E34.47856
G1 X113.749 Y209.126 E34.50862
G1 X112.885 Y208.866 E34.53863
G1 X112.046 Y208.529 E34.5687
G1 X111.241 Y208.12 E34.59873
G1 X110.475 Y207.642 E34.62877
G1 X109.755 Y207.097 E34.6588
G1 X109.085 Y206.491 E34.68885
G1 X108.472 Y205.828 E34.71888
G1 X107.92 Y205.114 E34.7489
G1 X107.433 Y204.353 E34.77895
G1 X107.015 Y203.552 E34.809
G1 X106.67 Y202.718 E34.83902
G1 X106.4 Y201.856 E34.86906
G1 X106.207 Y200.974 E34.89909
G1 X106.093 Y200.078 E34.92913
G1 X106.063 Y199.516 E34.94785
G1 X106.054 Y199.184 E34.9589
G1 X106.05 Y198.908 E34.96808
G1 X106.051 Y192.424 E35.18374
G1 X106.062 Y191.715 E35.20732
G1 X106.116 Y190.813 E35.23737
G1 X106.25 Y189.92 E35.26741
G1 X106.462 Y189.042 E35.29745
G1 X106.796 Y188.071 E35.3316
G1 X107.049 Y187.442 E35.35415
G1 X107.995 Y184.987 E35.44166
G1 X108.845 Y182.581 E35.52653
G1 X109.618 Y180.175 E35.61058
G1 X110.328 Y177.731 E35.69523
G1 X110.967 Y175.276 E35.7796
G1 X111.542 Y172.784 E35.86467
G1 X112.035 Y170.319 E35.94828
G1 X112.462 Y167.825 E36.03243
G1 X112.822 Y165.298 E36.11733
G1 X113.11 Y162.766 E36.20209
G1 X113.323 Y160.259 E36.28577
G1 X113.468 Y157.698 E36.37109
G1 X113.541 Y155.139 E36.45623
G1 X113.55 Y153.824 E36.49997
G1 X113.55 Y96.175 E38.41739
G1 X113.513 Y93.568 E38.5041
G1 X113.404 Y91.001 E38.58956
G1 X113.227 Y88.499 E38.67299
G1 X112.978 Y85.986 E38.75698
G1 X112.65 Y83.423 E38.84292
G1 X112.259 Y80.938 E38.92659
G1 X111.799 Y78.462 E39.01035
G1 X111.255 Y75.935 E39.09632
G1 X110.658 Y73.496 E39.17984
G1 X109.982 Y71.041 E39.26453
G1 X109.246 Y68.637 E39.34815
G1 X108.421 Y66.192 E39.43398
G1 X107.548 Y63.824 E39.51792
G1 X107.024 Y62.517 E39.56475
G1 X106.738 Y61.773 E39.59126
G1 X106.452 Y60.916 E39.62131
G1 X106.242 Y60.038 E39.65134
G1 X106.111 Y59.144 E39.68139
G1 X106.063 Y58.402 E39.70612
G1 X106.054 Y58.084 E39.7167
G1 X106.05 Y57.795 E39.72632
G1 X106.051 Y51.287 E39.94277
G1 X106.06 Y50.621 E39.96493
G1 X106.112 Y49.72 E39.99494
G1 X106.244 Y48.826 E40.025
G1 X106.454 Y47.948 E40.05503
G1 X106.741 Y47.092 E40.08505
G1 X107.103 Y46.264 E40.11511
G1 F2700 E35.11511
;MESH:vt320_stand.stl
G0 F6000 X120.653 Y50.097
G0 X120.661 Y52.17
G0 X126.687 Y54.794
G0 X125.244 Y55.004
G0 X126.345 Y56.596
G0 X127.032 Y57.187
G0 X127.496 Y57.399
G0 X128.758 Y57.852
;TYPE:WALL-INNER
G1 F2700 E40.11511
G1 F1200 X129.235 Y57.816 E40.13102
G1 X129.702 Y57.714 E40.14692
G1 X130.15 Y57.545 E40.16285
G1 X130.569 Y57.313 E40.17878
G1 X130.95 Y57.027 E40.19462
G1 X131.283 Y56.695 E40.21026
G1 X131.57 Y56.311 E40.22621
G1 X131.798 Y55.892 E40.24207
G1 X131.966 Y55.445 E40.25795
G1 X132.067 Y54.976 E40.27391
G1 X132.102 Y54.5 E40.28978
G1 X132.067 Y54.024 E40.30566
G1 X131.966 Y53.555 E40.32162
G1 X131.798 Y53.108 E40.3375
G1 X131.569 Y52.687 E40.35344
G1 X131.276 Y52.299 E40.36961
G1 X130.939 Y51.962 E40.38546
G1 X130.555 Y51.677 E40.40137
G1 X130.136 Y51.449 E40.41723
G1 X129.694 Y51.283 E40.43294
G1 X129.218 Y51.182 E40.44912
G1 X128.742 Y51.148 E40.46499
G1 X128.272 Y51.183 E40.48067
G1 X127.799 Y51.286 E40.49677
G1 X127.35 Y51.455 E40.51272
G1 X126.931 Y51.687 E40.52865
G1 X126.55 Y51.973 E40.5445
G1 X126.217 Y52.305 E40.56014
G1 X125.93 Y52.689 E40.57608
G1 X125.702 Y53.108 E40.59195
G1 X125.534 Y53.555 E40.60783
G1 X125.433 Y54.024 E40.62379
G1 X125.398 Y54.5 E40.63966
G1 X125.433 Y54.976 E40.65554
G1 X125.534 Y55.445 E40.67149
G1 X125.702 Y55.892 E40.68738
G1 X125.931 Y56.313 E40.70332
G1 X126.224 Y56.701 E40.71949
G1 X126.561 Y57.038 E40.73534
G1 X126.945 Y57.323 E40.75125
G1 X127.364 Y57.551 E40.76711
G1 X127.806 Y57.717 E40.78281
G1 X128.282 Y57.818 E40.799
G1 X128.758 Y57.852 E40.81487
G0 F6000 X128.757 Y57.451
;TYPE:WALL-OUTER
G1 F1200 X129.177 Y57.419 E40.82888
G1 X129.588 Y57.329 E40.84287
G1 X129.982 Y57.181 E40.85687
G1 X130.351 Y56.977 E40.8709
G1 X130.687 Y56.724 E40.88489
G1 X130.98 Y56.432 E40.89864
G1 X131.232 Y56.095 E40.91264
G1 X131.433 Y55.725 E40.92665
G1 X131.581 Y55.332 E40.94061
G1 X131.67 Y54.919 E40.95466
G1 X131.701 Y54.5 E40.96864
G1 X131.67 Y54.081 E40.98261
G1 X131.581 Y53.668 E40.99666
G1 X131.433 Y53.275 E41.01063
G1 X131.232 Y52.904 E41.02467
G1 X130.974 Y52.562 E41.03891
G1 X130.677 Y52.266 E41.05286
G1 X130.339 Y52.015 E41.06686
G1 X129.969 Y51.814 E41.08087
G1 X129.581 Y51.668 E41.09466
G1 X129.162 Y51.579 E41.1089
G1 X128.743 Y51.549 E41.12288
G1 X128.33 Y51.58 E41.13665
G1 X127.912 Y51.671 E41.15088
G1 X127.518 Y51.819 E41.16488
G1 X127.149 Y52.023 E41.1789
G1 X126.813 Y52.276 E41.19289
G1 X126.52 Y52.568 E41.20665
G1 X126.268 Y52.905 E41.22064
G1 X126.067 Y53.275 E41.23465
